; generated by Slic3r 1.3.0-dev on 2016-03-26 at 15:08:07

; external perimeters extrusion width = 0.50mm
; perimeters extrusion width = 0.50mm
; infill extrusion width = 0.50mm
; solid infill extrusion width = 0.50mm
; top infill extrusion width = 0.50mm

M107
M190 S100 ; set bed temperature and wait for it to be reached
M104 S210 ; set temperature
G28                                                        ; Home all axes
M83                                                       ; Set extruder to relative mode
T0                                                          ; Turn tool on
G1 E5 F1980                                         ; Prime the extruder
M300 S4100 P100                                ; Play a tone
M84 S0                                                  ; Keep motors on


M109 S210 ; set temperature and wait for it to be reached
G21 ; set units to millimeters
G90 ; use absolute coordinates
M83 ; use relative distances for extrusion
G1 E-4.00000 F1980.00000
G1 Z0.350 F4200.000
G1 X3.708 Y1.338 F4200.000
G1 E4.00000 F1980.00000
G1 F300
G1 X4.018 Y1.325 E0.03270
G1 X15.982 Y1.325 E1.26196
G1 X18.367 Y2.189 E0.26761
G1 X19.142 Y2.835 E0.10645
G1 X19.424 Y3.096 E0.04042
G1 X20.139 Y3.830 E0.10813
G1 X20.393 Y4.118 E0.04046
G1 X21.029 Y4.921 E0.10809
G1 X21.251 Y5.234 E0.04046
G1 X21.801 Y6.098 E0.10809
G1 X21.990 Y6.431 E0.04035
G1 X22.448 Y7.349 E0.10820
G1 X22.602 Y7.700 E0.04047
G1 X22.964 Y8.659 E0.10809
G1 X23.080 Y9.024 E0.04046
G1 X23.341 Y10.015 E0.10809
G1 X23.421 Y10.397 E0.04114
G1 X23.578 Y11.403 E0.10741
G1 X23.617 Y11.785 E0.04046
G1 X23.670 Y12.808 E0.10811
G1 X23.670 Y13.192 E0.04043
G1 X23.617 Y14.215 E0.10810
G1 X23.578 Y14.597 E0.04046
G1 X23.420 Y15.610 E0.10814
G1 X23.341 Y15.985 E0.04042
G1 X23.080 Y16.976 E0.10809
G1 X22.964 Y17.341 E0.04046
G1 X22.602 Y18.300 E0.10809
G1 X22.448 Y18.651 E0.04047
G1 X21.990 Y19.568 E0.10809
G1 X21.801 Y19.902 E0.04046
G1 X21.251 Y20.766 E0.10809
G1 X21.029 Y21.079 E0.04042
G1 X20.393 Y21.882 E0.10814
G1 X20.139 Y22.170 E0.04046
G1 X19.424 Y22.904 E0.10814
G1 X19.142 Y23.165 E0.04042
G1 X18.367 Y23.811 E0.10645
G1 X15.982 Y24.675 E0.26761
G1 X4.018 Y24.675 E1.26196
G1 X3.708 Y24.662 E0.03270
G1 X-20.260 Y22.662 E2.53695
G1 X-21.890 Y22.130 E0.18086
G1 X-23.109 Y20.924 E0.18086
G1 X-23.675 Y18.950 E0.21663
G1 X-23.675 Y7.050 E1.25522
G1 X-23.280 Y5.381 E0.18086
G1 X-22.180 Y4.066 E0.18086
G1 X-20.260 Y3.338 E0.21663
G1 X3.656 Y1.342 E2.53141
G1 E-4.00000 F1980.00000
G1 X6.570 Y10.518 F4200.000
G1 E4.00000 F1980.00000
G1 F450
G1 X7.292 Y9.746 E0.11146
G1 X8.217 Y9.162 E0.11542
G1 X9.213 Y8.840 E0.11047
G1 F450
G1 X10.251 Y8.774 E0.10970
G1 X11.319 Y8.978 E0.11470
G1 X12.267 Y9.424 E0.11045
G1 X13.086 Y10.101 E0.11218
G1 X13.710 Y10.960 E0.11199
G1 X14.101 Y11.947 E0.11196
G1 X14.234 Y13.000 E0.11196
G1 X14.101 Y14.053 E0.11195
G1 X13.710 Y15.040 E0.11196
G1 X13.086 Y15.899 E0.11199
G1 X12.267 Y16.576 E0.11217
G1 X11.320 Y17.022 E0.11034
G1 X10.258 Y17.226 E0.11411
G1 X9.203 Y17.158 E0.11153
G1 X8.210 Y16.836 E0.11011
G1 X7.306 Y16.267 E0.11265
G1 X6.571 Y15.483 E0.11342
G1 X6.073 Y14.578 E0.10895
G1 X5.798 Y13.516 E0.11571
G1 X5.801 Y12.462 E0.11115
G1 X6.060 Y11.450 E0.11018
G1 X6.545 Y10.564 E0.10650
G1 X7.162 Y10.946 F4200.000
G1 F450
G1 X7.757 Y10.309 E0.09197
G1 X8.526 Y9.823 E0.09594
G1 X9.350 Y9.558 E0.09124
G1 F450
G1 X10.206 Y9.504 E0.09048
G1 X11.094 Y9.673 E0.09537
G1 X11.875 Y10.040 E0.09112
G1 X12.554 Y10.601 E0.09286
G1 X13.070 Y11.312 E0.09266
G1 X13.394 Y12.129 E0.09264
G1 X13.504 Y13.000 E0.09264
G1 X13.394 Y13.871 E0.09264
G1 X13.070 Y14.688 E0.09264
G1 X12.554 Y15.399 E0.09266
G1 X11.875 Y15.960 E0.09286
G1 X11.094 Y16.327 E0.09108
G1 X10.212 Y16.497 E0.09473
G1 X9.340 Y16.440 E0.09218
G1 X8.520 Y16.174 E0.09098
G1 X7.771 Y15.703 E0.09329
G1 X7.162 Y15.053 E0.09397
G1 X6.752 Y14.308 E0.08972
G1 X6.523 Y13.424 E0.09630
G1 X6.525 Y12.554 E0.09176
G1 X6.740 Y11.718 E0.09104
G1 X7.137 Y10.992 E0.08726
G1 X7.162 Y10.946 F4200.000
G1 X-18.825 Y8.175 F4200.000
G1 F450
G1 X2.553 Y8.175 E2.25499
G1 X3.473 Y7.063 E0.15222
G1 X4.063 Y6.473 E0.08801
G1 X4.423 Y6.175 E0.04929
G1 X15.574 Y6.175 E1.17629
G1 X15.992 Y6.523 E0.05735
G1 X16.626 Y7.174 E0.09585
G1 X17.191 Y7.886 E0.09585
G1 X17.678 Y8.653 E0.09585
G1 X18.085 Y9.466 E0.09585
G1 X18.405 Y10.316 E0.09585
G1 X18.637 Y11.195 E0.09585
G1 X18.777 Y12.092 E0.09585
G1 X18.824 Y13.000 E0.09585
G1 X18.777 Y13.908 E0.09585
G1 X18.637 Y14.805 E0.09585
G1 X18.405 Y15.684 E0.09585
G1 X18.085 Y16.534 E0.09585
G1 X17.678 Y17.347 E0.09585
G1 X17.191 Y18.114 E0.09585
G1 X16.626 Y18.826 E0.09585
G1 X15.992 Y19.477 E0.09585
G1 X15.574 Y19.825 E0.05735
G1 X4.423 Y19.825 E1.17629
G1 X4.063 Y19.527 E0.04929
G1 X3.473 Y18.937 E0.08801
G1 X2.553 Y17.825 E0.15222
G1 X-18.825 Y17.825 E2.25499
G1 X-18.825 Y8.227 E1.01238
G1 X-19.550 Y7.450 F4200.000
G1 F450
G1 X2.212 Y7.450 E2.29546
G1 X2.936 Y6.574 E0.11985
G1 X3.574 Y5.936 E0.09525
G1 X4.162 Y5.450 E0.08042
G1 X15.837 Y5.450 E1.23150
G1 X16.485 Y5.990 E0.08899
G1 X17.172 Y6.694 E0.10374
G1 X17.782 Y7.465 E0.10374
G1 X18.310 Y8.295 E0.10374
G1 X18.750 Y9.175 E0.10374
G1 X19.097 Y10.095 E0.10374
G1 X19.347 Y11.046 E0.10374
G1 X19.499 Y12.018 E0.10374
G1 X19.549 Y13.000 E0.10374
G1 X19.499 Y13.982 E0.10374
G1 X19.347 Y14.954 E0.10374
G1 X19.097 Y15.905 E0.10374
G1 X18.750 Y16.825 E0.10374
G1 X18.310 Y17.705 E0.10374
G1 X17.782 Y18.535 E0.10374
G1 X17.172 Y19.306 E0.10374
G1 X16.485 Y20.010 E0.10374
G1 X15.837 Y20.550 E0.08899
G1 X4.162 Y20.550 E1.23150
G1 X3.574 Y20.064 E0.08042
G1 X2.936 Y19.426 E0.09525
G1 X2.212 Y18.550 E0.11984
G1 X-19.550 Y18.550 E2.29546
G1 X-19.550 Y7.502 E1.16530
G1 X-19.204 Y7.505 F4200.000
G1 X-18.383 Y17.035 F4200.000
G1 F300
G1 X-18.035 Y17.383 E0.05299
G1 X-16.987 Y17.383 E0.11300
G1 X-18.383 Y15.987 E0.21281
G1 X-18.383 Y14.939 E0.11300
G1 X-15.939 Y17.383 E0.37262
G1 X-14.891 Y17.383 E0.11300
G1 X-18.383 Y13.891 E0.53243
G1 X-18.383 Y12.843 E0.11300
G1 X-13.843 Y17.383 E0.69224
G1 X-12.795 Y17.383 E0.11300
G1 X-18.383 Y11.795 E0.85205
G1 X-18.383 Y10.747 E0.11300
G1 X-11.747 Y17.383 E1.01186
G1 X-10.699 Y17.383 E0.11300
G1 X-18.383 Y9.699 E1.17167
G1 X-18.380 Y8.654 E0.11269
G1 X-9.651 Y17.383 E1.33104
G1 X-8.603 Y17.383 E0.11300
G1 X-17.369 Y8.617 E1.33669
G1 X-16.321 Y8.617 E0.11300
G1 X-7.555 Y17.383 E1.33669
G1 X-6.507 Y17.383 E0.11300
G1 X-15.273 Y8.617 E1.33669
G1 X-14.225 Y8.617 E0.11300
G1 X-5.459 Y17.383 E1.33669
G1 X-4.412 Y17.383 E0.11300
G1 X-13.177 Y8.617 E1.33669
G1 X-12.129 Y8.617 E0.11300
G1 X-3.364 Y17.383 E1.33669
G1 X-2.316 Y17.383 E0.11300
G1 X-11.081 Y8.617 E1.33669
G1 X-10.033 Y8.617 E0.11300
G1 X-1.268 Y17.383 E1.33669
G1 X-0.220 Y17.383 E0.11300
G1 X-8.985 Y8.617 E1.33669
G1 X-7.937 Y8.617 E0.11300
G1 X0.828 Y17.383 E1.33669
G1 X1.876 Y17.383 E0.11300
G1 X-6.889 Y8.617 E1.33669
G1 X-5.841 Y8.617 E0.11300
G1 X4.924 Y19.383 E1.64168
G1 X5.972 Y19.383 E0.11300
G1 X-4.793 Y8.617 E1.64168
G1 X-3.745 Y8.617 E0.11300
G1 X7.020 Y19.383 E1.64168
G1 X8.068 Y19.383 E0.11300
G1 X-2.697 Y8.617 E1.64168
G1 X-1.649 Y8.617 E0.11300
G1 X9.116 Y19.383 E1.64168
G1 X8.107 Y17.325 F4200.000
G1 F300
G1 X10.164 Y19.383 E0.31374
G1 X11.212 Y19.383 E0.11300
G1 X9.457 Y17.628 E0.26761
G1 X10.484 Y17.606 E0.11070
G1 X12.260 Y19.383 E0.27090
G1 X13.308 Y19.383 E0.11300
G1 X11.361 Y17.436 E0.29694
G1 X12.074 Y17.100 E0.08493
G1 X14.356 Y19.383 E0.34808
G1 X15.404 Y19.383 E0.11300
G1 X12.718 Y16.696 E0.40967
G1 X13.291 Y16.222 E0.08026
G1 X15.987 Y18.918 E0.41108
G1 X16.496 Y18.379 E0.07994
G1 X13.751 Y15.633 E0.41865
G1 X14.156 Y14.991 E0.08192
G1 X16.947 Y17.782 E0.42555
G1 X17.348 Y17.135 E0.08206
G1 X14.454 Y14.240 E0.44146
G1 X14.617 Y13.356 E0.09700
G1 X17.697 Y16.435 E0.46964
G1 X17.984 Y15.674 E0.08770
G1 X14.613 Y12.304 E0.51405
G1 X14.220 Y10.863 E0.16098
G1 X18.204 Y14.847 E0.60746
G1 X16.382 Y7.785 F4200.000
G1 F300
G1 X15.263 Y6.666 E0.17068
G1 X14.166 Y6.617 E0.11832
G1 X17.863 Y10.314 E0.56379
G1 X18.250 Y11.748 E0.16015
G1 X13.118 Y6.617 E0.78249
G1 X12.070 Y6.617 E0.11300
G1 X18.368 Y12.915 E0.96036
G1 X18.340 Y13.935 E0.11003
G1 X11.022 Y6.617 E1.11590
G1 X9.974 Y6.617 E0.11300
G1 X12.147 Y8.790 E0.33127
G1 X10.684 Y8.374 E0.16399
G1 X8.926 Y6.617 E0.26796
G1 X7.879 Y6.617 E0.11300
G1 X9.641 Y8.379 E0.26870
G1 X8.773 Y8.559 E0.09558
G1 X6.831 Y6.617 E0.29616
G1 X5.783 Y6.617 E0.11300
G1 X8.006 Y8.841 E0.33905
G1 X7.364 Y9.246 E0.08191
G1 X4.735 Y6.617 E0.40093
G1 X4.070 Y7.001 E0.08273
G1 X6.794 Y9.724 E0.41532
G1 X6.287 Y10.266 E0.07995
G1 X3.566 Y7.545 E0.41491
G1 X3.092 Y8.119 E0.08026
G1 X5.903 Y10.930 E0.42868
G1 X5.585 Y11.659 E0.08582
G1 X2.543 Y8.617 E0.46386
G1 X1.495 Y8.617 E0.11300
G1 X5.370 Y12.493 E0.59103
G1 X5.356 Y13.527 E0.11147
G1 X0.447 Y8.617 E0.74866
G1 X-0.601 Y8.617 E0.11300
G1 X5.645 Y14.864 E0.95256
G1 E-4.00000 F1980.00000
G1 Z0.550 F4200.000
G1 X6.220 Y12.508 F4200.000
G1 E4.00000 F1980.00000
G1 F900
G1 X6.449 Y11.612 E0.03513
G1 X6.907 Y10.771 E0.03639
G1 X7.550 Y10.080 E0.03587
G1 X8.415 Y9.536 E0.03887
G1 X9.298 Y9.253 E0.03522
G1 F900
G1 X10.211 Y9.195 E0.03478
G1 X11.200 Y9.382 E0.03825
G1 X12.043 Y9.781 E0.03546
G1 X12.779 Y10.389 E0.03629
G1 X13.341 Y11.163 E0.03634
G1 X13.693 Y12.052 E0.03633
G1 X13.813 Y13.000 E0.03633
G1 X13.693 Y13.948 E0.03633
G1 X13.341 Y14.837 E0.03633
G1 X12.779 Y15.611 E0.03634
G1 X12.043 Y16.219 E0.03630
G1 X11.201 Y16.617 E0.03541
G1 X10.225 Y16.806 E0.03778
G1 X9.279 Y16.744 E0.03604
G1 X8.400 Y16.459 E0.03510
G1 X7.579 Y15.946 E0.03684
G1 X6.907 Y15.229 E0.03732
G1 X6.475 Y14.443 E0.03407
G1 X6.215 Y13.446 E0.03919
G1 X6.219 Y12.560 E0.03366
G1 X6.676 Y12.566 F4200.000
G1 F900
G1 X6.878 Y11.781 E0.03083
G1 X7.281 Y11.040 E0.03204
G1 X7.844 Y10.435 E0.03140
G1 X8.610 Y9.953 E0.03440
G1 X9.384 Y9.705 E0.03088
G1 F900
G1 X10.183 Y9.655 E0.03043
G1 X11.057 Y9.820 E0.03384
G1 X11.796 Y10.170 E0.03106
G1 X12.444 Y10.705 E0.03192
G1 X12.938 Y11.385 E0.03195
G1 X13.247 Y12.166 E0.03194
G1 X13.352 Y13.000 E0.03194
G1 X13.247 Y13.834 E0.03194
G1 X12.938 Y14.615 E0.03194
G1 X12.444 Y15.295 E0.03195
G1 X11.796 Y15.830 E0.03192
G1 X11.058 Y16.179 E0.03105
G1 X10.196 Y16.346 E0.03334
G1 X9.366 Y16.291 E0.03164
G1 X8.595 Y16.042 E0.03079
G1 X7.871 Y15.590 E0.03243
G1 X7.280 Y14.958 E0.03288
G1 X6.903 Y14.273 E0.02972
G1 X6.672 Y13.388 E0.03476
G1 X6.676 Y12.619 E0.02923
G1 X6.676 Y12.566 F4200.000
G1 X-19.243 Y7.757 F4200.000
G1 F900
G1 X2.356 Y7.757 E0.82091
G1 X3.163 Y6.781 E0.04812
G1 X3.781 Y6.163 E0.03322
G1 X4.272 Y5.757 E0.02422
G1 X15.730 Y5.760 E0.43545
G1 X16.276 Y6.216 E0.02705
G1 X16.941 Y6.897 E0.03617
G1 X17.531 Y7.644 E0.03617
G1 X18.042 Y8.447 E0.03617
G1 X18.468 Y9.298 E0.03617
G1 X18.804 Y10.189 E0.03617
G1 X19.046 Y11.109 E0.03617
G1 X19.193 Y12.049 E0.03617
G1 X19.242 Y13.000 E0.03617
G1 X19.193 Y13.951 E0.03617
G1 X19.046 Y14.891 E0.03617
G1 X18.804 Y15.811 E0.03617
G1 X18.468 Y16.702 E0.03617
G1 X18.042 Y17.553 E0.03617
G1 X17.531 Y18.356 E0.03617
G1 X16.941 Y19.103 E0.03617
G1 X16.276 Y19.784 E0.03617
G1 X15.726 Y20.243 E0.02724
G1 X4.272 Y20.243 E0.43530
G1 X3.781 Y19.837 E0.02422
G1 X3.163 Y19.219 E0.03322
G1 X2.356 Y18.243 E0.04812
G1 X-19.243 Y18.243 E0.82091
G1 X-19.243 Y7.810 E0.39653
G1 X-19.700 Y7.300 F4200.000
G1 F900
G1 X2.141 Y7.300 E0.83010
G1 X2.825 Y6.473 E0.04077
G1 X3.473 Y5.825 E0.03486
G1 X4.108 Y5.300 E0.03130
G1 X15.895 Y5.303 E0.44799
G1 X16.587 Y5.880 E0.03423
G1 X17.284 Y6.595 E0.03797
G1 X17.904 Y7.378 E0.03797
G1 X18.441 Y8.221 E0.03797
G1 X18.887 Y9.115 E0.03797
G1 X19.240 Y10.049 E0.03797
G1 X19.494 Y11.015 E0.03797
G1 X19.648 Y12.002 E0.03797
G1 X19.700 Y13.000 E0.03797
G1 X19.648 Y13.998 E0.03797
G1 X19.494 Y14.985 E0.03797
G1 X19.240 Y15.951 E0.03797
G1 X18.887 Y16.885 E0.03797
G1 X18.441 Y17.779 E0.03797
G1 X17.904 Y18.622 E0.03797
G1 X17.284 Y19.405 E0.03797
G1 X16.587 Y20.120 E0.03797
G1 X15.891 Y20.700 E0.03442
G1 X4.108 Y20.700 E0.44784
G1 X3.473 Y20.175 E0.03130
G1 X2.825 Y19.527 E0.03486
G1 X2.141 Y18.700 E0.04077
G1 X-19.700 Y18.700 E0.83010
G1 X-19.700 Y7.353 E0.43128
G1 X-19.354 Y7.356 F4200.000
G1 X-18.971 Y8.262 F4200.000
G1 F600
G1 X-18.738 Y8.029 E0.01266
G1 X-18.087 Y8.029 E0.02492
G1 X-18.971 Y8.913 E0.04790
G1 X-18.971 Y9.564 E0.02492
G1 X-17.436 Y8.029 E0.08313
G1 X-16.785 Y8.029 E0.02492
G1 X-18.971 Y10.215 E0.11837
G1 X-18.971 Y10.866 E0.02492
G1 X-16.134 Y8.029 E0.15361
G1 X-15.483 Y8.029 E0.02492
G1 X-18.971 Y11.517 E0.18884
G1 X-18.971 Y12.168 E0.02492
G1 X-14.832 Y8.029 E0.22408
G1 X-14.181 Y8.029 E0.02492
G1 X-18.971 Y12.819 E0.25932
G1 X-18.971 Y13.470 E0.02492
G1 X-13.530 Y8.029 E0.29455
G1 X-12.879 Y8.029 E0.02492
G1 X-18.971 Y14.121 E0.32979
G1 X-18.971 Y14.772 E0.02492
G1 X-12.228 Y8.029 E0.36503
G1 X-11.577 Y8.029 E0.02492
G1 X-18.971 Y15.423 E0.40026
G1 X-18.971 Y16.074 E0.02492
G1 X-10.926 Y8.029 E0.43550
G1 X-10.275 Y8.029 E0.02492
G1 X-18.971 Y16.725 E0.47074
G1 X-18.971 Y17.376 E0.02492
G1 X-9.624 Y8.029 E0.50597
G1 X-8.973 Y8.029 E0.02492
G1 X-18.916 Y17.971 E0.53819
G1 X-18.265 Y17.971 E0.02492
G1 X-8.322 Y8.029 E0.53819
G1 X-7.671 Y8.029 E0.02492
G1 X-17.614 Y17.971 E0.53819
G1 X-16.963 Y17.971 E0.02492
G1 X-7.020 Y8.029 E0.53819
G1 X-6.369 Y8.029 E0.02492
G1 X-16.312 Y17.971 E0.53819
G1 X-15.661 Y17.971 E0.02492
G1 X-5.718 Y8.029 E0.53819
G1 X-5.067 Y8.029 E0.02492
G1 X-15.010 Y17.971 E0.53819
G1 X-14.359 Y17.971 E0.02492
G1 X-4.416 Y8.029 E0.53819
G1 X-3.765 Y8.029 E0.02492
G1 X-13.708 Y17.971 E0.53819
G1 X-13.057 Y17.971 E0.02492
G1 X-3.114 Y8.029 E0.53819
G1 X-2.463 Y8.029 E0.02492
G1 X-12.406 Y17.971 E0.53819
G1 X-11.755 Y17.971 E0.02492
G1 X-1.812 Y8.029 E0.53819
G1 X-1.161 Y8.029 E0.02492
G1 X-11.104 Y17.971 E0.53819
G1 X-10.453 Y17.971 E0.02492
G1 X-0.510 Y8.029 E0.53819
G1 X0.141 Y8.029 E0.02492
G1 X-9.802 Y17.971 E0.53819
G1 X-9.151 Y17.971 E0.02492
G1 X0.792 Y8.029 E0.53819
G1 X1.443 Y8.029 E0.02492
G1 X-8.500 Y17.971 E0.53819
G1 X-7.849 Y17.971 E0.02492
G1 X2.094 Y8.029 E0.53819
G1 X4.745 Y6.029 F4200.000
G1 F600
G1 X-7.198 Y17.971 E0.64644
G1 X-6.547 Y17.971 E0.02492
G1 X5.395 Y6.029 E0.64643
G1 X6.046 Y6.029 E0.02491
G1 X-5.896 Y17.971 E0.64642
G1 X-5.245 Y17.971 E0.02492
G1 X6.697 Y6.029 E0.64641
G1 X7.348 Y6.029 E0.02491
G1 X-4.594 Y17.971 E0.64640
G1 X-3.943 Y17.971 E0.02492
G1 X7.999 Y6.030 E0.64639
G1 X8.649 Y6.030 E0.02491
G1 X-3.292 Y17.971 E0.64638
G1 X-2.641 Y17.971 E0.02492
G1 X9.300 Y6.030 E0.64637
G1 X9.951 Y6.030 E0.02491
G1 X-1.990 Y17.971 E0.64636
G1 X6.079 Y11.855 F4200.000
G1 F600
G1 X-0.037 Y17.971 E0.33105
G1 X0.614 Y17.971 E0.02492
G1 X5.947 Y12.638 E0.28868
G1 X5.944 Y13.292 E0.02504
G1 X1.265 Y17.971 E0.25327
G1 X1.916 Y17.971 E0.02492
G1 X6.057 Y13.830 E0.22415
G1 X6.191 Y14.347 E0.02042
G1 X2.493 Y18.045 E0.20017
G1 X2.788 Y18.401 E0.01770
G1 X6.397 Y14.792 E0.19533
G1 X6.628 Y15.212 E0.01835
G1 X3.083 Y18.757 E0.19189
G1 X3.381 Y19.110 E0.01768
G1 X6.915 Y15.576 E0.19128
G1 X7.230 Y15.912 E0.01763
G1 X3.707 Y19.435 E0.19071
G1 X4.042 Y19.751 E0.01763
G1 X7.573 Y16.219 E0.19117
G1 X7.974 Y16.470 E0.01808
G1 X4.472 Y19.971 E0.18954
G1 X5.123 Y19.971 E0.02492
G1 X8.382 Y16.713 E0.17640
G1 X8.874 Y16.872 E0.01979
G1 X5.774 Y19.971 E0.16778
G1 X6.425 Y19.971 E0.02492
G1 X9.380 Y17.016 E0.15995
G1 X9.991 Y17.056 E0.02343
G1 X7.076 Y19.971 E0.15778
G1 X7.727 Y19.971 E0.02492
G1 X10.684 Y17.014 E0.16007
G1 X11.533 Y16.817 E0.03333
G1 X8.378 Y19.971 E0.17075
G1 X15.758 Y19.752 F4200.000
G1 F600
G1 X16.806 Y18.705 E0.05671
G1 X18.052 Y16.808 F4200.000
G1 F600
G1 X14.888 Y19.971 E0.17124
G1 X14.237 Y19.971 E0.02492
G1 X18.515 Y15.694 E0.23155
G1 X18.762 Y14.796 E0.03564
G1 X13.586 Y19.971 E0.28016
G1 X12.935 Y19.971 E0.02492
G1 X18.892 Y14.015 E0.32243
G1 X18.949 Y13.306 E0.02720
G1 X12.284 Y19.971 E0.36077
G1 X11.633 Y19.971 E0.02492
G1 X18.957 Y12.648 E0.39642
G1 X18.925 Y12.029 E0.02373
G1 X10.982 Y19.971 E0.42992
G1 X10.331 Y19.971 E0.02492
G1 X18.841 Y11.462 E0.46060
G1 X18.737 Y10.915 E0.02132
G1 X9.680 Y19.971 E0.49022
G1 X9.029 Y19.971 E0.02492
G1 X18.601 Y10.400 E0.51811
G1 X18.439 Y9.911 E0.01971
