; generated by Slic3r 1.3.0-dev on 2016-03-08 at 17:00:37

; external perimeters extrusion width = 0.50mm
; perimeters extrusion width = 0.50mm
; infill extrusion width = 0.50mm
; solid infill extrusion width = 0.50mm
; top infill extrusion width = 0.50mm

M107
M190 S57 ; set bed temperature and wait for it to be reached
G28        ; Home all axes
M83;
G10 P0 S195 R160                       ; Set tool 0 operating and standby temperatures
T0

G21 ; set units to millimeters
G90 ; use absolute coordinates
M83 ; use relative distances for extrusion
G1 E-3.50000 F2400.00000
G1 Z0.500 F9000.000
G1 X73.503 Y57.193 F9000.000
G1 E3.50000 F2400.00000
G1 F1200
G1 X74.016 Y56.608 E0.11207
G1 X74.358 Y56.266 E0.06955
G1 X74.943 Y55.753 E0.11207
G1 X75.326 Y55.459 E0.06956
G1 X75.974 Y55.027 E0.11207
G1 X76.392 Y54.785 E0.06955
G1 X77.090 Y54.441 E0.11208
G1 X77.536 Y54.256 E0.06954
G1 X78.273 Y54.006 E0.11207
G1 X78.740 Y53.881 E0.06955
G1 X79.503 Y53.729 E0.11207
G1 X79.982 Y53.666 E0.06955
G1 X81.002 Y53.607 E0.14709
G1 X118.998 Y53.607 E5.47135
G1 X120.018 Y53.666 E0.14709
G1 X120.497 Y53.729 E0.06955
G1 X121.260 Y53.881 E0.11207
G1 X121.727 Y54.006 E0.06955
G1 X122.464 Y54.256 E0.11207
G1 X122.910 Y54.441 E0.06954
G1 X123.608 Y54.785 E0.11208
G1 X124.026 Y55.027 E0.06955
G1 X124.674 Y55.459 E0.11207
G1 X125.057 Y55.753 E0.06955
G1 X125.642 Y56.267 E0.11208
G1 X125.984 Y56.608 E0.06955
G1 X126.497 Y57.193 E0.11207
G1 X126.791 Y57.576 E0.06955
G1 X127.223 Y58.223 E0.11207
G1 X127.465 Y58.642 E0.06955
G1 X127.809 Y59.340 E0.11207
G1 X127.994 Y59.786 E0.06955
G1 X128.244 Y60.523 E0.11207
G1 X128.369 Y60.990 E0.06956
G1 X128.521 Y61.753 E0.11207
G1 X128.584 Y62.232 E0.06955
G1 X128.643 Y63.252 E0.14709
G1 X128.643 Y101.248 E5.47135
G1 X128.584 Y102.268 E0.14709
G1 X122.604 Y143.234 E5.96147
G1 X121.973 Y144.821 E0.24581
G1 X120.696 Y145.954 E0.24581
G1 X118.950 Y146.393 E0.25926
G1 X81.050 Y146.393 E5.45743
G1 X79.389 Y145.998 E0.24581
G1 X78.083 Y144.899 E0.24581
G1 X77.396 Y143.234 E0.25926
G1 X71.447 Y102.561 E5.91910
G1 X71.365 Y101.490 E0.15469
G1 X71.365 Y63.010 E5.54091
G1 X71.416 Y62.232 E0.11231
G1 X71.479 Y61.753 E0.06955
G1 X71.631 Y60.990 E0.11207
G1 X71.756 Y60.523 E0.06955
G1 X72.006 Y59.786 E0.11207
G1 X72.191 Y59.340 E0.06955
G1 X72.535 Y58.642 E0.11208
G1 X72.777 Y58.224 E0.06955
G1 X73.209 Y57.576 E0.11207
G1 X73.458 Y57.253 E0.05876
G1 E-3.50000 F2400.00000
G1 X103.288 Y94.057 F9000.000
G1 E3.50000 F2400.00000
G1 F900
G1 X102.735 Y94.818 E0.13542
G1 X102.010 Y95.418 E0.13542
G1 X101.159 Y95.818 E0.13542
G1 X100.236 Y95.994 E0.13542
G1 X99.297 Y95.935 E0.13542
G1 X98.403 Y95.645 E0.13542
G1 X97.609 Y95.141 E0.13542
G1 X96.965 Y94.455 E0.13542
G1 X96.512 Y93.631 E0.13542
G1 X96.278 Y92.720 E0.13542
G1 X96.278 Y91.780 E0.13542
G1 X96.512 Y90.869 E0.13542
G1 X96.965 Y90.045 E0.13542
G1 X97.609 Y89.359 E0.13542
G1 X98.403 Y88.855 E0.13542
G1 X99.297 Y88.565 E0.13542
G1 F900
G1 X100.236 Y88.506 E0.13542
G1 X101.159 Y88.682 E0.13542
G1 X102.010 Y89.082 E0.13542
G1 X102.735 Y89.682 E0.13542
G1 X103.288 Y90.443 E0.13542
G1 X103.634 Y91.317 E0.13542
G1 X103.752 Y92.250 E0.13542
G1 X103.634 Y93.183 E0.13542
G1 X103.315 Y93.988 E0.12462
G1 X102.676 Y93.721 F9000.000
G1 F900
G1 X102.226 Y94.340 E0.11022
G1 X101.636 Y94.828 E0.11022
G1 X100.944 Y95.154 E0.11022
G1 X100.192 Y95.298 E0.11022
G1 X99.428 Y95.249 E0.11022
G1 X98.700 Y95.013 E0.11022
G1 X98.054 Y94.603 E0.11022
G1 X97.530 Y94.045 E0.11022
G1 X97.161 Y93.374 E0.11022
G1 X96.971 Y92.633 E0.11022
G1 X96.971 Y91.867 E0.11022
G1 X97.161 Y91.126 E0.11022
G1 X97.530 Y90.455 E0.11022
G1 X98.054 Y89.897 E0.11022
G1 X98.700 Y89.487 E0.11022
G1 X99.428 Y89.251 E0.11022
G1 F900
G1 X100.192 Y89.202 E0.11022
G1 X100.944 Y89.346 E0.11022
G1 X101.636 Y89.672 E0.11022
G1 X102.226 Y90.160 E0.11022
G1 X102.676 Y90.779 E0.11022
G1 X102.958 Y91.491 E0.11022
G1 X103.054 Y92.250 E0.11022
G1 X102.958 Y93.009 E0.11022
G1 X102.703 Y93.651 E0.09942
G1 X102.676 Y93.721 F9000.000
G1 E-3.50000 F2400.00000
G1 X92.735 Y84.818 F9000.000
G1 E3.50000 F2400.00000
G1 F900
G1 X92.010 Y85.418 E0.13542
G1 X91.159 Y85.818 E0.13542
G1 X90.236 Y85.994 E0.13542
G1 X89.297 Y85.935 E0.13542
G1 X88.403 Y85.645 E0.13542
G1 X87.609 Y85.141 E0.13542
G1 X86.965 Y84.455 E0.13542
G1 X86.512 Y83.631 E0.13542
G1 X86.278 Y82.720 E0.13542
G1 X86.278 Y81.780 E0.13542
G1 X86.512 Y80.869 E0.13542
G1 X86.965 Y80.045 E0.13542
G1 X87.609 Y79.359 E0.13542
G1 X88.403 Y78.855 E0.13542
G1 X89.297 Y78.565 E0.13542
G1 X90.037 Y78.518 E0.10681
G1 F900
G1 X90.236 Y78.506 E0.02861
G1 X91.159 Y78.682 E0.13542
G1 X92.010 Y79.082 E0.13542
G1 X92.735 Y79.682 E0.13542
G1 X93.288 Y80.443 E0.13542
G1 X93.634 Y81.317 E0.13542
G1 X93.752 Y82.250 E0.13542
G1 X93.634 Y83.183 E0.13542
G1 X93.288 Y84.057 E0.13542
G1 X92.779 Y84.758 E0.12462
G1 X92.226 Y84.340 F9000.000
G1 F900
G1 X91.636 Y84.828 E0.11022
G1 X90.944 Y85.154 E0.11022
G1 X90.192 Y85.298 E0.11022
G1 X89.428 Y85.249 E0.11022
G1 X88.700 Y85.013 E0.11022
G1 X88.054 Y84.603 E0.11022
G1 X87.530 Y84.045 E0.11022
G1 X87.161 Y83.374 E0.11022
G1 X86.971 Y82.633 E0.11022
G1 X86.971 Y81.867 E0.11022
G1 X87.161 Y81.126 E0.11022
G1 X87.530 Y80.455 E0.11022
G1 X88.054 Y79.897 E0.11022
G1 X88.700 Y79.487 E0.11022
G1 X89.428 Y79.251 E0.11022
G1 X90.081 Y79.209 E0.09421
G1 F900
G1 X90.192 Y79.202 E0.01601
G1 X90.944 Y79.346 E0.11022
G1 X91.636 Y79.672 E0.11022
G1 X92.226 Y80.160 E0.11022
G1 X92.676 Y80.779 E0.11022
G1 X92.958 Y81.491 E0.11022
G1 X93.054 Y82.250 E0.11022
G1 X92.958 Y83.009 E0.11022
G1 X92.676 Y83.721 E0.11022
G1 X92.270 Y84.280 E0.09942
G1 X92.226 Y84.340 F9000.000
G1 X97.933 Y75.347 F9000.000
G1 F900
G1 X97.609 Y75.141 E0.05539
G1 X96.965 Y74.455 E0.13542
G1 X96.512 Y73.631 E0.13542
G1 X96.278 Y72.720 E0.13542
G1 X96.278 Y71.780 E0.13542
G1 X96.512 Y70.869 E0.13542
G1 X96.965 Y70.045 E0.13542
G1 X97.609 Y69.359 E0.13542
G1 X98.403 Y68.855 E0.13542
G1 X99.297 Y68.565 E0.13542
G1 X99.495 Y68.552 E0.02861
G1 F900
G1 X100.236 Y68.506 E0.10681
G1 X101.159 Y68.682 E0.13542
G1 X102.010 Y69.082 E0.13542
G1 X102.735 Y69.682 E0.13542
G1 X103.288 Y70.443 E0.13542
G1 X103.634 Y71.317 E0.13542
G1 X103.752 Y72.250 E0.13542
G1 X103.634 Y73.183 E0.13542
G1 X103.288 Y74.057 E0.13542
G1 X102.735 Y74.818 E0.13542
G1 X102.010 Y75.418 E0.13542
G1 X101.159 Y75.818 E0.13542
G1 X100.236 Y75.994 E0.13542
G1 X99.297 Y75.935 E0.13542
G1 X98.403 Y75.645 E0.13542
G1 X97.997 Y75.387 E0.06922
G1 X98.305 Y74.762 F9000.000
G1 F900
G1 X98.054 Y74.603 E0.04279
G1 X97.530 Y74.045 E0.11022
G1 X97.161 Y73.374 E0.11022
G1 X96.971 Y72.633 E0.11022
G1 X96.971 Y71.867 E0.11022
G1 X97.161 Y71.126 E0.11022
G1 X97.530 Y70.455 E0.11022
G1 X98.054 Y69.897 E0.11022
G1 X98.700 Y69.487 E0.11022
G1 X99.428 Y69.251 E0.11022
G1 X99.539 Y69.244 E0.01601
G1 F900
G1 X100.192 Y69.202 E0.09421
G1 X100.944 Y69.346 E0.11022
G1 X101.636 Y69.672 E0.11022
G1 X102.226 Y70.160 E0.11022
G1 X102.676 Y70.779 E0.11022
G1 X102.958 Y71.491 E0.11022
G1 X103.054 Y72.250 E0.11022
G1 X102.958 Y73.009 E0.11022
G1 X102.676 Y73.721 E0.11022
G1 X102.226 Y74.340 E0.11022
G1 X101.636 Y74.828 E0.11022
G1 X100.944 Y75.154 E0.11022
G1 X100.192 Y75.298 E0.11022
G1 X99.428 Y75.249 E0.11022
G1 X98.700 Y75.013 E0.11022
G1 X98.368 Y74.802 E0.05662
G1 X98.043 Y74.904 F9000.000
G1 X106.965 Y80.045 F9000.000
G1 F900
G1 X107.609 Y79.359 E0.13542
G1 X108.403 Y78.855 E0.13542
G1 X109.297 Y78.565 E0.13542
G1 X110.037 Y78.518 E0.10681
G1 F900
G1 X110.236 Y78.506 E0.02861
G1 X111.159 Y78.682 E0.13542
G1 X112.010 Y79.082 E0.13542
G1 X112.735 Y79.682 E0.13542
G1 X113.288 Y80.443 E0.13542
G1 X113.634 Y81.317 E0.13542
G1 X113.752 Y82.250 E0.13542
G1 X113.634 Y83.183 E0.13542
G1 X113.288 Y84.057 E0.13542
G1 X112.735 Y84.818 E0.13542
G1 X112.010 Y85.418 E0.13542
G1 X111.159 Y85.818 E0.13542
G1 X110.236 Y85.994 E0.13542
G1 X109.297 Y85.935 E0.13542
G1 X108.403 Y85.645 E0.13542
G1 X107.609 Y85.141 E0.13542
G1 X106.965 Y84.455 E0.13542
G1 X106.607 Y83.805 E0.10681
G1 X106.512 Y83.631 E0.02861
G1 X106.278 Y82.720 E0.13542
G1 X106.278 Y81.780 E0.13542
G1 X106.512 Y80.869 E0.13542
G1 X106.929 Y80.110 E0.12462
G1 X107.530 Y80.455 F9000.000
G1 F900
G1 X108.054 Y79.897 E0.11022
G1 X108.700 Y79.487 E0.11022
G1 X109.428 Y79.251 E0.11022
G1 X110.081 Y79.209 E0.09421
G1 F900
G1 X110.192 Y79.202 E0.01601
G1 X110.944 Y79.346 E0.11022
G1 X111.636 Y79.672 E0.11022
G1 X112.226 Y80.160 E0.11022
G1 X112.676 Y80.779 E0.11022
G1 X112.958 Y81.491 E0.11022
G1 X113.054 Y82.250 E0.11022
G1 X112.958 Y83.009 E0.11022
G1 X112.676 Y83.721 E0.11022
G1 X112.226 Y84.340 E0.11022
G1 X111.636 Y84.828 E0.11022
G1 X110.944 Y85.154 E0.11022
G1 X110.192 Y85.298 E0.11022
G1 X109.428 Y85.249 E0.11022
G1 X108.700 Y85.013 E0.11022
G1 X108.054 Y84.603 E0.11022
G1 X107.530 Y84.045 E0.11022
G1 X107.214 Y83.472 E0.09421
G1 X107.161 Y83.374 E0.01601
G1 X106.971 Y82.633 E0.11022
G1 X106.971 Y81.867 E0.11022
G1 X107.161 Y81.126 E0.11022
G1 X107.493 Y80.521 E0.09942
G1 X107.530 Y80.455 F9000.000
G1 E-3.50000 F2400.00000
G1 X117.857 Y106.180 F9000.000
G1 E3.50000 F2400.00000
G1 F900
G1 X117.857 Y141.607 E5.10141
G1 X82.143 Y141.607 E5.14274
G1 X82.143 Y106.180 E5.10141
G1 X80.366 Y106.063 E0.25634
G1 X79.743 Y105.939 E0.09144
G1 X79.142 Y105.735 E0.09144
G1 X78.573 Y105.454 E0.09144
G1 X78.045 Y105.102 E0.09144
G1 X77.567 Y104.683 E0.09144
G1 X77.186 Y104.248 E0.08326
G1 X76.796 Y103.677 E0.09955
G1 X76.496 Y103.054 E0.09955
G1 X76.311 Y102.507 E0.08326
G1 X76.187 Y101.884 E0.09144
G1 X76.143 Y101.213 E0.09684
G1 X76.143 Y63.287 E5.46105
G1 X76.187 Y62.616 E0.09684
G1 X76.311 Y61.993 E0.09144
G1 X76.515 Y61.392 E0.09144
G1 X76.796 Y60.823 E0.09144
G1 X77.148 Y60.295 E0.09144
G1 X77.567 Y59.817 E0.09144
G1 X78.045 Y59.398 E0.09144
G1 X78.573 Y59.046 E0.09144
G1 X79.142 Y58.765 E0.09144
G1 X79.743 Y58.561 E0.09144
G1 X80.366 Y58.437 E0.09144
G1 X81.037 Y58.393 E0.09684
G1 X118.963 Y58.393 E5.46105
G1 X119.534 Y58.430 E0.08243
G1 X120.265 Y58.563 E0.10700
G1 X120.858 Y58.765 E0.09018
G1 X121.427 Y59.046 E0.09144
G1 X121.908 Y59.367 E0.08326
G1 X122.436 Y59.821 E0.10032
G1 X122.852 Y60.295 E0.09068
G1 X123.204 Y60.823 E0.09144
G1 X123.485 Y61.392 E0.09144
G1 X123.689 Y61.993 E0.09144
G1 X123.813 Y62.616 E0.09144
G1 X123.857 Y63.287 E0.09684
G1 X123.857 Y101.213 E5.46105
G1 X123.813 Y101.884 E0.09684
G1 X123.689 Y102.507 E0.09144
G1 X123.485 Y103.108 E0.09144
G1 X123.204 Y103.677 E0.09144
G1 X122.852 Y104.205 E0.09144
G1 X122.433 Y104.683 E0.09144
G1 X121.955 Y105.102 E0.09144
G1 X121.427 Y105.454 E0.09144
G1 X120.858 Y105.735 E0.09144
G1 X120.257 Y105.939 E0.09144
G1 X119.634 Y106.063 E0.09144
G1 X117.932 Y106.175 E0.24554
G1 X118.550 Y106.829 F9000.000
G1 F900
G1 X118.550 Y142.300 E5.10773
G1 X81.450 Y142.300 E5.34223
G1 X81.450 Y106.829 E5.10773
G1 X80.276 Y106.752 E0.16946
G1 X79.564 Y106.610 E0.10452
G1 X78.876 Y106.377 E0.10452
G1 X78.225 Y106.056 E0.10452
G1 X77.622 Y105.652 E0.10452
G1 X77.076 Y105.174 E0.10452
G1 X76.637 Y104.673 E0.09585
G1 X76.195 Y104.024 E0.11311
G1 X75.854 Y103.317 E0.11311
G1 X75.640 Y102.686 E0.09585
G1 X75.498 Y101.974 E0.10452
G1 X75.450 Y101.235 E0.10664
G1 X75.450 Y63.265 E5.46758
G1 X75.498 Y62.526 E0.10664
G1 X75.640 Y61.814 E0.10452
G1 X75.873 Y61.126 E0.10452
G1 X76.194 Y60.475 E0.10452
G1 X76.598 Y59.872 E0.10452
G1 X77.076 Y59.326 E0.10452
G1 X77.622 Y58.848 E0.10452
G1 X78.225 Y58.444 E0.10452
G1 X78.876 Y58.123 E0.10452
G1 X79.564 Y57.890 E0.10452
G1 X80.276 Y57.748 E0.10452
G1 X81.015 Y57.700 E0.10664
G1 X118.985 Y57.700 E5.46758
G1 X119.619 Y57.742 E0.09143
G1 X120.439 Y57.891 E0.12008
G1 X121.124 Y58.123 E0.10405
G1 X121.775 Y58.444 E0.10452
G1 X122.328 Y58.814 E0.09585
G1 X122.925 Y59.328 E0.11339
G1 X123.402 Y59.872 E0.10424
G1 X123.806 Y60.475 E0.10452
G1 X124.127 Y61.126 E0.10452
G1 X124.360 Y61.814 E0.10452
G1 X124.502 Y62.526 E0.10452
G1 X124.550 Y63.265 E0.10664
G1 X124.550 Y101.235 E5.46758
G1 X124.502 Y101.974 E0.10664
G1 X124.360 Y102.686 E0.10452
G1 X124.127 Y103.374 E0.10452
G1 X123.806 Y104.025 E0.10452
G1 X123.402 Y104.628 E0.10452
G1 X122.924 Y105.174 E0.10452
G1 X122.378 Y105.652 E0.10452
G1 X121.775 Y106.056 E0.10452
G1 X121.124 Y106.377 E0.10452
G1 X120.436 Y106.610 E0.10452
G1 X119.724 Y106.752 E0.10452
G1 X118.625 Y106.824 E0.15866
G1 X118.050 Y106.848 F9000.000
G1 X119.233 Y105.676 F9000.000
G1 F900
G1 X103.687 Y90.130 E3.18041
G1 X104.106 Y91.534 E0.21186
G1 X118.309 Y105.737 E2.90571
G1 X117.435 Y105.847 E0.12741
G1 X104.124 Y92.535 E2.72340
G1 X103.969 Y93.364 E0.12204
G1 X117.435 Y106.831 E2.75508
G1 X117.435 Y107.815 E0.14237
G1 X103.690 Y94.069 E2.81219
G1 X103.298 Y94.662 E0.10274
G1 X117.435 Y108.800 E2.89232
G1 X117.435 Y109.784 E0.14237
G1 X102.847 Y95.195 E2.98456
G1 X102.308 Y95.641 E0.10112
G1 X117.435 Y110.768 E3.09475
G1 X117.435 Y111.752 E0.14237
G1 X101.673 Y95.989 E3.22483
G1 X100.960 Y96.260 E0.11035
G1 X117.435 Y112.736 E3.37069
G1 X117.435 Y113.720 E0.14237
G1 X100.133 Y96.418 E3.53978
G1 X99.085 Y96.354 E0.15188
G1 X117.435 Y114.705 E3.75417
G1 X117.435 Y115.689 E0.14237
G1 X76.565 Y74.818 E8.36151
G1 X76.565 Y73.834 E0.14237
G1 X85.920 Y83.189 E1.91402
G1 X85.856 Y82.141 E0.15195
G1 X76.565 Y72.849 E1.90087
G1 X76.565 Y71.865 E0.14237
G1 X85.999 Y81.299 E1.93005
G1 X86.254 Y80.571 E0.11169
G1 X76.565 Y70.881 E1.98235
G1 X76.565 Y69.897 E0.14237
G1 X86.603 Y79.936 E2.05377
G1 X87.064 Y79.412 E0.10088
G1 X76.565 Y68.913 E2.14795
G1 X76.565 Y67.929 E0.14237
G1 X87.580 Y78.944 E2.25355
G1 X88.182 Y78.562 E0.10316
G1 X76.565 Y66.944 E2.37673
G1 X76.565 Y65.960 E0.14237
G1 X88.896 Y78.292 E2.52279
G1 X89.713 Y78.125 E0.12067
G1 X76.565 Y64.976 E2.68999
G1 X76.565 Y63.992 E0.14237
G1 X90.708 Y78.136 E2.89356
G1 X92.157 Y78.601 E0.22017
G1 X76.574 Y63.017 E3.18813
G1 X76.684 Y62.144 E0.12738
G1 X120.106 Y105.566 E8.88341
G1 X120.850 Y105.325 E0.11302
G1 X76.925 Y61.400 E8.98616
G1 X77.273 Y60.764 E0.10489
G1 X121.486 Y104.977 E9.04509
G1 X122.040 Y104.547 E0.10147
G1 X77.709 Y60.216 E9.06939
G1 X78.211 Y59.733 E0.10069
G1 X122.517 Y104.039 E9.06425
G1 X122.905 Y103.443 E0.10288
G1 X78.807 Y59.345 E9.02181
G1 X79.495 Y59.049 E0.10836
G1 X123.201 Y102.755 E8.94161
G1 X123.394 Y101.964 E0.11786
G1 X80.286 Y58.856 E8.81904
G1 X81.229 Y58.815 E0.13646
G1 X96.030 Y73.616 E3.02803
G1 X95.856 Y72.458 E0.16937
G1 X82.213 Y58.815 E2.79116
G1 X83.197 Y58.815 E0.14237
G1 X95.934 Y71.551 E2.60575
G1 X96.142 Y70.775 E0.11625
G1 X84.181 Y58.815 E2.44696
G1 X85.165 Y58.815 E0.14237
G1 X96.491 Y70.140 E2.31704
G1 X96.910 Y69.575 E0.10177
G1 X86.149 Y58.815 E2.20148
G1 X87.134 Y58.815 E0.14237
G1 X97.387 Y69.068 E2.09764
G1 X97.988 Y68.685 E0.10312
G1 X88.118 Y58.815 E2.01930
G1 X89.102 Y58.815 E0.14237
G1 X98.657 Y68.369 E1.95475
G1 X99.415 Y68.144 E0.11447
G1 X90.086 Y58.815 E1.90856
G1 X91.070 Y58.815 E0.14237
G1 X100.341 Y68.085 E1.89664
G1 X101.559 Y68.319 E0.17942
G1 X92.054 Y58.815 E1.94448
G1 X93.039 Y58.815 E0.14237
G1 X123.435 Y89.211 E6.21869
G1 X123.435 Y88.227 E0.14237
G1 X94.023 Y58.815 E6.01735
G1 X95.007 Y58.815 E0.14237
G1 X123.435 Y87.243 E5.81600
G1 X123.435 Y86.259 E0.14237
G1 X95.991 Y58.815 E5.61466
G1 X96.975 Y58.815 E0.14237
G1 X123.435 Y85.275 E5.41332
G1 X123.435 Y84.291 E0.14237
G1 X97.959 Y58.815 E5.21198
G1 X98.944 Y58.815 E0.14237
G1 X123.435 Y83.306 E5.01063
G1 X123.435 Y82.322 E0.14237
G1 X99.928 Y58.815 E4.80929
G1 X100.912 Y58.815 E0.14237
G1 X123.435 Y81.338 E4.60795
G1 X123.435 Y80.354 E0.14237
G1 X101.896 Y58.815 E4.40660
G1 X102.880 Y58.815 E0.14237
G1 X123.435 Y79.370 E4.20526
G1 X123.435 Y78.386 E0.14237
G1 X103.864 Y58.815 E4.00392
G1 X104.849 Y58.815 E0.14237
G1 X123.435 Y77.401 E3.80257
G1 X123.435 Y76.417 E0.14237
G1 X105.833 Y58.815 E3.60123
G1 X106.817 Y58.815 E0.14237
G1 X123.435 Y75.433 E3.39989
G1 X123.435 Y74.449 E0.14237
G1 X107.801 Y58.815 E3.19855
G1 X108.785 Y58.815 E0.14237
G1 X123.435 Y73.465 E2.99720
G1 X123.435 Y72.481 E0.14237
G1 X109.769 Y58.815 E2.79586
G1 X110.754 Y58.815 E0.14237
G1 X123.435 Y71.496 E2.59452
G1 X123.435 Y70.512 E0.14237
G1 X111.738 Y58.815 E2.39317
