; generated by Slic3r 1.3.0-dev on 2016-03-09 at 09:58:40

; external perimeters extrusion width = 0.50mm
; perimeters extrusion width = 0.50mm
; infill extrusion width = 0.50mm
; solid infill extrusion width = 0.50mm
; top infill extrusion width = 0.50mm

M107
M190 S100 ; set bed temperature and wait for it to be reached
M104 S210 ; set temperature
G28                                                        ; Home all axes
M83                                                       ; Set extruder to relative mode
T0                                                          ; Turn tool on
G1 E5 F1980                                         ; Prime the extruder
M300 S4100 P100                                ; Play a tone
M84 S0                                                  ; Keep motors on


M109 S210 ; set temperature and wait for it to be reached
G21 ; set units to millimeters
G90 ; use absolute coordinates
M83 ; use relative distances for extrusion
G1 E-4.00000 F1980.00000
G1 Z0.350 F4200.000
G1 X3.406 Y1.376 F4200.000
G1 E4.00000 F1980.00000
G1 F300
G1 X4.019 Y1.325 E0.06490
G1 X15.982 Y1.325 E1.26185
G1 X18.367 Y2.189 E0.26761
G1 X19.143 Y2.836 E0.10650
G1 X19.424 Y3.096 E0.04042
G1 X20.139 Y3.830 E0.10809
G1 X20.393 Y4.118 E0.04046
G1 X21.029 Y4.921 E0.10809
G1 X21.251 Y5.234 E0.04046
G1 X21.801 Y6.098 E0.10809
G1 X21.990 Y6.431 E0.04035
G1 X22.448 Y7.349 E0.10820
G1 X22.602 Y7.700 E0.04047
G1 X22.964 Y8.659 E0.10809
G1 X23.080 Y9.024 E0.04046
G1 X23.341 Y10.015 E0.10809
G1 X23.421 Y10.397 E0.04110
G1 X23.578 Y11.403 E0.10746
G1 X23.617 Y11.785 E0.04046
G1 X23.670 Y12.808 E0.10810
G1 X23.670 Y13.192 E0.04045
G1 X23.617 Y14.215 E0.10809
G1 X23.578 Y14.597 E0.04046
G1 X23.420 Y15.609 E0.10809
G1 X23.341 Y15.985 E0.04047
G1 X23.080 Y16.976 E0.10809
G1 X22.964 Y17.341 E0.04046
G1 X22.602 Y18.300 E0.10809
G1 X22.448 Y18.651 E0.04047
G1 X21.990 Y19.568 E0.10811
G1 X21.801 Y19.902 E0.04044
G1 X21.251 Y20.766 E0.10809
G1 X21.029 Y21.078 E0.04039
G1 X20.393 Y21.882 E0.10816
G1 X20.139 Y22.170 E0.04046
G1 X19.424 Y22.904 E0.10814
G1 X19.142 Y23.165 E0.04042
G1 X18.367 Y23.811 E0.10645
G1 X15.982 Y24.675 E0.26761
G1 X4.019 Y24.675 E1.26185
G1 X3.406 Y24.624 E0.06490
G1 X-20.563 Y20.624 E2.56324
G1 X-22.144 Y19.960 E0.18086
G1 X-23.260 Y18.658 E0.18086
G1 X-23.675 Y16.950 E0.18545
G1 X-23.675 Y9.050 E0.83330
G1 X-23.280 Y7.381 E0.18086
G1 X-22.180 Y6.066 E0.18086
G1 X-20.563 Y5.376 E0.18545
G1 X3.354 Y1.385 E2.55771
G1 E-4.00000 F1980.00000
G1 X6.572 Y10.516 F4200.000
G1 E4.00000 F1980.00000
G1 F450
G1 X7.297 Y9.741 E0.11196
G1 X8.185 Y9.176 E0.11100
G1 X9.222 Y8.839 E0.11499
G1 F450
G1 X10.267 Y8.775 E0.11042
G1 X11.312 Y8.975 E0.11229
G1 X12.267 Y9.424 E0.11132
G1 X13.086 Y10.101 E0.11214
G1 X13.710 Y10.960 E0.11198
G1 X14.101 Y11.947 E0.11196
G1 X14.234 Y13.000 E0.11195
G1 X14.101 Y14.053 E0.11196
G1 X13.710 Y15.040 E0.11196
G1 X13.085 Y15.901 E0.11222
G1 X12.253 Y16.583 E0.11350
G1 X11.313 Y17.025 E0.10963
G1 X10.277 Y17.224 E0.11120
G1 X9.191 Y17.155 E0.11481
G1 X8.201 Y16.832 E0.10987
G1 X7.305 Y16.266 E0.11181
G1 X6.567 Y15.476 E0.11401
G1 X6.061 Y14.552 E0.11108
G1 X5.800 Y13.535 E0.11085
G1 X5.802 Y12.454 E0.11396
G1 X6.063 Y11.444 E0.11008
G1 X6.546 Y10.562 E0.10610
G1 X7.163 Y10.944 F4200.000
G1 F450
G1 X7.764 Y10.303 E0.09266
G1 X8.496 Y9.837 E0.09162
G1 X9.358 Y9.557 E0.09557
G1 F450
G1 X10.220 Y9.504 E0.09108
G1 X11.086 Y9.670 E0.09303
G1 X11.876 Y10.041 E0.09204
G1 X12.554 Y10.601 E0.09280
G1 X13.070 Y11.312 E0.09266
G1 X13.394 Y12.129 E0.09264
G1 X13.504 Y13.000 E0.09264
G1 X13.394 Y13.871 E0.09264
G1 X13.070 Y14.688 E0.09264
G1 X12.553 Y15.399 E0.09274
G1 X11.863 Y15.965 E0.09416
G1 X11.086 Y16.330 E0.09054
G1 X10.231 Y16.495 E0.09186
G1 X9.329 Y16.437 E0.09540
G1 X8.511 Y16.171 E0.09065
G1 X7.771 Y15.703 E0.09243
G1 X7.159 Y15.048 E0.09455
G1 X6.741 Y14.284 E0.09184
G1 X6.525 Y13.444 E0.09151
G1 X6.527 Y12.547 E0.09461
G1 X6.742 Y11.713 E0.09089
G1 X7.138 Y10.991 E0.08686
G1 X7.163 Y10.944 F4200.000
G1 X1.534 Y10.175 F4200.000
G1 F450
G1 X2.638 Y8.141 E0.24417
G1 X3.578 Y6.953 E0.15977
G1 X4.449 Y6.175 E0.12313
G1 X15.574 Y6.175 E1.17357
G1 X15.987 Y6.519 E0.05671
G1 X16.627 Y7.174 E0.09653
G1 X17.191 Y7.886 E0.09581
G1 X17.678 Y8.653 E0.09585
G1 X18.085 Y9.466 E0.09585
G1 X18.405 Y10.316 E0.09585
G1 X18.637 Y11.195 E0.09585
G1 X18.777 Y12.092 E0.09585
G1 X18.824 Y13.000 E0.09585
G1 X18.777 Y13.908 E0.09585
G1 X18.637 Y14.805 E0.09585
G1 X18.405 Y15.684 E0.09585
G1 X18.085 Y16.534 E0.09585
G1 X17.678 Y17.347 E0.09585
G1 X17.191 Y18.114 E0.09585
G1 X16.626 Y18.826 E0.09585
G1 X15.992 Y19.477 E0.09585
G1 X15.574 Y19.825 E0.05735
G1 X4.449 Y19.825 E1.17357
G1 X3.578 Y19.047 E0.12313
G1 X2.638 Y17.859 E0.15977
G1 X1.534 Y15.825 E0.24417
G1 X-18.825 Y15.825 E2.14747
G1 X-18.825 Y10.175 E0.59599
G1 X1.481 Y10.175 E2.14194
G1 X1.103 Y9.450 F4200.000
G1 F450
G1 X2.031 Y7.740 E0.20527
G1 X3.049 Y6.454 E0.17295
G1 X4.172 Y5.450 E0.15891
G1 X15.837 Y5.450 E1.23045
G1 X16.480 Y5.986 E0.08833
G1 X17.172 Y6.695 E0.10441
G1 X17.782 Y7.465 E0.10372
G1 X18.310 Y8.295 E0.10374
G1 X18.750 Y9.175 E0.10374
G1 X19.097 Y10.095 E0.10374
G1 X19.347 Y11.046 E0.10374
G1 X19.499 Y12.018 E0.10374
G1 X19.549 Y13.000 E0.10374
G1 X19.499 Y13.982 E0.10374
G1 X19.347 Y14.954 E0.10374
G1 X19.097 Y15.905 E0.10374
G1 X18.750 Y16.825 E0.10374
G1 X18.310 Y17.705 E0.10374
G1 X17.782 Y18.535 E0.10374
G1 X17.172 Y19.306 E0.10374
G1 X16.485 Y20.010 E0.10374
G1 X15.837 Y20.550 E0.08899
G1 X4.172 Y20.550 E1.23045
G1 X3.049 Y19.546 E0.15891
G1 X2.031 Y18.260 E0.17294
G1 X1.103 Y16.550 E0.20527
G1 X-19.550 Y16.550 E2.17845
G1 X-19.550 Y9.450 E0.74891
G1 X1.050 Y9.450 E2.17291
G1 X1.444 Y9.527 F4200.000
G1 X1.972 Y10.181 F4200.000
G1 F300
G1 X5.358 Y13.567 E0.51755
G1 X5.363 Y12.522 E0.11298
G1 X2.341 Y9.500 E0.46181
G1 X2.711 Y8.820 E0.08371
G1 X5.578 Y11.687 E0.43820
G1 X5.892 Y10.950 E0.08653
G1 X3.105 Y8.163 E0.42589
G1 X3.569 Y7.577 E0.08081
G1 X6.273 Y10.281 E0.41322
G1 X6.781 Y9.738 E0.08031
G1 X4.067 Y7.024 E0.41479
G1 X4.710 Y6.617 E0.08227
G1 X7.347 Y9.254 E0.40305
G1 X7.989 Y8.846 E0.08222
G1 X5.760 Y6.617 E0.34058
G1 X6.811 Y6.617 E0.11352
G1 X8.760 Y8.566 E0.29787
G1 X9.624 Y8.380 E0.09557
G1 X7.861 Y6.617 E0.26946
G1 X8.911 Y6.617 E0.11352
G1 X10.662 Y8.368 E0.26752
G1 X12.124 Y8.779 E0.16412
G1 X9.962 Y6.617 E0.33040
G1 X11.012 Y6.617 E0.11352
G1 X18.340 Y13.945 E1.11993
G1 X18.369 Y12.923 E0.11044
G1 X12.063 Y6.617 E0.96381
G1 X13.113 Y6.617 E0.11352
G1 X18.251 Y11.755 E0.78526
G1 X17.865 Y10.319 E0.16065
G1 X14.163 Y6.617 E0.56583
G1 X15.258 Y6.662 E0.11842
G1 X16.385 Y7.788 E0.17219
G1 X18.201 Y14.857 F4200.000
G1 F300
G1 X14.229 Y10.884 E0.60717
G1 X14.615 Y12.321 E0.16078
G1 X17.980 Y15.685 E0.51425
G1 X17.692 Y16.448 E0.08810
G1 X14.615 Y13.371 E0.47028
G1 X14.448 Y14.254 E0.09715
G1 X17.342 Y17.148 E0.44231
G1 X16.938 Y17.795 E0.08239
G1 X14.150 Y15.007 E0.42616
G1 X13.740 Y15.648 E0.08219
G1 X16.485 Y18.392 E0.41952
G1 X15.974 Y18.931 E0.08030
G1 X13.277 Y16.234 E0.41216
G1 X12.700 Y16.708 E0.08066
G1 X15.375 Y19.383 E0.40885
G1 X14.324 Y19.383 E0.11352
G1 X12.052 Y17.110 E0.34733
G1 X11.336 Y17.444 E0.08542
G1 X13.274 Y19.383 E0.29628
G1 X12.224 Y19.383 E0.11352
G1 X10.455 Y17.614 E0.27035
G1 X9.413 Y17.622 E0.11260
G1 X11.173 Y19.383 E0.26904
G1 X10.123 Y19.383 E0.11352
G1 X8.045 Y17.305 E0.31758
G1 X9.073 Y19.383 F4200.000
G1 F300
G1 X0.307 Y10.617 E1.33973
G1 X-0.743 Y10.617 E0.11352
G1 X8.022 Y19.383 E1.33973
G1 X6.972 Y19.383 E0.11352
G1 X-1.794 Y10.617 E1.33973
G1 X-2.844 Y10.617 E0.11352
G1 X5.922 Y19.383 E1.33973
G1 X4.871 Y19.383 E0.11352
G1 X3.437 Y17.949 E0.21913
G1 X0.871 Y15.383 F4200.000
G1 F300
G1 X-3.894 Y10.617 E0.72836
G1 X-4.945 Y10.617 E0.11352
G1 X-0.179 Y15.383 E0.72836
G1 X-1.229 Y15.383 E0.11352
G1 X-5.995 Y10.617 E0.72836
G1 X-7.045 Y10.617 E0.11352
G1 X-2.280 Y15.383 E0.72836
G1 X-3.330 Y15.383 E0.11352
G1 X-8.096 Y10.617 E0.72836
G1 X-9.146 Y10.617 E0.11352
G1 X-4.381 Y15.383 E0.72836
G1 X-5.431 Y15.383 E0.11352
G1 X-10.196 Y10.617 E0.72836
G1 X-11.247 Y10.617 E0.11352
G1 X-6.481 Y15.383 E0.72836
G1 X-7.532 Y15.383 E0.11352
G1 X-12.297 Y10.617 E0.72836
G1 X-13.347 Y10.617 E0.11352
G1 X-8.582 Y15.383 E0.72836
G1 X-9.632 Y15.383 E0.11352
G1 X-14.398 Y10.617 E0.72836
G1 X-15.448 Y10.617 E0.11352
G1 X-10.683 Y15.383 E0.72836
G1 X-11.733 Y15.383 E0.11352
G1 X-16.499 Y10.617 E0.72836
G1 X-17.549 Y10.617 E0.11352
G1 X-12.783 Y15.383 E0.72836
G1 X-13.834 Y15.383 E0.11352
G1 X-18.383 Y10.834 E0.69527
G1 X-18.383 Y11.884 E0.11352
G1 X-14.884 Y15.383 E0.53473
G1 X-15.935 Y15.383 E0.11352
G1 X-18.383 Y12.935 E0.37419
G1 X-18.383 Y13.985 E0.11352
G1 X-16.985 Y15.383 E0.21365
G1 X-18.035 Y15.383 E0.11352
G1 X-18.383 Y15.035 E0.05312
G1 X1.358 Y10.617 F4200.000
G1 F300
G1 X5.652 Y14.912 E0.65642
G1 E-4.00000 F1980.00000
G1 Z0.550 F4200.000
G1 X6.453 Y11.601 F4200.000
G1 E4.00000 F1980.00000
G1 F900
G1 X6.910 Y10.767 E0.03614
G1 X7.563 Y10.068 E0.03636
G1 X8.354 Y9.563 E0.03565
G1 X9.315 Y9.251 E0.03839
G1 F900
G1 X10.240 Y9.195 E0.03523
G1 X11.186 Y9.377 E0.03660
G1 X12.043 Y9.781 E0.03604
G1 X12.779 Y10.390 E0.03630
G1 X13.341 Y11.163 E0.03634
G1 X13.693 Y12.052 E0.03633
G1 X13.813 Y13.000 E0.03633
G1 X13.693 Y13.948 E0.03633
G1 X13.341 Y14.837 E0.03633
G1 X12.778 Y15.613 E0.03644
G1 X12.015 Y16.234 E0.03740
G1 X11.186 Y16.623 E0.03481
G1 X10.262 Y16.803 E0.03579
G1 X9.256 Y16.737 E0.03829
G1 X8.382 Y16.452 E0.03494
G1 X7.572 Y15.940 E0.03644
G1 X6.900 Y15.217 E0.03750
G1 X6.451 Y14.392 E0.03569
G1 X6.218 Y13.486 E0.03555
G1 X6.223 Y12.493 E0.03775
G1 X6.440 Y11.652 E0.03303
G1 X6.882 Y11.770 F4200.000
G1 F900
G1 X7.283 Y11.037 E0.03179
G1 X7.858 Y10.422 E0.03198
G1 X8.550 Y9.979 E0.03123
G1 X9.400 Y9.704 E0.03396
G1 F900
G1 X10.210 Y9.655 E0.03084
G1 X11.043 Y9.814 E0.03222
G1 X11.796 Y10.170 E0.03166
G1 X12.444 Y10.705 E0.03192
G1 X12.938 Y11.385 E0.03195
G1 X13.247 Y12.166 E0.03194
G1 X13.352 Y13.000 E0.03194
G1 X13.247 Y13.834 E0.03194
G1 X12.938 Y14.615 E0.03194
G1 X12.443 Y15.296 E0.03198
G1 X11.770 Y15.844 E0.03300
G1 X11.043 Y16.185 E0.03052
G1 X10.232 Y16.343 E0.03138
G1 X9.343 Y16.285 E0.03386
G1 X8.578 Y16.035 E0.03059
G1 X7.866 Y15.585 E0.03202
G1 X7.274 Y14.948 E0.03306
G1 X6.879 Y14.224 E0.03135
G1 X6.676 Y13.430 E0.03116
G1 X6.680 Y12.552 E0.03335
G1 X6.869 Y11.821 E0.02869
G1 X6.882 Y11.770 F4200.000
G1 X1.285 Y9.757 F4200.000
G1 F900
G1 X2.288 Y7.910 E0.07990
G1 X3.273 Y6.665 E0.06030
G1 X4.289 Y5.757 E0.05180
G1 X15.726 Y5.757 E0.43467
G1 X16.261 Y6.203 E0.02648
G1 X16.941 Y6.898 E0.03695
G1 X17.531 Y7.644 E0.03615
G1 X18.042 Y8.447 E0.03617
G1 X18.468 Y9.298 E0.03617
G1 X18.804 Y10.189 E0.03617
G1 X19.046 Y11.109 E0.03617
G1 X19.193 Y12.049 E0.03617
G1 X19.242 Y13.000 E0.03617
G1 X19.193 Y13.951 E0.03617
G1 X19.046 Y14.891 E0.03617
G1 X18.804 Y15.811 E0.03617
G1 X18.468 Y16.702 E0.03617
G1 X18.042 Y17.553 E0.03617
G1 X17.531 Y18.356 E0.03617
G1 X16.941 Y19.103 E0.03617
G1 X16.276 Y19.784 E0.03617
G1 X15.726 Y20.243 E0.02724
G1 X4.289 Y20.243 E0.43467
G1 X3.273 Y19.335 E0.05180
G1 X2.288 Y18.090 E0.06030
G1 X1.285 Y16.243 E0.07990
G1 X-19.243 Y16.243 E0.78020
G1 X-19.243 Y9.757 E0.24650
G1 X1.233 Y9.757 E0.77820
G1 X1.013 Y9.300 F4200.000
G1 F900
G1 X1.906 Y7.657 E0.07106
G1 X2.939 Y6.351 E0.06330
G1 X4.115 Y5.300 E0.05993
G1 X15.891 Y5.300 E0.44759
G1 X16.571 Y5.867 E0.03365
G1 X17.285 Y6.595 E0.03874
G1 X17.904 Y7.378 E0.03796
G1 X18.441 Y8.221 E0.03797
G1 X18.887 Y9.115 E0.03797
G1 X19.240 Y10.049 E0.03797
G1 X19.494 Y11.015 E0.03797
G1 X19.648 Y12.002 E0.03797
G1 X19.700 Y13.000 E0.03797
G1 X19.648 Y13.998 E0.03797
G1 X19.494 Y14.985 E0.03797
G1 X19.240 Y15.951 E0.03797
G1 X18.887 Y16.885 E0.03797
G1 X18.441 Y17.779 E0.03797
G1 X17.904 Y18.622 E0.03797
G1 X17.284 Y19.405 E0.03797
G1 X16.587 Y20.120 E0.03797
G1 X15.891 Y20.700 E0.03442
G1 X4.115 Y20.700 E0.44759
G1 X2.939 Y19.649 E0.05993
G1 X1.906 Y18.343 E0.06330
G1 X1.013 Y16.700 E0.07106
G1 X-19.700 Y16.700 E0.78724
G1 X-19.700 Y9.300 E0.28125
G1 X0.961 Y9.300 E0.78524
G1 X1.355 Y9.375 F4200.000
G1 X2.394 Y8.405 F4200.000
G1 F600
G1 X4.771 Y6.029 E0.12851
G1 X7.768 Y9.535 F4200.000
G1 F600
G1 X11.274 Y6.029 E0.18958
G1 X10.624 Y6.029 E0.02486
G1 X0.681 Y15.971 E0.53762
G1 X0.031 Y15.971 E0.02486
G1 X9.973 Y6.029 E0.53762
G1 X9.323 Y6.029 E0.02486
G1 X-0.620 Y15.971 E0.53762
G1 X-1.270 Y15.971 E0.02486
G1 X8.673 Y6.029 E0.53762
G1 X8.022 Y6.029 E0.02486
G1 X-1.920 Y15.971 E0.53762
G1 X-2.571 Y15.971 E0.02486
G1 X7.372 Y6.029 E0.53762
G1 X6.722 Y6.029 E0.02486
G1 X-3.221 Y15.971 E0.53762
G1 X-3.871 Y15.971 E0.02486
G1 X6.072 Y6.029 E0.53762
G1 X5.421 Y6.029 E0.02486
G1 X-4.521 Y15.971 E0.53762
G1 X-5.172 Y15.971 E0.02486
G1 X0.771 Y10.029 E0.32133
G1 X0.121 Y10.029 E0.02486
G1 X-5.822 Y15.971 E0.32133
G1 X-6.472 Y15.971 E0.02486
G1 X-0.530 Y10.029 E0.32133
G1 X-1.180 Y10.029 E0.02486
G1 X-7.123 Y15.971 E0.32133
G1 X-7.773 Y15.971 E0.02486
G1 X-1.830 Y10.029 E0.32133
G1 X-2.480 Y10.029 E0.02486
G1 X-8.423 Y15.971 E0.32133
G1 X-9.073 Y15.971 E0.02486
G1 X-3.131 Y10.029 E0.32133
G1 X-3.781 Y10.029 E0.02486
G1 X-9.724 Y15.971 E0.32133
G1 X-10.374 Y15.971 E0.02486
G1 X-4.431 Y10.029 E0.32133
G1 X-5.082 Y10.029 E0.02486
G1 X-11.024 Y15.971 E0.32133
G1 X-11.675 Y15.971 E0.02486
G1 X-5.732 Y10.029 E0.32133
G1 X-6.382 Y10.029 E0.02486
G1 X-12.325 Y15.971 E0.32133
G1 X-12.975 Y15.971 E0.02486
G1 X-7.032 Y10.029 E0.32133
G1 X-7.683 Y10.029 E0.02486
G1 X-13.625 Y15.971 E0.32133
G1 X-14.276 Y15.971 E0.02486
G1 X-8.333 Y10.029 E0.32133
G1 X-8.983 Y10.029 E0.02486
G1 X-14.926 Y15.971 E0.32133
G1 X-15.576 Y15.971 E0.02486
G1 X-9.634 Y10.029 E0.32133
G1 X-10.284 Y10.029 E0.02486
G1 X-16.227 Y15.971 E0.32133
G1 X-16.877 Y15.971 E0.02486
G1 X-10.934 Y10.029 E0.32133
G1 X-11.584 Y10.029 E0.02486
G1 X-17.527 Y15.971 E0.32133
G1 X-18.177 Y15.971 E0.02486
G1 X-12.235 Y10.029 E0.32133
G1 X-12.885 Y10.029 E0.02486
G1 X-18.828 Y15.971 E0.32133
G1 X-18.971 Y15.465 E0.02013
G1 X-13.535 Y10.029 E0.29394
G1 X-14.186 Y10.029 E0.02486
G1 X-18.971 Y14.814 E0.25878
G1 X-18.971 Y14.164 E0.02486
G1 X-14.836 Y10.029 E0.22362
G1 X-15.486 Y10.029 E0.02486
G1 X-18.971 Y13.514 E0.18845
G1 X-18.971 Y12.864 E0.02486
G1 X-16.136 Y10.029 E0.15329
G1 X-16.787 Y10.029 E0.02486
G1 X-18.971 Y12.213 E0.11813
G1 X-18.971 Y11.563 E0.02486
G1 X-17.437 Y10.029 E0.08297
G1 X-18.087 Y10.029 E0.02486
G1 X-18.971 Y10.913 E0.04781
G1 X-18.971 Y10.262 E0.02486
G1 X-18.738 Y10.029 E0.01265
G1 X1.331 Y15.971 F4200.000
G1 F600
G1 X6.531 Y10.771 E0.28118
G1 X6.072 Y11.880 F4200.000
G1 F600
G1 X1.609 Y16.343 E0.24132
G1 X1.838 Y16.765 E0.01834
G1 X5.950 Y12.653 E0.22233
G1 X5.947 Y13.306 E0.02498
G1 X2.067 Y17.186 E0.20979
G1 X2.296 Y17.608 E0.01834
G1 X6.053 Y13.850 E0.20315
G1 X6.186 Y14.368 E0.02043
G1 X2.531 Y18.023 E0.19762
G1 X2.818 Y18.386 E0.01770
G1 X6.403 Y14.801 E0.19385
G1 X6.633 Y15.222 E0.01833
G1 X3.106 Y18.749 E0.19071
G1 X3.393 Y19.112 E0.01770
G1 X6.923 Y15.582 E0.19087
G1 X7.236 Y15.919 E0.01759
G1 X3.726 Y19.429 E0.18980
G1 X4.069 Y19.736 E0.01761
G1 X7.582 Y16.224 E0.18991
G1 X7.980 Y16.476 E0.01802
G1 X4.484 Y19.971 E0.18902
G1 X5.134 Y19.971 E0.02486
G1 X8.392 Y16.714 E0.17611
G1 X8.882 Y16.874 E0.01972
G1 X5.785 Y19.971 E0.16746
G1 X6.435 Y19.971 E0.02486
G1 X9.394 Y17.012 E0.16000
G1 X10.005 Y17.052 E0.02339
G1 X7.085 Y19.971 E0.15785
G1 X7.736 Y19.971 E0.02486
G1 X10.690 Y17.017 E0.15975
G1 X11.549 Y16.809 E0.03378
G1 X8.386 Y19.971 E0.17102
G1 X15.758 Y19.752 F4200.000
G1 F600
G1 X16.806 Y18.705 E0.05665
G1 X18.051 Y16.809 F4200.000
G1 F600
G1 X14.889 Y19.971 E0.17098
G1 X14.238 Y19.971 E0.02486
G1 X18.514 Y15.696 E0.23119
G1 X18.761 Y14.798 E0.03558
G1 X13.588 Y19.971 E0.27971
G1 X12.938 Y19.971 E0.02486
G1 X18.891 Y14.018 E0.32191
G1 X18.949 Y13.310 E0.02715
G1 X12.288 Y19.971 E0.36018
G1 X11.637 Y19.971 E0.02486
G1 X18.957 Y12.652 E0.39578
G1 X18.925 Y12.033 E0.02368
G1 X10.987 Y19.971 E0.42922
G1 X10.337 Y19.971 E0.02486
G1 X18.841 Y11.467 E0.45985
G1 X18.738 Y10.920 E0.02128
G1 X9.686 Y19.971 E0.48943
G1 X9.036 Y19.971 E0.02486
