; generated by Slic3r 1.3.0-dev on 2016-03-09 at 13:12:23

; external perimeters extrusion width = 0.50mm
; perimeters extrusion width = 0.50mm
; infill extrusion width = 0.50mm
; solid infill extrusion width = 0.50mm
; top infill extrusion width = 0.50mm

M107
M190 S57 ; set bed temperature and wait for it to be reached
G28        ; Home all axes
M83;
G10 P0 S195 R160                       ; Set tool 0 operating and standby temperatures
T0

G21 ; set units to millimeters
G90 ; use absolute coordinates
M83 ; use relative distances for extrusion
G1 E-3.50000 F2400.00000
G1 Z0.500 F9000.000
G1 X73.525 Y55.812 F9000.000
G1 E3.50000 F2400.00000
G1 F1200
G1 X74.252 Y55.071 E0.14951
G1 X75.277 Y54.284 E0.18606
G1 X76.112 Y53.802 E0.13881
G1 X77.306 Y53.307 E0.18606
G1 X78.237 Y53.058 E0.13881
G1 X79.521 Y52.889 E0.18654
G1 X80.003 Y52.857 E0.06955
G1 X119.997 Y52.857 E5.75887
G1 X120.479 Y52.889 E0.06955
G1 X121.763 Y53.058 E0.18654
G1 X122.694 Y53.307 E0.13880
G1 X123.888 Y53.802 E0.18606
G1 X124.723 Y54.284 E0.13881
G1 X125.748 Y55.071 E0.18606
G1 X126.429 Y55.752 E0.13881
G1 X127.216 Y56.777 E0.18606
G1 X127.698 Y57.612 E0.13880
G1 X128.193 Y58.806 E0.18607
G1 X128.442 Y59.737 E0.13881
G1 X128.611 Y61.021 E0.18653
G1 X128.643 Y61.503 E0.06956
G1 X128.643 Y101.497 E5.75887
G1 X128.617 Y101.934 E0.06304
G1 X123.617 Y143.887 E6.08383
G1 X123.028 Y145.489 E0.24581
G1 X121.782 Y146.656 E0.24581
G1 X119.950 Y147.143 E0.27297
G1 X80.050 Y147.143 E5.74542
G1 X78.389 Y146.748 E0.24581
G1 X77.083 Y145.649 E0.24581
G1 X76.383 Y143.887 E0.27297
G1 X71.383 Y101.934 E6.08383
G1 X71.357 Y101.497 E0.06304
G1 X71.357 Y61.503 E5.75887
G1 X71.389 Y61.021 E0.06955
G1 X71.558 Y59.737 E0.18654
G1 X71.807 Y58.806 E0.13881
G1 X72.302 Y57.612 E0.18606
G1 X72.784 Y56.777 E0.13880
G1 X73.479 Y55.871 E0.16447
G1 E-3.50000 F2400.00000
G1 X91.634 Y127.567 F9000.000
G1 E3.50000 F2400.00000
G1 F900
G1 X91.752 Y128.500 E0.13542
G1 X91.634 Y129.433 E0.13542
G1 X91.288 Y130.307 E0.13542
G1 X90.735 Y131.068 E0.13542
G1 X90.010 Y131.668 E0.13542
G1 X89.159 Y132.068 E0.13542
G1 X88.227 Y132.246 E0.13674
G1 X87.244 Y132.168 E0.14200
G1 X86.403 Y131.895 E0.12733
G1 X85.601 Y131.386 E0.13674
G1 X84.938 Y130.656 E0.14200
G1 X84.512 Y129.881 E0.12733
G1 X84.276 Y128.961 E0.13674
G1 X84.292 Y127.975 E0.14200
G1 X84.512 Y127.119 E0.12733
G1 X84.965 Y126.295 E0.13542
G1 X85.609 Y125.609 E0.13542
G1 X86.410 Y125.100 E0.13674
G1 X87.353 Y124.811 E0.14200
G1 F900
G1 X88.236 Y124.756 E0.12733
G1 X89.159 Y124.932 E0.13542
G1 X90.010 Y125.332 E0.13542
G1 X90.735 Y125.932 E0.13542
G1 X91.288 Y126.693 E0.13542
G1 X91.606 Y127.497 E0.12462
G1 X90.958 Y127.741 F9000.000
G1 F900
G1 X91.054 Y128.500 E0.11022
G1 X90.958 Y129.259 E0.11022
G1 X90.676 Y129.971 E0.11022
G1 X90.226 Y130.590 E0.11022
G1 X89.636 Y131.078 E0.11022
G1 X88.944 Y131.404 E0.11022
G1 X88.188 Y131.548 E0.11070
G1 X87.380 Y131.484 E0.11680
G1 X86.700 Y131.263 E0.10296
G1 X86.051 Y130.851 E0.11070
G1 X85.505 Y130.251 E0.11680
G1 X85.161 Y129.624 E0.10296
G1 X84.970 Y128.879 E0.11070
G1 X84.983 Y128.068 E0.11679
G1 X85.161 Y127.376 E0.10296
G1 X85.530 Y126.705 E0.11022
G1 X86.054 Y126.147 E0.11022
G1 X86.703 Y125.735 E0.11070
G1 X87.478 Y125.497 E0.11679
G1 F900
G1 X88.192 Y125.452 E0.10296
G1 X88.944 Y125.596 E0.11022
G1 X89.636 Y125.922 E0.11022
G1 X90.226 Y126.410 E0.11022
G1 X90.676 Y127.029 E0.11022
G1 X90.930 Y127.671 E0.09942
G1 X90.958 Y127.741 F9000.000
G1 X89.159 Y122.068 F9000.000
G1 F900
G1 X88.236 Y122.244 E0.13542
G1 X87.297 Y122.185 E0.13542
G1 X86.403 Y121.895 E0.13542
G1 X85.609 Y121.391 E0.13542
G1 X84.965 Y120.705 E0.13542
G1 X84.512 Y119.881 E0.13542
G1 X84.276 Y118.961 E0.13674
G1 X84.292 Y117.975 E0.14200
G1 X84.512 Y117.119 E0.12733
G1 X84.965 Y116.295 E0.13542
G1 X85.609 Y115.609 E0.13542
G1 X86.410 Y115.100 E0.13674
G1 X87.353 Y114.811 E0.14200
G1 F900
G1 X88.236 Y114.756 E0.12733
G1 X89.159 Y114.932 E0.13542
G1 X90.010 Y115.332 E0.13542
G1 X90.735 Y115.932 E0.13542
G1 X91.288 Y116.693 E0.13542
G1 X91.634 Y117.567 E0.13542
G1 X91.752 Y118.500 E0.13542
G1 X91.634 Y119.433 E0.13542
G1 X91.288 Y120.307 E0.13542
G1 X90.735 Y121.068 E0.13542
G1 X90.010 Y121.668 E0.13542
G1 X89.227 Y122.036 E0.12462
G1 X88.944 Y121.404 F9000.000
G1 F900
G1 X88.192 Y121.548 E0.11022
G1 X87.428 Y121.499 E0.11022
G1 X86.700 Y121.263 E0.11022
G1 X86.054 Y120.853 E0.11022
G1 X85.530 Y120.295 E0.11022
G1 X85.161 Y119.624 E0.11022
G1 X84.970 Y118.879 E0.11070
G1 X84.983 Y118.068 E0.11680
G1 X85.161 Y117.376 E0.10296
G1 X85.530 Y116.705 E0.11022
G1 X86.054 Y116.147 E0.11022
G1 X86.703 Y115.735 E0.11070
G1 X87.478 Y115.497 E0.11680
G1 F900
G1 X88.192 Y115.452 E0.10296
G1 X88.944 Y115.596 E0.11022
G1 X89.636 Y115.922 E0.11022
G1 X90.226 Y116.410 E0.11022
G1 X90.676 Y117.029 E0.11022
G1 X90.958 Y117.741 E0.11022
G1 X91.054 Y118.500 E0.11022
G1 X90.958 Y119.259 E0.11022
G1 X90.676 Y119.971 E0.11022
G1 X90.226 Y120.590 E0.11022
G1 X89.636 Y121.078 E0.11022
G1 X89.011 Y121.372 E0.09942
G1 X88.944 Y121.404 F9000.000
G1 X108.276 Y118.961 F9000.000
G1 F900
G1 X108.292 Y117.975 E0.14200
G1 X108.512 Y117.119 E0.12733
G1 X108.965 Y116.295 E0.13542
G1 X109.609 Y115.609 E0.13542
G1 X110.410 Y115.100 E0.13674
G1 X111.353 Y114.811 E0.14200
G1 F900
G1 X112.236 Y114.756 E0.12733
G1 X113.159 Y114.932 E0.13542
G1 X114.010 Y115.332 E0.13542
G1 X114.735 Y115.932 E0.13542
G1 X115.288 Y116.693 E0.13542
G1 X115.634 Y117.567 E0.13542
G1 X115.752 Y118.500 E0.13542
G1 X115.634 Y119.433 E0.13542
G1 X115.288 Y120.307 E0.13542
G1 X114.735 Y121.068 E0.13542
G1 X114.010 Y121.668 E0.13542
G1 X113.159 Y122.068 E0.13542
G1 X112.236 Y122.244 E0.13542
G1 X111.297 Y122.185 E0.13542
G1 X110.403 Y121.895 E0.13542
G1 X109.609 Y121.391 E0.13542
G1 X108.965 Y120.705 E0.13542
G1 X108.512 Y119.881 E0.13542
G1 X108.294 Y119.034 E0.12594
G1 X108.970 Y118.879 F9000.000
G1 F900
G1 X108.983 Y118.068 E0.11680
G1 X109.161 Y117.376 E0.10296
G1 X109.530 Y116.705 E0.11022
G1 X110.054 Y116.147 E0.11022
G1 X110.703 Y115.735 E0.11070
G1 X111.478 Y115.497 E0.11679
G1 F900
G1 X112.192 Y115.452 E0.10296
G1 X112.944 Y115.596 E0.11022
G1 X113.636 Y115.922 E0.11022
G1 X114.226 Y116.410 E0.11022
G1 X114.676 Y117.029 E0.11022
G1 X114.958 Y117.741 E0.11022
G1 X115.054 Y118.500 E0.11022
G1 X114.958 Y119.259 E0.11022
G1 X114.676 Y119.971 E0.11022
G1 X114.226 Y120.590 E0.11022
G1 X113.636 Y121.078 E0.11022
G1 X112.944 Y121.404 E0.11022
G1 X112.192 Y121.548 E0.11022
G1 X111.428 Y121.499 E0.11022
G1 X110.700 Y121.263 E0.11022
G1 X110.054 Y120.853 E0.11022
G1 X109.530 Y120.295 E0.11022
G1 X109.161 Y119.624 E0.11022
G1 X108.988 Y118.952 E0.09990
G1 X108.970 Y118.879 F9000.000
G1 X110.838 Y124.969 F9000.000
G1 F900
G1 X111.353 Y124.811 E0.07758
G1 F900
G1 X112.236 Y124.756 E0.12733
G1 X113.159 Y124.932 E0.13542
G1 X114.010 Y125.332 E0.13542
G1 X114.735 Y125.932 E0.13542
G1 X115.288 Y126.693 E0.13542
G1 X115.634 Y127.567 E0.13542
G1 X115.752 Y128.500 E0.13542
G1 X115.634 Y129.433 E0.13542
G1 X115.288 Y130.307 E0.13542
G1 X114.735 Y131.068 E0.13542
G1 X114.010 Y131.668 E0.13542
G1 X113.159 Y132.068 E0.13542
G1 X112.227 Y132.246 E0.13674
G1 X111.244 Y132.168 E0.14200
G1 X110.403 Y131.895 E0.12733
G1 X109.606 Y131.389 E0.13593
G1 X108.955 Y130.687 E0.13787
G1 X108.512 Y129.881 E0.13238
G1 X108.276 Y128.961 E0.13674
G1 X108.292 Y127.975 E0.14200
G1 X108.512 Y127.119 E0.12733
G1 X108.965 Y126.295 E0.13542
G1 X109.609 Y125.609 E0.13542
G1 X110.410 Y125.100 E0.13674
G1 X110.766 Y124.991 E0.05362
G1 X111.041 Y125.631 F9000.000
G1 F900
G1 X111.478 Y125.497 E0.06581
G1 F900
G1 X112.192 Y125.452 E0.10296
G1 X112.944 Y125.596 E0.11022
G1 X113.636 Y125.922 E0.11022
G1 X114.226 Y126.410 E0.11022
G1 X114.676 Y127.029 E0.11022
G1 X114.958 Y127.741 E0.11022
G1 X115.054 Y128.500 E0.11022
G1 X114.958 Y129.259 E0.11022
G1 X114.676 Y129.971 E0.11022
G1 X114.226 Y130.590 E0.11022
G1 X113.636 Y131.078 E0.11022
G1 X112.944 Y131.404 E0.11022
G1 X112.188 Y131.548 E0.11070
G1 X111.380 Y131.484 E0.11680
G1 X110.700 Y131.263 E0.10296
G1 X110.052 Y130.852 E0.11040
G1 X109.521 Y130.278 E0.11267
G1 X109.161 Y129.624 E0.10751
G1 X108.970 Y128.879 E0.11070
G1 X108.983 Y128.068 E0.11679
G1 X109.161 Y127.376 E0.10296
G1 X109.530 Y126.705 E0.11022
G1 X110.054 Y126.147 E0.11022
G1 X110.703 Y125.735 E0.11070
G1 X110.969 Y125.653 E0.04019
G1 X111.116 Y125.181 F9000.000
G1 X95.629 Y91.276 F9000.000
G1 F900
G1 X96.278 Y91.276 E0.09337
G1 X96.278 Y91.030 E0.03548
G1 X96.512 Y90.119 E0.13542
G1 X96.965 Y89.295 E0.13542
G1 X97.609 Y88.609 E0.13542
G1 X98.410 Y88.100 E0.13674
G1 X99.353 Y87.811 E0.14200
G1 X100.236 Y87.756 E0.12733
G1 X101.159 Y87.932 E0.13542
G1 X102.010 Y88.332 E0.13542
G1 X102.735 Y88.932 E0.13542
G1 X103.288 Y89.693 E0.13542
G1 X103.634 Y90.567 E0.13542
G1 X103.752 Y91.500 E0.13542
G1 X103.634 Y92.433 E0.13542
G1 X103.288 Y93.307 E0.13542
G1 X102.735 Y94.068 E0.13542
G1 X102.010 Y94.668 E0.13542
G1 X101.159 Y95.068 E0.13542
G1 X100.236 Y95.244 E0.13542
G1 X99.297 Y95.185 E0.13542
G1 X98.403 Y94.895 E0.13542
G1 X97.609 Y94.391 E0.13542
G1 X96.965 Y93.705 E0.13542
G1 X95.665 Y91.342 E0.38835
G1 X96.971 Y91.276 F9000.000
G1 F900
G1 X96.971 Y91.117 E0.02288
G1 X97.161 Y90.376 E0.11022
G1 X97.530 Y89.705 E0.11022
G1 X98.054 Y89.147 E0.11022
G1 X98.703 Y88.735 E0.11070
G1 X99.478 Y88.497 E0.11680
G1 F900
G1 X100.192 Y88.452 E0.10296
G1 X100.944 Y88.596 E0.11022
G1 X101.636 Y88.922 E0.11022
G1 X102.226 Y89.410 E0.11022
G1 X102.676 Y90.029 E0.11022
G1 X102.958 Y90.741 E0.11022
G1 X103.054 Y91.500 E0.11022
G1 X102.958 Y92.259 E0.11022
G1 X102.676 Y92.971 E0.11022
G1 X102.226 Y93.590 E0.11022
G1 X101.636 Y94.078 E0.11022
G1 X100.944 Y94.404 E0.11022
G1 X100.192 Y94.548 E0.11022
G1 X99.428 Y94.499 E0.11022
G1 X98.700 Y94.263 E0.11022
G1 X98.054 Y93.853 E0.11022
G1 X97.530 Y93.295 E0.11022
G1 X96.801 Y91.969 E0.21788
G1 X96.971 Y91.969 E0.02446
G1 X96.971 Y91.351 E0.08895
G1 X96.840 Y91.186 F9000.000
G1 X92.010 Y84.668 F9000.000
G1 F900
G1 X91.159 Y85.068 E0.13542
G1 X90.236 Y85.244 E0.13542
G1 X89.297 Y85.185 E0.13542
G1 X88.403 Y84.895 E0.13542
G1 X87.609 Y84.391 E0.13542
G1 X86.965 Y83.705 E0.13542
G1 X86.512 Y82.881 E0.13542
G1 X86.278 Y81.970 E0.13542
G1 X86.278 Y81.030 E0.13542
G1 X86.509 Y80.130 E0.13382
G1 X86.923 Y79.339 E0.12850
G1 X87.609 Y78.609 E0.14419
G1 X88.410 Y78.100 E0.13674
G1 X89.353 Y77.811 E0.14200
G1 F900
G1 X90.236 Y77.756 E0.12733
G1 X91.159 Y77.932 E0.13542
G1 X92.010 Y78.332 E0.13542
G1 X92.735 Y78.932 E0.13542
G1 X93.288 Y79.693 E0.13542
G1 X93.634 Y80.567 E0.13542
G1 X93.752 Y81.500 E0.13542
G1 X93.634 Y82.433 E0.13542
G1 X93.288 Y83.307 E0.13542
G1 X92.735 Y84.068 E0.13542
G1 X92.068 Y84.620 E0.12462
G1 X91.636 Y84.078 F9000.000
G1 F900
G1 X90.944 Y84.404 E0.11022
G1 X90.192 Y84.548 E0.11022
G1 X89.428 Y84.499 E0.11022
G1 X88.700 Y84.263 E0.11022
G1 X88.054 Y83.853 E0.11022
G1 X87.530 Y83.295 E0.11022
G1 X87.161 Y82.624 E0.11022
G1 X86.971 Y81.883 E0.11022
G1 X86.971 Y81.117 E0.11022
G1 X87.160 Y80.380 E0.10963
G1 X87.493 Y79.744 E0.10330
G1 X88.054 Y79.147 E0.11797
G1 X88.703 Y78.735 E0.11070
G1 X89.478 Y78.497 E0.11680
G1 F900
G1 X90.192 Y78.452 E0.10296
G1 X90.944 Y78.596 E0.11022
G1 X91.636 Y78.922 E0.11022
G1 X92.226 Y79.410 E0.11022
G1 X92.676 Y80.029 E0.11022
G1 X92.958 Y80.741 E0.11022
G1 X93.054 Y81.500 E0.11022
G1 X92.958 Y82.259 E0.11022
G1 X92.676 Y82.971 E0.11022
G1 X92.226 Y83.590 E0.11022
G1 X91.694 Y84.030 E0.09942
G1 X91.636 Y84.078 F9000.000
G1 X97.615 Y74.397 F9000.000
G1 F900
G1 X96.965 Y73.705 E0.13674
G1 X96.512 Y72.881 E0.13542
G1 X96.278 Y71.970 E0.13542
G1 X96.278 Y71.030 E0.13542
G1 X96.498 Y70.173 E0.12733
G1 X96.958 Y69.301 E0.14200
G1 X97.609 Y68.609 E0.13674
G1 X98.410 Y68.100 E0.13674
G1 X99.353 Y67.811 E0.14200
G1 F900
G1 X100.236 Y67.756 E0.12733
G1 X101.159 Y67.932 E0.13542
G1 X102.010 Y68.332 E0.13542
G1 X102.735 Y68.932 E0.13542
G1 X103.288 Y69.693 E0.13542
G1 X103.634 Y70.567 E0.13542
G1 X103.753 Y71.509 E0.13674
G1 X103.613 Y72.485 E0.14200
G1 X103.288 Y73.307 E0.12733
G1 X102.730 Y74.076 E0.13674
G1 X101.959 Y74.692 E0.14200
G1 X101.159 Y75.068 E0.12733
G1 X100.236 Y75.244 E0.13542
G1 X99.297 Y75.185 E0.13542
G1 X98.456 Y74.912 E0.12733
G1 X97.679 Y74.437 E0.13120
G1 X98.056 Y73.855 F9000.000
G1 F900
G1 X97.530 Y73.295 E0.11070
G1 X97.161 Y72.624 E0.11022
G1 X96.971 Y71.883 E0.11022
G1 X96.971 Y71.117 E0.11022
G1 X97.148 Y70.425 E0.10296
G1 X97.527 Y69.708 E0.11680
G1 X98.054 Y69.147 E0.11070
G1 X98.703 Y68.735 E0.11070
G1 X99.478 Y68.497 E0.11680
G1 F900
G1 X100.192 Y68.452 E0.10296
G1 X100.944 Y68.596 E0.11022
G1 X101.636 Y68.922 E0.11022
G1 X102.226 Y69.410 E0.11022
G1 X102.676 Y70.029 E0.11022
G1 X102.958 Y70.741 E0.11022
G1 X103.054 Y71.503 E0.11070
G1 X102.939 Y72.306 E0.11680
G1 X102.676 Y72.971 E0.10296
G1 X102.224 Y73.593 E0.11070
G1 X101.591 Y74.100 E0.11680
G1 X100.944 Y74.404 E0.10296
G1 X100.192 Y74.548 E0.11022
G1 X99.428 Y74.499 E0.11022
G1 X98.748 Y74.279 E0.10296
G1 X98.120 Y73.894 E0.10600
G1 X98.056 Y73.855 F9000.000
G1 X106.923 Y79.339 F9000.000
G1 F900
G1 X107.609 Y78.609 E0.14419
G1 X108.410 Y78.100 E0.13674
G1 X109.353 Y77.811 E0.14200
G1 F900
G1 X110.236 Y77.756 E0.12733
G1 X111.159 Y77.932 E0.13542
G1 X112.010 Y78.332 E0.13542
G1 X112.735 Y78.932 E0.13542
G1 X113.288 Y79.693 E0.13542
G1 X113.634 Y80.567 E0.13542
G1 X113.752 Y81.500 E0.13542
G1 X113.634 Y82.433 E0.13542
G1 X113.288 Y83.307 E0.13542
G1 X112.730 Y84.076 E0.13674
G1 X111.959 Y84.692 E0.14200
G1 X111.159 Y85.068 E0.12733
G1 X110.227 Y85.246 E0.13674
G1 X109.244 Y85.168 E0.14200
G1 X108.403 Y84.895 E0.12733
G1 X107.609 Y84.391 E0.13542
G1 X106.965 Y83.705 E0.13542
G1 X106.512 Y82.881 E0.13542
G1 X106.278 Y81.970 E0.13542
G1 X106.278 Y81.030 E0.13542
G1 X106.509 Y80.130 E0.13382
G1 X106.888 Y79.406 E0.11770
G1 X107.493 Y79.744 F9000.000
G1 F900
G1 X108.054 Y79.147 E0.11797
G1 X108.703 Y78.735 E0.11070
G1 X109.478 Y78.497 E0.11679
G1 F900
G1 X110.192 Y78.452 E0.10296
G1 X110.944 Y78.596 E0.11022
G1 X111.636 Y78.922 E0.11022
G1 X112.226 Y79.410 E0.11022
G1 X112.676 Y80.029 E0.11022
G1 X112.958 Y80.741 E0.11022
G1 X113.054 Y81.500 E0.11022
G1 X112.958 Y82.259 E0.11022
G1 X112.676 Y82.971 E0.11022
G1 X112.224 Y83.593 E0.11070
G1 X111.591 Y84.100 E0.11679
G1 X110.944 Y84.404 E0.10296
G1 X110.188 Y84.548 E0.11070
G1 X109.380 Y84.484 E0.11679
G1 X108.700 Y84.263 E0.10296
G1 X108.054 Y83.853 E0.11022
G1 X107.530 Y83.295 E0.11022
G1 X107.161 Y82.624 E0.11022
G1 X106.971 Y81.883 E0.11022
G1 X106.971 Y81.117 E0.11022
G1 X107.160 Y80.380 E0.10963
G1 X107.458 Y79.811 E0.09250
G1 X107.493 Y79.744 F9000.000
G1 E-3.50000 F2400.00000
G1 X118.857 Y105.498 F9000.000
G1 E3.50000 F2400.00000
G1 F900
G1 X118.857 Y142.357 E5.30759
G1 X81.143 Y142.357 E5.43073
G1 X81.143 Y105.498 E5.30759
G1 X79.004 Y105.216 E0.31059
G1 X78.076 Y104.832 E0.14463
G1 X77.279 Y104.221 E0.14463
G1 X76.668 Y103.424 E0.14463
G1 X76.284 Y102.496 E0.14463
G1 X76.143 Y101.425 E0.15550
G1 X76.143 Y61.575 E5.73825
G1 X76.284 Y60.504 E0.15550
G1 X76.668 Y59.576 E0.14463
G1 X77.279 Y58.779 E0.14463
G1 X78.076 Y58.168 E0.14463
G1 X79.004 Y57.784 E0.14463
G1 X80.075 Y57.643 E0.15550
G1 X119.925 Y57.643 E5.73825
G1 X120.996 Y57.784 E0.15550
G1 X121.924 Y58.168 E0.14463
G1 X122.721 Y58.779 E0.14463
G1 X123.332 Y59.576 E0.14463
G1 X123.716 Y60.504 E0.14463
G1 X123.857 Y61.575 E0.15550
G1 X123.857 Y101.425 E5.73825
G1 X123.716 Y102.496 E0.15550
G1 X123.332 Y103.424 E0.14463
G1 X122.721 Y104.221 E0.14463
G1 X121.924 Y104.832 E0.14463
G1 X120.996 Y105.216 E0.14463
G1 X118.932 Y105.488 E0.29979
G1 X119.550 Y106.105 F9000.000
G1 F900
G1 X119.550 Y143.050 E5.31986
G1 X80.450 Y143.050 E5.63022
G1 X80.450 Y106.105 E5.31986
G1 X78.823 Y105.891 E0.23625
G1 X77.727 Y105.437 E0.17089
G1 X76.785 Y104.715 E0.17089
G1 X76.063 Y103.773 E0.17089
G1 X75.609 Y102.677 E0.17089
G1 X75.450 Y101.471 E0.17517
G1 X75.450 Y61.529 E5.75132
G1 X75.609 Y60.323 E0.17517
G1 X76.063 Y59.227 E0.17089
G1 X76.785 Y58.285 E0.17089
G1 X77.727 Y57.563 E0.17089
G1 X78.823 Y57.109 E0.17089
G1 X80.029 Y56.950 E0.17517
G1 X119.971 Y56.950 E5.75132
