; generated by Slic3r 1.3.0-dev on 2016-03-09 at 13:11:19

; external perimeters extrusion width = 0.50mm
; perimeters extrusion width = 0.50mm
; infill extrusion width = 0.50mm
; solid infill extrusion width = 0.50mm
; top infill extrusion width = 0.50mm

M107
M190 S100 ; set bed temperature and wait for it to be reached
M104 S210 ; set temperature
G28                                                        ; Home all axes
M83                                                       ; Set extruder to relative mode
T0                                                          ; Turn tool on
G1 E5 F1980                                         ; Prime the extruder
M300 S4100 P100                                ; Play a tone
M84 S0                                                  ; Keep motors on


M109 S210 ; set temperature and wait for it to be reached
G21 ; set units to millimeters
G90 ; use absolute coordinates
M83 ; use relative distances for extrusion
G1 E-4.00000 F1980.00000
G1 Z0.350 F4200.000
G1 X-11.442 Y13.212 F4200.000
G1 E4.00000 F1980.00000
G1 F300
G1 X-11.443 Y12.792 E0.04433
G1 X-11.393 Y11.901 E0.09413
G1 X-11.346 Y11.486 E0.04407
G1 X-11.196 Y10.607 E0.09402
G1 X-11.103 Y10.200 E0.04407
G1 X-10.857 Y9.343 E0.09402
G1 X-10.719 Y8.949 E0.04407
G1 X-10.379 Y8.129 E0.09366
G1 X-10.195 Y7.746 E0.04475
G1 X-9.765 Y6.969 E0.09371
G1 X-9.543 Y6.615 E0.04407
G1 X-9.026 Y5.888 E0.09407
G1 X-8.766 Y5.562 E0.04403
G1 X-8.172 Y4.897 E0.09402
G1 X-7.877 Y4.602 E0.04407
G1 X-7.212 Y4.008 E0.09402
G1 X-6.885 Y3.747 E0.04407
G1 X-6.157 Y3.231 E0.09410
G1 X-5.806 Y3.010 E0.04383
G1 X-5.024 Y2.579 E0.09418
G1 X-4.648 Y2.397 E0.04407
G1 X-3.827 Y2.058 E0.09366
G1 X-3.430 Y1.919 E0.04444
G1 X-2.573 Y1.672 E0.09402
G1 X-2.166 Y1.579 E0.04407
G1 X-1.287 Y1.430 E0.09404
G1 X-0.873 Y1.383 E0.04389
G1 X0.018 Y1.334 E0.09419
G1 X0.436 Y1.334 E0.04407
G1 X1.323 Y1.384 E0.09366
G1 X1.741 Y1.431 E0.04444
G1 X2.620 Y1.581 E0.09402
G1 X3.027 Y1.674 E0.04407
G1 X3.884 Y1.921 E0.09402
G1 X4.278 Y2.059 E0.04407
G1 X5.102 Y2.400 E0.09402
G1 X5.478 Y2.582 E0.04407
G1 X6.255 Y3.012 E0.09366
G1 X6.612 Y3.236 E0.04444
G1 X7.339 Y3.752 E0.09408
G1 X7.665 Y4.013 E0.04402
G1 X8.329 Y4.607 E0.09402
G1 X8.624 Y4.902 E0.04407
G1 X9.218 Y5.568 E0.09406
G1 X9.478 Y5.894 E0.04403
G1 X9.994 Y6.621 E0.09402
G1 X10.216 Y6.975 E0.04407
G1 X10.647 Y7.756 E0.09407
G1 X10.828 Y8.132 E0.04402
G1 X11.166 Y8.949 E0.09327
G1 X11.449 Y10.373 E0.15309
G1 X11.449 Y15.627 E0.55423
G1 X11.166 Y17.051 E0.15309
G1 X10.828 Y17.868 E0.09330
G1 X10.647 Y18.244 E0.04404
G1 X10.216 Y19.025 E0.09402
G1 X9.994 Y19.379 E0.04407
G1 X9.478 Y20.106 E0.09402
G1 X9.218 Y20.433 E0.04407
G1 X8.624 Y21.098 E0.09402
G1 X8.329 Y21.393 E0.04407
G1 X7.665 Y21.987 E0.09402
G1 X7.338 Y22.248 E0.04407
G1 X6.611 Y22.764 E0.09407
G1 X6.258 Y22.987 E0.04403
G1 X5.478 Y23.418 E0.09402
G1 X5.102 Y23.600 E0.04407
G1 X4.278 Y23.941 E0.09402
G1 X3.884 Y24.079 E0.04407
G1 X3.027 Y24.326 E0.09412
G1 X2.620 Y24.419 E0.04398
G1 X1.741 Y24.569 E0.09402
G1 X1.326 Y24.616 E0.04407
G1 X0.436 Y24.666 E0.09402
G1 X0.018 Y24.666 E0.04407
G1 X-0.872 Y24.617 E0.09402
G1 X-1.287 Y24.570 E0.04407
G1 X-2.166 Y24.421 E0.09402
G1 X-2.573 Y24.328 E0.04407
G1 X-3.430 Y24.081 E0.09402
G1 X-3.823 Y23.944 E0.04402
G1 X-4.648 Y23.603 E0.09408
G1 X-5.024 Y23.421 E0.04407
G1 X-5.804 Y22.990 E0.09402
G1 X-6.158 Y22.768 E0.04407
G1 X-6.885 Y22.253 E0.09402
G1 X-7.212 Y21.992 E0.04407
G1 X-7.877 Y21.398 E0.09412
G1 X-8.172 Y21.103 E0.04398
G1 X-8.766 Y20.438 E0.09402
G1 X-9.027 Y20.112 E0.04407
G1 X-9.543 Y19.385 E0.09405
G1 X-9.765 Y19.032 E0.04399
G1 X-10.196 Y18.251 E0.09408
G1 X-10.377 Y17.875 E0.04407
G1 X-10.719 Y17.051 E0.09402
G1 X-10.857 Y16.657 E0.04407
G1 X-11.104 Y15.799 E0.09412
G1 X-11.196 Y15.394 E0.04385
G1 X-11.346 Y14.514 E0.09415
G1 X-11.393 Y14.099 E0.04407
G1 X-11.439 Y13.265 E0.08812
G1 E-4.00000 F1980.00000
G1 X-3.713 Y11.441 F4200.000
G1 E4.00000 F1980.00000
G1 F450
G1 X-3.202 Y10.511 E0.11196
G1 X-2.475 Y9.737 E0.11196
G1 X-1.579 Y9.169 E0.11195
G1 X-0.570 Y8.841 E0.11196
G1 F450
G1 X0.490 Y8.774 E0.11195
G1 X1.532 Y8.973 E0.11196
G1 X2.492 Y9.425 E0.11196
G1 X3.310 Y10.101 E0.11196
G1 X3.933 Y10.959 E0.11184
G1 X4.324 Y11.944 E0.11177
G1 X4.457 Y12.981 E0.11019
G1 X4.321 Y14.066 E0.11534
G1 X3.933 Y15.041 E0.11075
G1 X3.310 Y15.899 E0.11177
G1 X2.492 Y16.575 E0.11196
G1 X1.532 Y17.027 E0.11196
G1 X0.490 Y17.226 E0.11195
G1 X-0.570 Y17.159 E0.11196
G1 X-1.579 Y16.831 E0.11196
G1 X-2.475 Y16.263 E0.11196
G1 X-3.202 Y15.489 E0.11196
G1 X-3.713 Y14.559 E0.11196
G1 X-3.977 Y13.531 E0.11196
G1 X-3.977 Y12.469 E0.11195
G1 X-3.726 Y11.492 E0.10642
G1 X-3.034 Y11.710 F4200.000
G1 F450
G1 X-2.611 Y10.941 E0.09264
G1 X-2.010 Y10.300 E0.09264
G1 X-1.268 Y9.830 E0.09264
G1 X-0.433 Y9.558 E0.09264
G1 F450
G1 X0.444 Y9.503 E0.09264
G1 X1.306 Y9.668 E0.09264
G1 X2.101 Y10.042 E0.09264
G1 X2.778 Y10.602 E0.09264
G1 X3.293 Y11.311 E0.09252
G1 X3.616 Y12.127 E0.09253
G1 X3.726 Y12.982 E0.09091
G1 X3.613 Y13.884 E0.09590
G1 X3.293 Y14.689 E0.09139
G1 X2.778 Y15.398 E0.09250
G1 X2.101 Y15.958 E0.09264
G1 X1.306 Y16.332 E0.09264
G1 X0.444 Y16.497 E0.09264
G1 X-0.433 Y16.442 E0.09264
G1 X-1.268 Y16.170 E0.09264
G1 X-2.010 Y15.700 E0.09264
G1 X-2.611 Y15.059 E0.09264
G1 X-3.034 Y14.290 E0.09264
G1 X-3.252 Y13.439 E0.09264
G1 X-3.252 Y12.561 E0.09264
G1 X-3.047 Y11.761 E0.08710
G1 X-3.034 Y11.710 F4200.000
G1 X-6.089 Y10.445 F4200.000
G1 F450
G1 X-5.921 Y10.040 E0.04618
G1 X-5.551 Y9.371 E0.08069
G1 X-5.108 Y8.747 E0.08069
G1 X-4.598 Y8.176 E0.08069
G1 X-4.028 Y7.667 E0.08067
G1 X-3.401 Y7.223 E0.08106
G1 X-2.734 Y6.854 E0.08035
G1 X-2.027 Y6.562 E0.08069
G1 X-1.292 Y6.350 E0.08069
G1 X-0.538 Y6.222 E0.08070
G1 X0.226 Y6.179 E0.08069
G1 X0.986 Y6.222 E0.08035
G1 F450
G1 X1.744 Y6.351 E0.08106
G1 X2.479 Y6.563 E0.08067
G1 X3.185 Y6.856 E0.08069
G1 X3.855 Y7.226 E0.08069
G1 X4.479 Y7.669 E0.08069
G1 X5.049 Y8.179 E0.08069
G1 X5.558 Y8.750 E0.08069
G1 X6.001 Y9.374 E0.08069
G1 X6.370 Y10.044 E0.08069
G1 X6.599 Y10.596 E0.06304
G1 X6.599 Y15.404 E0.50709
G1 X6.370 Y15.956 E0.06304
G1 X6.001 Y16.626 E0.08070
G1 X5.558 Y17.250 E0.08069
G1 X5.049 Y17.821 E0.08069
G1 X4.479 Y18.331 E0.08069
G1 X3.855 Y18.774 E0.08069
G1 X3.185 Y19.144 E0.08069
G1 X2.479 Y19.437 E0.08069
G1 X1.744 Y19.649 E0.08069
G1 X0.990 Y19.777 E0.08070
G1 X0.226 Y19.821 E0.08069
G1 X-0.538 Y19.778 E0.08069
G1 X-1.292 Y19.650 E0.08069
G1 X-2.027 Y19.438 E0.08069
G1 X-2.734 Y19.146 E0.08069
G1 X-3.404 Y18.776 E0.08069
G1 X-4.028 Y18.333 E0.08069
G1 X-4.596 Y17.826 E0.08035
G1 X-5.108 Y17.253 E0.08106
G1 X-5.551 Y16.629 E0.08067
G1 X-5.921 Y15.960 E0.08069
G1 X-6.214 Y15.253 E0.08070
G1 X-6.426 Y14.518 E0.08069
G1 X-6.554 Y13.764 E0.08069
G1 X-6.597 Y13.000 E0.08069
G1 X-6.554 Y12.236 E0.08069
G1 X-6.426 Y11.482 E0.08069
G1 X-6.214 Y10.747 E0.08069
G1 X-6.109 Y10.493 E0.02898
G1 X-6.758 Y10.167 F4200.000
G1 F450
G1 X-6.575 Y9.725 E0.05048
G1 X-6.166 Y8.984 E0.08928
G1 X-5.676 Y8.294 E0.08928
G1 X-5.112 Y7.663 E0.08928
G1 X-4.481 Y7.099 E0.08928
G1 X-3.787 Y6.608 E0.08965
G1 X-3.049 Y6.200 E0.08893
G1 X-2.267 Y5.876 E0.08928
G1 X-1.454 Y5.642 E0.08928
G1 X-0.619 Y5.501 E0.08928
G1 X0.226 Y5.453 E0.08928
G1 X1.068 Y5.501 E0.08893
G1 F450
G1 X1.906 Y5.643 E0.08965
G1 X2.719 Y5.878 E0.08928
G1 X3.501 Y6.202 E0.08928
G1 X4.241 Y6.612 E0.08928
G1 X4.932 Y7.102 E0.08928
G1 X5.562 Y7.666 E0.08928
G1 X6.126 Y8.298 E0.08928
G1 X6.616 Y8.988 E0.08928
G1 X7.025 Y9.729 E0.08928
G1 X7.324 Y10.452 E0.08252
G1 X7.324 Y15.548 E0.53747
G1 X7.025 Y16.271 E0.08252
G1 X6.616 Y17.012 E0.08928
G1 X6.126 Y17.702 E0.08928
G1 X5.562 Y18.334 E0.08928
G1 X4.932 Y18.898 E0.08928
G1 X4.241 Y19.388 E0.08928
G1 X3.501 Y19.798 E0.08928
G1 X2.719 Y20.122 E0.08928
G1 X1.906 Y20.357 E0.08928
G1 X1.071 Y20.499 E0.08928
G1 X0.226 Y20.547 E0.08928
G1 X-0.619 Y20.499 E0.08928
G1 X-1.454 Y20.358 E0.08928
G1 X-2.267 Y20.124 E0.08928
G1 X-3.049 Y19.800 E0.08928
G1 X-3.790 Y19.391 E0.08928
G1 X-4.481 Y18.901 E0.08928
G1 X-5.109 Y18.339 E0.08893
G1 X-5.676 Y17.706 E0.08965
G1 X-6.166 Y17.016 E0.08928
G1 X-6.575 Y16.275 E0.08928
G1 X-6.899 Y15.493 E0.08928
G1 X-7.134 Y14.680 E0.08928
G1 X-7.275 Y13.845 E0.08928
G1 X-7.323 Y13.000 E0.08928
G1 X-7.275 Y12.155 E0.08928
G1 X-7.134 Y11.320 E0.08928
G1 X-6.899 Y10.507 E0.08928
G1 X-6.779 Y10.216 E0.03327
G1 X-6.413 Y10.112 F4200.000
G1 X-5.881 Y14.636 F4200.000
G1 F300
G1 X-1.412 Y19.105 E0.67108
G1 X-3.755 Y17.794 F4200.000
G1 F300
G1 X-4.568 Y16.981 E0.12220
G1 E-4.00000 F1980.00000
G1 X3.174 Y9.242 F4200.000
G1 E4.00000 F1980.00000
G1 F300
G1 X0.584 Y6.652 E0.38901
G1 X-0.448 Y6.652 E0.10960
G1 X1.358 Y8.457 E0.27116
G1 X0.225 Y8.357 E0.12074
G1 X-1.344 Y6.787 E0.23572
G1 X-2.131 Y7.032 E0.08754
G1 X-0.703 Y8.461 E0.21454
G1 X-1.482 Y8.714 E0.08698
G1 X-2.841 Y7.355 E0.20406
G1 X-3.481 Y7.747 E0.07972
G1 X-2.151 Y9.077 E0.19973
G1 X-2.766 Y9.494 E0.07892
G1 X-4.058 Y8.202 E0.19403
G1 X-4.574 Y8.718 E0.07750
G1 X-3.266 Y10.026 E0.19647
G1 X-3.704 Y10.620 E0.07839
G1 X-5.029 Y9.295 E0.19905
G1 X-5.421 Y9.936 E0.07972
G1 X-4.070 Y11.286 E0.20289
G1 X-4.301 Y12.087 E0.08852
G1 X-5.744 Y10.645 E0.21665
G1 X-5.989 Y11.432 E0.08753
G1 X-4.420 Y13.001 E0.23571
G1 X-4.325 Y14.128 E0.12006
G1 X-6.125 Y12.328 E0.27025
G1 X-6.125 Y13.360 E0.10958
G1 X-0.136 Y19.348 E0.89934
G1 X0.895 Y19.348 E0.10957
G1 X-0.867 Y17.586 E0.26470
G1 X0.243 Y17.664 E0.11818
G1 X1.792 Y19.213 E0.23266
G1 X2.579 Y18.968 E0.08753
G1 X1.137 Y17.526 E0.21650
G1 X1.920 Y17.277 E0.08726
G1 X3.288 Y18.645 E0.20541
G1 X3.929 Y18.253 E0.07972
G1 X2.622 Y16.947 E0.19619
G1 X3.195 Y16.487 E0.07796
G1 X4.506 Y17.798 E0.19689
G1 X5.022 Y17.282 E0.07750
G1 X3.721 Y15.982 E0.19529
G1 X4.156 Y15.384 E0.07847
G1 X5.477 Y16.705 E0.19840
G1 X5.868 Y16.064 E0.07972
G1 X4.498 Y14.694 E0.20583
G1 X4.766 Y13.930 E0.08600
G1 X6.156 Y15.320 E0.20887
G1 X6.156 Y14.288 E0.10961
G1 X4.880 Y13.012 E0.19162
G1 X4.783 Y11.882 E0.12044
G1 X6.156 Y13.256 E0.20631
G1 X6.156 Y12.224 E0.10961
G1 X3.928 Y9.996 E0.33460
G1 X5.016 Y9.019 F4200.000
G1 F300
G1 X4.204 Y8.207 E0.12194
G1 X1.860 Y6.896 F4200.000
G1 F300
G1 X6.156 Y11.192 E0.64523
G1 E-4.00000 F1980.00000
G1 Z0.550 F4200.000
G1 X-3.322 Y11.596 F4200.000
G1 E4.00000 F1980.00000
G1 F900
G1 X-2.861 Y10.759 E0.03633
G1 X-2.207 Y10.062 E0.03633
G1 X-1.400 Y9.550 E0.03633
G1 X-0.491 Y9.254 E0.03633
G1 F900
G1 X0.441 Y9.196 E0.03548
G1 X1.400 Y9.373 E0.03707
G1 X2.267 Y9.780 E0.03641
G1 X3.003 Y10.390 E0.03633
G1 X3.564 Y11.161 E0.03625
G1 X3.907 Y12.022 E0.03521
G1 X4.037 Y13.000 E0.03751
G1 X3.908 Y13.976 E0.03741
G1 X3.564 Y14.839 E0.03530
G1 X3.003 Y15.610 E0.03625
G1 X2.267 Y16.220 E0.03633
G1 X1.402 Y16.626 E0.03633
G1 X0.463 Y16.806 E0.03633
G1 X-0.491 Y16.746 E0.03633
G1 X-1.400 Y16.450 E0.03633
G1 X-2.207 Y15.938 E0.03633
G1 X-2.861 Y15.241 E0.03633
G1 X-3.322 Y14.404 E0.03633
G1 X-3.559 Y13.478 E0.03633
G1 X-3.559 Y12.522 E0.03633
G1 X-3.335 Y11.647 E0.03433
G1 X-2.893 Y11.766 F4200.000
G1 F900
G1 X-2.488 Y11.030 E0.03194
G1 X-1.913 Y10.417 E0.03194
G1 X-1.204 Y9.967 E0.03194
G1 X-0.405 Y9.707 E0.03194
G1 F900
G1 X0.413 Y9.656 E0.03114
G1 X1.259 Y9.811 E0.03268
G1 X2.020 Y10.169 E0.03197
G1 X2.667 Y10.705 E0.03194
G1 X3.161 Y11.384 E0.03188
G1 X3.462 Y12.138 E0.03087
G1 X3.576 Y13.000 E0.03305
G1 X3.463 Y13.860 E0.03294
G1 X3.161 Y14.616 E0.03096
G1 X2.667 Y15.295 E0.03188
G1 X2.020 Y15.831 E0.03194
G1 X1.260 Y16.188 E0.03194
G1 X0.434 Y16.346 E0.03194
G1 X-0.405 Y16.293 E0.03194
G1 X-1.204 Y16.033 E0.03194
G1 X-1.913 Y15.583 E0.03194
G1 X-2.488 Y14.970 E0.03194
G1 X-2.893 Y14.234 E0.03194
G1 X-3.102 Y13.420 E0.03194
G1 X-3.102 Y12.580 E0.03194
G1 X-2.906 Y11.817 E0.02994
G1 X-2.893 Y11.766 F4200.000
G1 X-6.474 Y10.282 F4200.000
G1 F900
G1 X-6.298 Y9.859 E0.01744
G1 X-5.905 Y9.148 E0.03086
G1 X-5.435 Y8.486 E0.03086
G1 X-4.894 Y7.880 E0.03086
G1 X-4.289 Y7.339 E0.03086
G1 X-3.627 Y6.870 E0.03086
G1 X-2.916 Y6.477 E0.03086
G1 X-2.166 Y6.167 E0.03086
G1 X-1.385 Y5.942 E0.03086
G1 X-0.585 Y5.806 E0.03086
G1 X0.226 Y5.761 E0.03086
G1 X1.024 Y5.806 E0.03037
G1 F900
G1 X1.838 Y5.943 E0.03136
G1 X2.617 Y6.168 E0.03084
G1 X3.367 Y6.479 E0.03086
G1 X4.078 Y6.872 E0.03086
G1 X4.740 Y7.342 E0.03086
G1 X5.345 Y7.884 E0.03086
G1 X5.886 Y8.489 E0.03086
G1 X6.355 Y9.152 E0.03086
G1 X6.747 Y9.863 E0.03086
G1 X7.017 Y10.513 E0.02676
G1 X7.017 Y15.487 E0.18902
G1 X6.747 Y16.137 E0.02676
G1 X6.355 Y16.848 E0.03086
G1 X5.886 Y17.511 E0.03086
G1 X5.345 Y18.116 E0.03086
G1 X4.740 Y18.658 E0.03086
G1 X4.078 Y19.128 E0.03086
G1 X3.367 Y19.521 E0.03086
G1 X2.617 Y19.832 E0.03086
G1 X1.837 Y20.057 E0.03086
G1 X1.037 Y20.193 E0.03086
G1 X0.226 Y20.239 E0.03086
G1 X-0.585 Y20.194 E0.03086
G1 X-1.385 Y20.058 E0.03086
G1 X-2.166 Y19.833 E0.03086
G1 X-2.916 Y19.523 E0.03086
G1 X-3.626 Y19.130 E0.03086
G1 X-4.289 Y18.661 E0.03086
G1 X-4.894 Y18.120 E0.03086
G1 X-5.435 Y17.514 E0.03086
G1 X-5.905 Y16.852 E0.03086
G1 X-6.298 Y16.141 E0.03086
G1 X-6.609 Y15.391 E0.03086
G1 X-6.834 Y14.611 E0.03086
G1 X-6.970 Y13.811 E0.03086
G1 X-7.015 Y13.000 E0.03086
G1 X-6.970 Y12.189 E0.03086
G1 X-6.834 Y11.389 E0.03086
G1 X-6.609 Y10.609 E0.03086
G1 X-6.494 Y10.331 E0.01142
G1 X-6.896 Y10.108 F4200.000
G1 F900
G1 X-6.711 Y9.660 E0.01842
G1 X-6.293 Y8.904 E0.03281
G1 X-5.793 Y8.200 E0.03281
G1 X-5.218 Y7.557 E0.03281
G1 X-4.574 Y6.982 E0.03281
G1 X-3.870 Y6.482 E0.03281
G1 X-3.114 Y6.065 E0.03281
G1 X-2.317 Y5.734 E0.03281
G1 X-1.487 Y5.496 E0.03281
G1 X-0.636 Y5.351 E0.03281
G1 X0.226 Y5.303 E0.03281
G1 X1.075 Y5.351 E0.03231
G1 F900
G1 X1.939 Y5.497 E0.03331
G1 X2.769 Y5.736 E0.03280
G1 X3.566 Y6.067 E0.03281
G1 X4.321 Y6.485 E0.03281
G1 X5.025 Y6.985 E0.03281
G1 X5.669 Y7.560 E0.03281
G1 X6.244 Y8.204 E0.03281
G1 X6.743 Y8.908 E0.03281
G1 X7.160 Y9.664 E0.03281
G1 X7.474 Y10.423 E0.03119
G1 X7.474 Y15.577 E0.19592
G1 X7.160 Y16.336 E0.03119
G1 X6.743 Y17.092 E0.03281
G1 X6.244 Y17.796 E0.03281
G1 X5.669 Y18.440 E0.03281
G1 X5.025 Y19.015 E0.03281
G1 X4.321 Y19.515 E0.03281
G1 X3.566 Y19.933 E0.03281
G1 X2.769 Y20.264 E0.03281
G1 X1.939 Y20.503 E0.03281
G1 X1.088 Y20.648 E0.03281
G1 X0.226 Y20.697 E0.03281
G1 X-0.636 Y20.649 E0.03281
G1 X-1.487 Y20.504 E0.03281
G1 X-2.317 Y20.266 E0.03281
G1 X-3.114 Y19.935 E0.03281
G1 X-3.870 Y19.518 E0.03281
G1 X-4.574 Y19.018 E0.03281
G1 X-5.218 Y18.443 E0.03281
G1 X-5.793 Y17.800 E0.03281
G1 X-6.293 Y17.096 E0.03281
G1 X-6.711 Y16.340 E0.03281
G1 X-7.041 Y15.543 E0.03281
G1 X-7.280 Y14.713 E0.03281
G1 X-7.425 Y13.862 E0.03281
G1 X-7.473 Y13.000 E0.03281
G1 X-7.425 Y12.138 E0.03281
G1 X-7.280 Y11.287 E0.03281
G1 X-7.041 Y10.457 E0.03281
G1 X-6.916 Y10.156 E0.01240
G1 X-6.550 Y10.053 F4200.000
G1 X-6.170 Y10.374 F4200.000
G1 F600
G1 X-2.402 Y6.606 E0.20931
G1 X-4.271 Y7.807 F4200.000
G1 F600
G1 X-4.969 Y8.505 E0.03876
G1 X-3.268 Y10.813 F4200.000
G1 F600
G1 X-6.645 Y14.190 E0.18762
G1 X-6.715 Y13.592 E0.02364
G1 X0.816 Y6.061 E0.41838
G1 X1.413 Y6.132 E0.02362
G1 X-1.958 Y9.503 E0.18727
G1 X-0.829 Y9.042 F4200.000
G1 F600
G1 X1.972 Y6.241 E0.15564
G1 X2.491 Y6.390 E0.02120
G1 X-0.068 Y8.949 E0.14217
G1 X0.586 Y8.963 E0.02573
G1 X2.972 Y6.577 E0.13253
G1 X3.432 Y6.785 E0.01983
G1 X1.151 Y9.067 E0.12673
G1 X1.657 Y9.229 E0.02087
G1 X3.862 Y7.023 E0.12251
G1 X4.263 Y7.290 E0.01893
G1 X2.111 Y9.442 E0.11956
G1 X2.527 Y9.695 E0.01911
G1 X4.649 Y7.572 E0.11790
G1 X4.997 Y7.892 E0.01857
G1 X2.893 Y9.997 E0.11692
G1 X3.239 Y10.318 E0.01857
G1 X5.331 Y8.226 E0.11620
G1 X5.651 Y8.575 E0.01857
G1 X3.521 Y10.705 E0.11836
G1 X3.799 Y11.095 E0.01882
G1 X5.933 Y8.960 E0.11860
G1 X6.200 Y9.362 E0.01893
G1 X3.989 Y11.573 E0.12284
G1 X4.174 Y12.056 E0.02033
G1 X6.438 Y9.792 E0.12578
G1 X6.647 Y10.252 E0.01982
G1 X4.252 Y12.646 E0.13303
G1 X4.288 Y13.278 E0.02488
G1 X6.745 Y10.821 E0.13651
G1 X6.745 Y11.489 E0.02624
G1 X4.186 Y14.048 E0.14214
G1 X3.795 Y15.107 F4200.000
G1 F600
G1 X6.745 Y12.157 E0.16387
G1 X6.617 Y15.626 F4200.000
G1 F600
G1 X2.849 Y19.393 E0.20931
G1 X1.830 Y19.744 F4200.000
G1 F600
G1 X6.745 Y14.830 E0.27302
G1 X6.745 Y14.162 E0.02624
