; generated by Slic3r 1.3.0-dev on 2016-03-26 at 18:47:03

; external perimeters extrusion width = 0.50mm
; perimeters extrusion width = 0.50mm
; infill extrusion width = 0.50mm
; solid infill extrusion width = 0.50mm
; top infill extrusion width = 0.50mm

M107
M190 S100 ; set bed temperature and wait for it to be reached
M104 S210 ; set temperature
G28                                                        ; Home all axes
M83                                                       ; Set extruder to relative mode
T0                                                          ; Turn tool on
G1 E5 F1980                                         ; Prime the extruder
M300 S4100 P100                                ; Play a tone
M84 S0                                                  ; Keep motors on


M109 S210 ; set temperature and wait for it to be reached
G21 ; set units to millimeters
G90 ; use absolute coordinates
M83 ; use relative distances for extrusion
G1 E-4.00000 F1980.00000
G1 Z0.350 F4200.000
G1 X-23.675 Y-22.095 F4200.000
G1 E4.00000 F1980.00000
G1 F300
G1 X-23.280 Y-23.764 E0.18086
G1 X-22.180 Y-25.079 E0.18086
G1 X-19.950 Y-25.820 E0.24788
G1 X19.950 Y-25.820 E4.20869
G1 X21.619 Y-25.425 E0.18086
G1 X22.934 Y-24.325 E0.18086
G1 X23.675 Y-22.095 E0.24788
G1 X23.675 Y48.095 E7.40370
G1 X23.280 Y49.764 E0.18086
G1 X22.180 Y51.079 E0.18086
G1 X19.950 Y51.820 E0.24788
G1 X-19.950 Y51.820 E4.20869
G1 X-21.619 Y51.425 E0.18086
G1 X-22.934 Y50.325 E0.18086
G1 X-23.675 Y48.095 E0.24788
G1 X-23.675 Y-22.042 E7.39817
G1 E-4.00000 F1980.00000
G1 X-11.300 Y30.382 F4200.000
G1 E4.00000 F1980.00000
G1 F450
G1 X-10.572 Y30.146 E0.08074
G1 X-9.922 Y30.105 E0.06873
G1 F450
G1 X-9.808 Y30.097 E0.01201
G1 X-9.056 Y30.241 E0.08074
G1 X-8.364 Y30.567 E0.08074
G1 X-7.774 Y31.055 E0.08074
G1 X-7.324 Y31.674 E0.08074
G1 X-7.042 Y32.386 E0.08074
G1 X-6.946 Y33.145 E0.08074
G1 X-7.042 Y33.904 E0.08074
G1 X-7.324 Y34.616 E0.08074
G1 X-7.774 Y35.235 E0.08074
G1 X-8.364 Y35.723 E0.08074
G1 X-9.056 Y36.049 E0.08074
G1 X-9.808 Y36.193 E0.08074
G1 X-10.572 Y36.144 E0.08074
G1 X-11.300 Y35.908 E0.08074
G1 X-11.946 Y35.498 E0.08074
G1 X-12.470 Y34.940 E0.08074
G1 X-12.839 Y34.269 E0.08074
G1 X-13.029 Y33.528 E0.08074
G1 X-13.029 Y32.762 E0.08074
G1 X-12.839 Y32.021 E0.08074
G1 X-12.470 Y31.350 E0.08074
G1 X-11.946 Y30.792 E0.08074
G1 X-11.344 Y30.410 E0.07520
G1 X-11.300 Y30.382 F4200.000
G1 E-4.00000 F1980.00000
G1 X6.971 Y32.762 F4200.000
G1 E4.00000 F1980.00000
G1 F450
G1 X7.161 Y32.021 E0.08074
G1 X7.530 Y31.350 E0.08074
G1 X8.054 Y30.792 E0.08074
G1 X8.700 Y30.382 E0.08074
G1 X9.428 Y30.146 E0.08074
G1 X10.078 Y30.105 E0.06873
G1 F450
G1 X10.192 Y30.097 E0.01201
G1 X10.944 Y30.241 E0.08074
G1 X11.636 Y30.567 E0.08074
G1 X12.226 Y31.055 E0.08074
G1 X12.676 Y31.674 E0.08074
G1 X12.958 Y32.386 E0.08074
G1 X13.054 Y33.145 E0.08074
G1 X12.958 Y33.904 E0.08074
G1 X12.676 Y34.616 E0.08074
G1 X12.226 Y35.235 E0.08074
G1 X11.636 Y35.723 E0.08074
G1 X10.944 Y36.049 E0.08074
G1 X10.192 Y36.193 E0.08074
G1 X9.428 Y36.144 E0.08074
G1 X8.700 Y35.908 E0.08074
G1 X8.054 Y35.498 E0.08074
G1 X7.530 Y34.940 E0.08074
G1 X7.161 Y34.269 E0.08074
G1 X6.971 Y33.528 E0.08074
G1 X6.971 Y32.815 E0.07520
G1 X6.971 Y32.762 F4200.000
G1 X9.428 Y-4.146 F4200.000
G1 F450
G1 X8.700 Y-4.382 E0.08074
G1 X8.054 Y-4.792 E0.08074
G1 X7.530 Y-5.350 E0.08074
G1 X7.161 Y-6.021 E0.08074
G1 X6.971 Y-6.762 E0.08074
G1 X6.971 Y-7.528 E0.08074
G1 X7.161 Y-8.269 E0.08074
G1 X7.530 Y-8.940 E0.08074
G1 X8.054 Y-9.498 E0.08074
G1 X8.700 Y-9.908 E0.08074
G1 X9.428 Y-10.144 E0.08074
G1 X10.078 Y-10.185 E0.06873
G1 F450
G1 X10.192 Y-10.193 E0.01201
G1 X10.944 Y-10.049 E0.08074
G1 X11.636 Y-9.723 E0.08074
G1 X12.226 Y-9.235 E0.08074
G1 X12.676 Y-8.616 E0.08074
G1 X12.958 Y-7.904 E0.08074
G1 X13.054 Y-7.145 E0.08074
G1 X12.958 Y-6.386 E0.08074
G1 X12.676 Y-5.674 E0.08074
G1 X12.226 Y-5.055 E0.08074
G1 X11.636 Y-4.567 E0.08074
G1 X10.944 Y-4.241 E0.08074
G1 X10.192 Y-4.097 E0.08074
G1 X9.480 Y-4.142 E0.07520
G1 X9.428 Y-4.146 F4200.000
G1 X13.485 Y-5.554 F4200.000
G1 F450
G1 X14.211 Y-3.802 E0.20001
G1 X15.273 Y-2.418 E0.18408
G1 X16.657 Y-1.356 E0.18408
G1 X18.270 Y-0.688 E0.18408
G1 X18.825 Y-0.615 E0.05908
G1 X18.825 Y26.615 E2.87217
G1 X18.270 Y26.688 E0.05908
G1 X16.657 Y27.356 E0.18408
G1 X15.273 Y28.418 E0.18408
G1 X14.211 Y29.802 E0.18408
G1 X13.485 Y31.554 E0.20001
G1 X12.759 Y30.555 E0.13035
G1 X12.028 Y29.950 E0.10006
G1 X11.169 Y29.546 E0.10006
G1 X10.238 Y29.368 E0.10005
G1 X10.033 Y29.381 E0.02167
G1 X9.291 Y29.428 E0.07839
G1 X8.389 Y29.721 E0.10006
G1 X7.588 Y30.229 E0.10006
G1 X6.938 Y30.921 E0.10006
G1 X6.482 Y31.752 E0.10006
G1 X6.430 Y31.951 E0.02167
G1 X6.246 Y32.671 E0.07839
G1 X6.246 Y33.619 E0.10006
G1 X6.482 Y34.538 E0.10006
G1 X6.938 Y35.369 E0.10006
G1 X7.588 Y36.061 E0.10006
G1 X8.389 Y36.569 E0.10006
G1 X9.291 Y36.862 E0.10006
G1 X10.238 Y36.922 E0.10006
G1 X11.169 Y36.744 E0.10006
G1 X12.028 Y36.340 E0.10006
G1 X12.759 Y35.735 E0.10006
G1 X13.485 Y34.736 E0.13035
G1 X14.211 Y36.488 E0.20001
G1 X15.273 Y37.872 E0.18408
G1 X16.657 Y38.934 E0.18408
G1 X18.270 Y39.602 E0.18408
G1 X18.825 Y39.675 E0.05908
G1 X18.825 Y46.970 E0.76946
G1 X-18.825 Y46.970 E3.97138
G1 X-18.825 Y39.675 E0.76946
G1 X-18.270 Y39.602 E0.05908
G1 X-16.657 Y38.934 E0.18408
G1 X-15.273 Y37.872 E0.18408
G1 X-14.211 Y36.488 E0.18408
G1 X-13.453 Y34.658 E0.20891
G1 X-13.062 Y35.369 E0.08565
G1 X-12.412 Y36.061 E0.10006
G1 X-11.611 Y36.569 E0.10006
G1 X-10.709 Y36.862 E0.10006
G1 X-9.762 Y36.922 E0.10006
G1 X-8.831 Y36.744 E0.10006
G1 X-7.972 Y36.340 E0.10006
G1 X-7.241 Y35.735 E0.10006
G1 X-6.684 Y34.968 E0.10006
G1 X-6.335 Y34.086 E0.10006
G1 X-6.216 Y33.145 E0.10006
G1 X-6.335 Y32.204 E0.10006
G1 X-6.684 Y31.322 E0.10006
G1 X-7.241 Y30.555 E0.10006
G1 X-7.972 Y29.950 E0.10006
G1 X-8.831 Y29.546 E0.10006
G1 X-9.762 Y29.368 E0.10005
G1 X-10.709 Y29.428 E0.10006
G1 X-11.611 Y29.721 E0.10006
G1 X-12.412 Y30.229 E0.10006
G1 X-13.062 Y30.921 E0.10006
G1 X-13.453 Y31.632 E0.08565
G1 X-14.211 Y29.802 E0.20891
G1 X-15.273 Y28.418 E0.18408
G1 X-16.657 Y27.356 E0.18408
G1 X-18.270 Y26.688 E0.18408
G1 X-18.825 Y26.615 E0.05908
G1 X-18.825 Y-0.615 E2.87217
G1 X-18.270 Y-0.688 E0.05908
G1 X-16.657 Y-1.356 E0.18408
G1 X-15.273 Y-2.418 E0.18408
G1 X-14.211 Y-3.802 E0.18408
G1 X-13.453 Y-5.632 E0.20891
G1 X-13.062 Y-4.921 E0.08565
G1 X-12.412 Y-4.229 E0.10006
G1 X-11.611 Y-3.721 E0.10006
G1 X-10.709 Y-3.428 E0.10006
G1 X-9.762 Y-3.368 E0.10006
G1 X-8.831 Y-3.546 E0.10006
G1 X-7.972 Y-3.950 E0.10006
G1 X-7.241 Y-4.555 E0.10006
G1 X-6.684 Y-5.322 E0.10006
G1 X-6.335 Y-6.204 E0.10006
G1 X-6.216 Y-7.145 E0.10006
G1 X-6.335 Y-8.086 E0.10006
G1 X-6.684 Y-8.968 E0.10006
G1 X-7.241 Y-9.735 E0.10006
G1 X-7.972 Y-10.340 E0.10006
G1 X-8.831 Y-10.744 E0.10006
G1 X-9.762 Y-10.922 E0.10006
G1 X-10.709 Y-10.862 E0.10006
G1 X-11.611 Y-10.569 E0.10006
G1 X-12.412 Y-10.061 E0.10006
G1 X-13.062 Y-9.369 E0.10006
G1 X-13.453 Y-8.658 E0.08565
G1 X-14.211 Y-10.488 E0.20891
G1 X-15.273 Y-11.872 E0.18408
G1 X-16.657 Y-12.934 E0.18408
G1 X-18.270 Y-13.602 E0.18408
G1 X-18.825 Y-13.675 E0.05908
G1 X-18.825 Y-20.970 E0.76946
G1 X18.825 Y-20.970 E3.97138
G1 X18.825 Y-13.675 E0.76946
G1 X18.270 Y-13.602 E0.05908
G1 X16.657 Y-12.934 E0.18408
G1 X15.273 Y-11.872 E0.18408
G1 X14.211 Y-10.488 E0.18408
G1 X13.485 Y-8.736 E0.20001
G1 X12.759 Y-9.735 E0.13035
G1 X12.028 Y-10.340 E0.10006
G1 X11.169 Y-10.744 E0.10006
G1 X10.238 Y-10.922 E0.10006
G1 X9.291 Y-10.862 E0.10006
G1 X8.389 Y-10.569 E0.10006
G1 X7.588 Y-10.061 E0.10006
G1 X6.938 Y-9.369 E0.10006
G1 X6.482 Y-8.538 E0.10006
G1 X6.246 Y-7.619 E0.10006
G1 X6.246 Y-6.671 E0.10006
G1 X6.482 Y-5.752 E0.10006
G1 X6.938 Y-4.921 E0.10006
G1 X7.588 Y-4.229 E0.10006
G1 X8.389 Y-3.721 E0.10006
G1 X9.291 Y-3.428 E0.10006
G1 X10.238 Y-3.368 E0.10006
G1 X11.169 Y-3.546 E0.10006
G1 X12.028 Y-3.950 E0.10006
G1 X12.759 Y-4.555 E0.10006
G1 X13.454 Y-5.512 E0.12482
G1 E-4.00000 F1980.00000
G1 X-6.946 Y-7.145 F4200.000
G1 E4.00000 F1980.00000
G1 F450
G1 X-7.042 Y-6.386 E0.08074
G1 X-7.324 Y-5.674 E0.08074
G1 X-7.774 Y-5.055 E0.08074
G1 X-8.364 Y-4.567 E0.08074
G1 X-9.056 Y-4.241 E0.08074
G1 X-9.808 Y-4.097 E0.08074
G1 X-10.572 Y-4.146 E0.08074
G1 X-11.300 Y-4.382 E0.08074
G1 X-11.946 Y-4.792 E0.08074
G1 X-12.470 Y-5.350 E0.08074
G1 X-12.839 Y-6.021 E0.08074
G1 X-13.029 Y-6.762 E0.08074
G1 X-13.029 Y-7.528 E0.08074
G1 X-12.839 Y-8.269 E0.08074
G1 X-12.470 Y-8.940 E0.08074
G1 X-11.946 Y-9.498 E0.08074
G1 X-11.300 Y-9.908 E0.08074
G1 X-10.572 Y-10.144 E0.08074
G1 X-9.922 Y-10.185 E0.06873
G1 F450
G1 X-9.808 Y-10.193 E0.01201
G1 X-9.056 Y-10.049 E0.08074
G1 X-8.364 Y-9.723 E0.08074
G1 X-7.774 Y-9.235 E0.08074
G1 X-7.324 Y-8.616 E0.08074
G1 X-7.042 Y-7.904 E0.08074
G1 X-6.953 Y-7.197 E0.07520
G1 X-6.946 Y-7.145 F4200.000
G1 E-4.00000 F1980.00000
G1 X-19.550 Y-13.040 F4200.000
G1 E4.00000 F1980.00000
G1 F450
G1 X-19.550 Y-21.695 E0.91298
G1 X19.550 Y-21.695 E4.12430
G1 X19.550 Y-13.040 E0.91297
G1 X18.459 Y-12.896 E0.11607
G1 X17.023 Y-12.301 E0.16395
G1 X15.790 Y-11.355 E0.16395
G1 X14.844 Y-10.122 E0.16395
G1 X14.249 Y-8.686 E0.16395
G1 X14.046 Y-7.145 E0.16395
G1 X14.249 Y-5.604 E0.16395
G1 X14.320 Y-5.433 E0.01950
G1 X14.844 Y-4.168 E0.14445
G1 X15.790 Y-2.935 E0.16395
G1 X17.023 Y-1.989 E0.16395
G1 X18.459 Y-1.394 E0.16395
G1 X19.550 Y-1.250 E0.11607
G1 X19.550 Y27.250 E3.00628
G1 X18.459 Y27.394 E0.11607
G1 X17.023 Y27.989 E0.16395
G1 X15.790 Y28.935 E0.16395
G1 X14.844 Y30.168 E0.16395
G1 X14.249 Y31.604 E0.16395
G1 X14.046 Y33.145 E0.16395
G1 X14.249 Y34.686 E0.16395
G1 X14.320 Y34.857 E0.01950
G1 X14.844 Y36.122 E0.14445
G1 X15.790 Y37.355 E0.16395
G1 X17.023 Y38.301 E0.16395
G1 X18.459 Y38.896 E0.16395
G1 X19.550 Y39.040 E0.11607
G1 X19.550 Y47.695 E0.91298
G1 X-19.550 Y47.695 E4.12430
G1 X-19.550 Y39.040 E0.91298
G1 X-18.459 Y38.896 E0.11607
G1 X-17.023 Y38.301 E0.16395
G1 X-15.790 Y37.355 E0.16395
G1 X-14.844 Y36.122 E0.16395
G1 X-14.249 Y34.686 E0.16395
G1 X-14.046 Y33.145 E0.16395
G1 X-14.249 Y31.604 E0.16395
G1 X-14.844 Y30.168 E0.16395
G1 X-15.790 Y28.935 E0.16395
G1 X-17.023 Y27.989 E0.16395
G1 X-18.459 Y27.394 E0.16395
G1 X-19.550 Y27.250 E0.11607
G1 X-19.550 Y-1.250 E3.00628
G1 X-18.459 Y-1.394 E0.11607
G1 X-17.023 Y-1.989 E0.16395
G1 X-15.790 Y-2.935 E0.16395
G1 X-14.844 Y-4.168 E0.16395
G1 X-14.249 Y-5.604 E0.16395
G1 X-14.046 Y-7.145 E0.16395
G1 X-14.249 Y-8.686 E0.16395
G1 X-14.844 Y-10.122 E0.16395
G1 X-15.790 Y-11.355 E0.16395
G1 X-17.023 Y-12.301 E0.16395
G1 X-18.459 Y-12.896 E0.16395
G1 X-19.498 Y-13.033 E0.11053
G1 X-19.347 Y-13.325 F4200.000
G1 E-4.00000 F1980.00000
G1 X-13.854 Y-8.626 F4200.000
G1 E4.00000 F1980.00000
G1 F300
G1 X-13.625 Y-7.769 E-0.00969
G1 X-13.392 Y-7.326 E-0.00547
G1 X-13.392 Y-6.964 F4200.000
G1 F300
G1 X-13.625 Y-6.521 E-0.00547
G1 X-13.854 Y-5.664 E-0.00969
G1 X-13.240 Y-6.042 F4200.000
G1 F300
G1 X-13.425 Y-6.509 E-0.00548
G1 X-13.562 Y-6.641 E-0.00208
G1 X-13.564 Y-6.672 E-0.00035
G1 X-13.537 Y-7.126 E-0.00497
G1 X-13.562 Y-7.649 E-0.00573
G1 X-13.425 Y-7.781 E-0.00208
G1 X-13.240 Y-8.248 E-0.00548
G1 E-4.00000 F1980.00000
G1 X13.077 Y-8.645 F4200.000
G1 E4.00000 F1980.00000
G1 F300
G1 X13.460 Y-7.918 E-0.00899
G1 X13.731 Y-7.531 E-0.00516
G1 X13.731 Y-6.759 F4200.000
G1 F300
G1 X13.460 Y-6.372 E-0.00516
G1 X13.077 Y-5.645 E-0.00899
G1 X13.854 Y-5.664 F4200.000
G1 F300
G1 X13.675 Y-6.334 E-0.00758
G1 X13.551 Y-6.502 E-0.00228
G1 X13.550 Y-7.128 E-0.00685
G1 X13.551 Y-7.788 E-0.00721
G1 X13.675 Y-7.956 E-0.00228
G1 X13.854 Y-8.626 E-0.00758
G1 X12.309 Y-10.785 F4200.000
G1 F300
G1 X2.566 Y-20.528 E1.46197
G1 X3.598 Y-20.528 E0.10943
G1 X13.740 Y-10.385 E1.52204
G1 X14.138 Y-11.018 E0.07937
G1 X4.629 Y-20.528 E1.42700
G1 X5.660 Y-20.528 E0.10943
G1 X14.586 Y-11.602 E1.33944
G1 X15.043 Y-12.176 E0.07787
G1 X6.691 Y-20.528 E1.25334
G1 X7.723 Y-20.528 E0.10943
G1 X15.627 Y-12.623 E1.18615
G1 X16.211 Y-13.071 E0.07804
G1 X8.754 Y-20.528 E1.11896
G1 X9.785 Y-20.528 E0.10943
G1 X16.865 Y-13.448 E1.06239
G1 X17.594 Y-13.750 E0.08375
G1 X10.816 Y-20.528 E1.01706
G1 X11.848 Y-20.528 E0.10943
G1 X18.337 Y-14.038 E0.97381
G1 X18.383 Y-15.024 E0.10469
G1 X12.879 Y-20.528 E0.82592
G1 X13.910 Y-20.528 E0.10943
G1 X18.383 Y-16.055 E0.67116
G1 X18.383 Y-17.086 E0.10943
G1 X14.941 Y-20.528 E0.51641
G1 X15.973 Y-20.528 E0.10943
G1 X18.383 Y-18.118 E0.36166
G1 X18.383 Y-19.149 E0.10943
G1 X17.004 Y-20.528 E0.20691
G1 X18.035 Y-20.528 E0.10943
G1 X18.383 Y-20.180 E0.05215
G1 X10.758 Y-11.305 F4200.000
G1 F300
G1 X1.535 Y-20.528 E1.38399
G1 X0.504 Y-20.528 E0.10943
G1 X9.709 Y-11.322 E1.38137
G1 X8.856 Y-11.144 E0.09246
G1 X-0.527 Y-20.528 E1.40814
G1 X-1.559 Y-20.528 E0.10943
G1 X8.117 Y-10.852 E1.45202
G1 X7.487 Y-10.451 E0.07929
G1 X-2.590 Y-20.528 E1.51210
G1 X-3.621 Y-20.528 E0.10943
G1 X6.960 Y-9.946 E1.58791
G1 X6.500 Y-9.375 E0.07782
G1 X-4.653 Y-20.528 E1.67354
G1 X-5.684 Y-20.528 E0.10943
G1 X6.134 Y-8.710 E1.77340
G1 X5.899 Y-7.914 E0.08809
G1 X-6.715 Y-20.528 E1.89288
G1 X-7.746 Y-20.528 E0.10943
G1 X5.803 Y-6.978 E2.03327
G1 X5.974 Y-5.776 E0.12884
G1 X-8.778 Y-20.528 E2.21366
G1 X-9.809 Y-20.528 E0.10943
G1 X18.383 Y7.664 E4.23047
G1 X18.383 Y6.633 E0.10943
G1 X8.631 Y-3.119 E1.46337
G1 X9.842 Y-2.940 E0.12985
G1 X18.383 Y5.601 E1.28171
G1 X18.383 Y4.570 E0.10943
G1 X10.767 Y-3.045 E1.14280
G1 X11.551 Y-3.293 E0.08722
G1 X18.383 Y3.539 E1.02517
G1 X18.383 Y2.508 E0.10943
G1 X12.241 Y-3.634 E0.92159
G1 X12.806 Y-4.101 E0.07772
G1 X18.383 Y1.476 E0.83690
G1 X18.383 Y0.445 E0.10943
G1 X17.477 Y-0.461 E0.13597
G1 X18.383 Y8.695 F4200.000
G1 F300
G1 X-10.840 Y-20.528 E4.38523
G1 X-11.871 Y-20.528 E0.10943
G1 X18.383 Y9.726 E4.53998
G1 X18.383 Y10.758 E0.10943
G1 X-12.903 Y-20.528 E4.69473
G1 X-13.934 Y-20.528 E0.10943
G1 X18.383 Y11.789 E4.84948
G1 X18.383 Y12.820 E0.10943
G1 X-14.965 Y-20.528 E5.00424
G1 X-15.996 Y-20.528 E0.10943
G1 X18.383 Y13.851 E5.15899
G1 X18.383 Y14.883 E0.10943
G1 X-17.028 Y-20.528 E5.31374
G1 X-18.059 Y-20.528 E0.10943
G1 X-8.740 Y-11.209 E1.39835
G1 X-9.909 Y-11.346 E0.12483
G1 X-18.383 Y-19.820 E1.27161
G1 X-18.383 Y-18.789 E0.10943
G1 X-10.837 Y-11.244 E1.13229
G1 X-11.616 Y-10.991 E0.08684
G1 X-18.383 Y-17.758 E1.01548
G1 X-18.383 Y-16.727 E0.10943
G1 X-12.265 Y-10.609 E0.91804
G1 X-12.843 Y-10.155 E0.07794
G1 X-18.383 Y-15.695 E0.83132
G1 X-18.383 Y-14.664 E0.10943
G1 X-17.598 Y-13.879 E0.11780
G1 E-4.00000 F1980.00000
G1 X-13.761 Y-3.855 F4200.000
G1 E4.00000 F1980.00000
G1 F300
G1 X16.915 Y26.821 E4.60330
G1 X16.251 Y27.188 E0.08053
G1 X-14.169 Y-3.232 E4.56483
G1 X-14.617 Y-2.648 E0.07804
G1 X15.667 Y27.636 E4.54446
G1 X15.084 Y28.084 E0.07804
G1 X-15.084 Y-2.084 E4.52695
G1 X-15.667 Y-1.636 E0.07804
G1 X14.617 Y28.648 E4.54446
G1 X14.169 Y29.232 E0.07804
G1 X-16.251 Y-1.188 E4.56483
G1 X-16.915 Y-0.821 E0.08053
G1 X13.761 Y29.855 E4.60330
G1 X12.443 Y29.568 E0.14318
G1 X-17.644 Y-0.519 E4.51488
G1 X-18.383 Y-0.226 E0.08430
G1 X10.845 Y29.002 E4.38603
G1 X9.776 Y28.963 E0.11356
G1 X-18.383 Y0.805 E4.22553
G1 X-18.383 Y1.836 E0.10943
G1 X8.910 Y29.129 E4.09556
G1 X8.161 Y29.411 E0.08493
G1 X-18.383 Y2.867 E3.98317
G1 X-18.383 Y3.899 E0.10943
G1 X7.530 Y29.811 E3.88850
G1 X6.995 Y30.307 E0.07743
G1 X-18.383 Y4.930 E3.80820
G1 X-18.383 Y5.961 E0.10943
G1 X6.525 Y30.869 E3.73770
G1 X6.159 Y31.534 E0.08058
G1 X-18.383 Y6.992 E3.68280
G1 X-18.383 Y8.024 E0.10943
G1 X5.913 Y32.320 E3.64593
G1 X5.803 Y33.241 E0.09843
G1 X-18.383 Y9.055 E3.62939
G1 X-18.383 Y10.086 E0.10943
G1 X5.950 Y34.419 E3.65136
G1 X8.736 Y37.205 F4200.000
G1 F300
G1 X18.059 Y46.528 E1.39900
G1 X18.383 Y45.820 E0.08255
G1 X9.917 Y37.355 E1.27036
G1 X10.827 Y37.233 E0.09738
G1 X18.383 Y44.789 E1.13387
G1 X18.383 Y43.758 E0.10943
G1 X11.599 Y36.974 E1.01794
G1 X12.280 Y36.624 E0.08125
G1 X18.383 Y42.727 E0.91577
G1 X18.383 Y41.695 E0.10943
G1 X12.844 Y36.157 E0.83108
G1 X17.598 Y39.879 F4200.000
G1 F300
G1 X18.383 Y40.664 E0.11782
G1 X17.028 Y46.528 F4200.000
G1 F300
G1 X-18.383 Y11.117 E5.31373
G1 X-18.383 Y12.149 E0.10943
G1 X15.996 Y46.528 E5.15898
