; generated by Slic3r 1.3.0-dev on 2016-03-26 at 16:13:06

; external perimeters extrusion width = 0.50mm
; perimeters extrusion width = 0.50mm
; infill extrusion width = 0.50mm
; solid infill extrusion width = 0.50mm
; top infill extrusion width = 0.50mm

M107
M190 S57 ; set bed temperature and wait for it to be reached
G28        ; Home all axes
M83;
G10 P0 S195 R160                       ; Set tool 0 operating and standby temperatures
T0

G21 ; set units to millimeters
G90 ; use absolute coordinates
M83 ; use relative distances for extrusion
G1 E-3.50000 F2400.00000
G1 Z0.500 F9000.000
G1 X76.752 Y54.889 F9000.000
G1 E3.50000 F2400.00000
G1 F1200
G1 X77.851 Y53.583 E0.24581
G1 X80.050 Y52.857 E0.33341
G1 X119.950 Y52.857 E5.74542
G1 X121.611 Y53.252 E0.24581
G1 X122.917 Y54.351 E0.24581
G1 X123.643 Y56.550 E0.33341
G1 X123.643 Y143.450 E12.51320
G1 X123.248 Y145.111 E0.24581
G1 X122.149 Y146.417 E0.24581
G1 X119.950 Y147.143 E0.33341
G1 X80.050 Y147.143 E5.74542
G1 X78.389 Y146.748 E0.24581
G1 X77.083 Y145.649 E0.24581
G1 X76.357 Y143.450 E0.33341
G1 X76.357 Y56.550 E12.51320
G1 X76.735 Y54.962 E0.23501
G1 E-3.50000 F2400.00000
G1 X93.752 Y111.790 F9000.000
G1 E3.50000 F2400.00000
G1 F900
G1 X93.634 Y112.723 E0.13542
G1 X93.288 Y113.597 E0.13542
G1 X92.735 Y114.358 E0.13542
G1 X92.010 Y114.958 E0.13542
G1 X91.159 Y115.358 E0.13542
G1 X90.227 Y115.536 E0.13674
G1 X89.244 Y115.458 E0.14200
G1 X88.403 Y115.185 E0.12733
G1 X87.609 Y114.681 E0.13542
G1 X86.965 Y113.995 E0.13542
G1 X86.512 Y113.171 E0.13542
G1 X86.278 Y112.260 E0.13542
G1 X86.278 Y111.320 E0.13542
G1 X86.512 Y110.409 E0.13542
G1 X86.965 Y109.585 E0.13542
G1 X87.609 Y108.899 E0.13542
G1 X88.410 Y108.390 E0.13674
G1 X89.353 Y108.101 E0.14200
G1 F900
G1 X90.236 Y108.046 E0.12733
G1 X91.159 Y108.222 E0.13542
G1 X92.010 Y108.622 E0.13542
G1 X92.735 Y109.222 E0.13542
G1 X93.288 Y109.983 E0.13542
G1 X93.634 Y110.857 E0.13542
G1 X93.742 Y111.716 E0.12462
G1 X93.054 Y111.790 F9000.000
G1 F900
G1 X92.958 Y112.549 E0.11022
G1 X92.676 Y113.261 E0.11022
G1 X92.226 Y113.880 E0.11022
G1 X91.636 Y114.368 E0.11022
G1 X90.944 Y114.694 E0.11022
G1 X90.188 Y114.838 E0.11070
G1 X89.380 Y114.774 E0.11680
G1 X88.700 Y114.553 E0.10296
G1 X88.054 Y114.143 E0.11022
G1 X87.530 Y113.585 E0.11022
G1 X87.161 Y112.914 E0.11022
G1 X86.971 Y112.173 E0.11022
G1 X86.971 Y111.407 E0.11022
G1 X87.161 Y110.666 E0.11022
G1 X87.530 Y109.995 E0.11022
G1 X88.054 Y109.437 E0.11022
G1 X88.703 Y109.025 E0.11070
G1 X89.478 Y108.787 E0.11680
G1 F900
G1 X90.192 Y108.742 E0.10296
G1 X90.944 Y108.886 E0.11022
G1 X91.636 Y109.212 E0.11022
G1 X92.226 Y109.700 E0.11022
G1 X92.676 Y110.319 E0.11022
G1 X92.958 Y111.031 E0.11022
G1 X93.044 Y111.716 E0.09942
G1 X93.054 Y111.790 F9000.000
G1 X105.629 Y111.566 F9000.000
G1 F900
G1 X106.278 Y111.566 E0.09337
G1 X106.278 Y111.320 E0.03548
G1 X106.512 Y110.409 E0.13542
G1 X106.965 Y109.585 E0.13542
G1 X107.609 Y108.899 E0.13542
G1 X108.410 Y108.390 E0.13674
G1 X109.353 Y108.101 E0.14200
G1 X110.236 Y108.046 E0.12733
G1 X111.159 Y108.222 E0.13542
G1 X112.010 Y108.622 E0.13542
G1 X112.735 Y109.222 E0.13542
G1 X113.288 Y109.983 E0.13542
G1 X113.634 Y110.857 E0.13542
G1 X113.752 Y111.790 E0.13542
G1 X113.634 Y112.723 E0.13542
G1 X113.288 Y113.597 E0.13542
G1 X112.735 Y114.358 E0.13542
G1 X112.010 Y114.958 E0.13542
G1 X111.159 Y115.358 E0.13542
G1 X110.236 Y115.534 E0.13542
G1 X109.297 Y115.475 E0.13542
G1 X108.403 Y115.185 E0.13542
G1 X107.609 Y114.681 E0.13542
G1 X106.965 Y113.995 E0.13542
G1 X105.665 Y111.632 E0.38835
G1 X106.971 Y111.566 F9000.000
G1 F900
G1 X106.971 Y111.407 E0.02288
G1 X107.161 Y110.666 E0.11022
G1 X107.530 Y109.995 E0.11022
G1 X108.054 Y109.437 E0.11022
G1 X108.703 Y109.025 E0.11070
G1 X109.478 Y108.787 E0.11680
G1 F900
G1 X110.192 Y108.742 E0.10296
G1 X110.944 Y108.886 E0.11022
G1 X111.636 Y109.212 E0.11022
G1 X112.226 Y109.700 E0.11022
G1 X112.676 Y110.319 E0.11022
G1 X112.958 Y111.031 E0.11022
G1 X113.054 Y111.790 E0.11022
G1 X112.958 Y112.549 E0.11022
G1 X112.676 Y113.261 E0.11022
G1 X112.226 Y113.880 E0.11022
G1 X111.636 Y114.368 E0.11022
G1 X110.944 Y114.694 E0.11022
G1 X110.192 Y114.838 E0.11022
G1 X109.428 Y114.789 E0.11022
G1 X108.700 Y114.553 E0.11022
G1 X108.054 Y114.143 E0.11022
G1 X107.530 Y113.585 E0.11022
G1 X106.801 Y112.259 E0.21788
G1 X106.971 Y112.259 E0.02446
G1 X106.971 Y111.641 E0.08895
G1 X106.840 Y111.476 F9000.000
G1 X109.297 Y75.185 F9000.000
G1 F900
G1 X108.403 Y74.895 E0.13542
G1 X107.609 Y74.391 E0.13542
G1 X106.965 Y73.705 E0.13542
G1 X106.512 Y72.881 E0.13542
G1 X106.278 Y71.970 E0.13542
G1 X106.278 Y71.030 E0.13542
G1 X106.512 Y70.119 E0.13542
G1 X106.965 Y69.295 E0.13542
G1 X107.609 Y68.609 E0.13542
G1 X108.410 Y68.100 E0.13674
G1 X109.353 Y67.811 E0.14200
G1 F900
G1 X110.236 Y67.756 E0.12733
G1 X111.159 Y67.932 E0.13542
G1 X112.010 Y68.332 E0.13542
G1 X112.735 Y68.932 E0.13542
G1 X113.288 Y69.693 E0.13542
G1 X113.634 Y70.567 E0.13542
G1 X113.752 Y71.500 E0.13542
G1 X113.634 Y72.433 E0.13542
G1 X113.288 Y73.307 E0.13542
G1 X112.730 Y74.076 E0.13674
G1 X111.959 Y74.692 E0.14200
G1 X111.159 Y75.068 E0.12733
G1 X110.236 Y75.244 E0.13542
G1 X109.372 Y75.190 E0.12462
G1 X109.428 Y74.499 F9000.000
G1 F900
G1 X108.700 Y74.263 E0.11022
G1 X108.054 Y73.853 E0.11022
G1 X107.530 Y73.295 E0.11022
G1 X107.161 Y72.624 E0.11022
G1 X106.971 Y71.883 E0.11022
G1 X106.971 Y71.117 E0.11022
G1 X107.161 Y70.376 E0.11022
G1 X107.530 Y69.705 E0.11022
G1 X108.054 Y69.147 E0.11022
G1 X108.703 Y68.735 E0.11070
G1 X109.478 Y68.497 E0.11680
G1 F900
G1 X110.192 Y68.452 E0.10296
G1 X110.944 Y68.596 E0.11022
G1 X111.636 Y68.922 E0.11022
G1 X112.226 Y69.410 E0.11022
G1 X112.676 Y70.029 E0.11022
G1 X112.958 Y70.741 E0.11022
G1 X113.054 Y71.500 E0.11022
G1 X112.958 Y72.259 E0.11022
G1 X112.676 Y72.971 E0.11022
G1 X112.224 Y73.593 E0.11070
G1 X111.591 Y74.100 E0.11679
G1 X110.944 Y74.404 E0.10296
G1 X110.192 Y74.548 E0.11022
G1 X109.503 Y74.504 E0.09942
G1 X109.428 Y74.499 F9000.000
G1 X89.626 Y67.211 F9000.000
G1 F900
G1 X92.010 Y68.332 E0.37937
G1 X92.737 Y68.933 E0.13580
G1 X93.294 Y69.707 E0.13725
G1 X93.634 Y70.567 E0.13314
G1 X93.752 Y71.500 E0.13542
G1 X93.634 Y72.433 E0.13542
G1 X93.288 Y73.307 E0.13542
G1 X92.730 Y74.076 E0.13674
G1 X91.959 Y74.692 E0.14200
G1 X91.159 Y75.068 E0.12733
G1 X90.236 Y75.244 E0.13542
G1 X89.297 Y75.185 E0.13542
G1 X88.403 Y74.895 E0.13542
G1 X87.609 Y74.391 E0.13542
G1 X86.965 Y73.705 E0.13542
G1 X86.512 Y72.881 E0.13542
G1 X86.278 Y71.970 E0.13542
G1 X86.278 Y71.030 E0.13542
G1 X86.512 Y70.119 E0.13542
G1 X86.965 Y69.295 E0.13542
G1 X87.609 Y68.609 E0.13542
G1 X88.410 Y68.100 E0.13674
G1 X89.353 Y67.811 E0.14200
G1 X89.626 Y67.794 E0.03944
G1 X89.626 Y67.286 E0.07321
G1 X89.707 Y68.483 F9000.000
G1 F900
G1 X90.319 Y68.444 E0.08839
G1 F900
G1 X90.319 Y68.302 E0.02051
G1 X91.636 Y68.922 E0.20959
G1 X92.227 Y69.410 E0.11036
G1 X92.681 Y70.042 E0.11205
G1 X92.958 Y70.741 E0.10819
G1 X93.054 Y71.500 E0.11022
G1 X92.958 Y72.259 E0.11022
G1 X92.676 Y72.971 E0.11022
G1 X92.224 Y73.593 E0.11070
G1 X91.591 Y74.100 E0.11680
G1 X90.944 Y74.404 E0.10296
G1 X90.192 Y74.548 E0.11022
G1 X89.428 Y74.499 E0.11022
G1 X88.700 Y74.263 E0.11022
G1 X88.054 Y73.853 E0.11022
G1 X87.530 Y73.295 E0.11022
G1 X87.161 Y72.624 E0.11022
G1 X86.971 Y71.883 E0.11022
G1 X86.971 Y71.117 E0.11022
G1 X87.161 Y70.376 E0.11022
G1 X87.530 Y69.705 E0.11022
G1 X88.054 Y69.147 E0.11022
G1 X88.703 Y68.735 E0.11070
G1 X89.478 Y68.497 E0.11680
G1 X89.632 Y68.488 E0.02215
G1 X89.901 Y68.022 F9000.000
G1 X81.143 Y57.643 F9000.000
G1 F900
G1 X118.857 Y57.643 E5.43073
G1 X118.857 Y142.357 E12.19851
G1 X81.143 Y142.357 E5.43073
G1 X81.143 Y57.718 E12.18771
G1 X80.450 Y56.950 F9000.000
G1 F900
G1 X119.550 Y56.950 E5.63022
G1 X119.550 Y143.050 E12.39800
G1 X80.450 Y143.050 E5.63022
G1 X80.450 Y57.025 E12.38721
G1 X80.914 Y57.136 F9000.000
G1 X81.565 Y58.928 F9000.000
G1 F900
G1 X89.205 Y66.568 E1.56312
G1 X89.130 Y67.477 F9000.000
G1 F900
G1 X81.565 Y59.912 E1.54775
G1 X81.565 Y60.896 E0.14239
G1 X88.376 Y67.708 E1.39366
G1 X87.762 Y68.078 E0.10372
G1 X81.565 Y61.880 E1.26805
G1 X81.565 Y62.864 E0.14239
G1 X87.208 Y68.508 E1.15465
G1 X86.732 Y69.016 E0.10073
G1 X81.565 Y63.849 E1.05714
G1 X81.565 Y64.833 E0.14239
G1 X86.360 Y69.628 E0.98113
G1 X86.060 Y70.312 E0.10805
G1 X81.565 Y65.817 E0.91965
G1 X81.565 Y66.801 E0.14239
G1 X85.858 Y71.095 E0.87851
G1 X85.856 Y72.077 E0.14203
G1 X81.565 Y67.786 E0.87800
G1 X81.565 Y68.770 E0.14239
G1 X86.238 Y73.443 E0.95608
G1 X88.085 Y75.290 F9000.000
G1 F900
G1 X118.435 Y105.641 E6.20949
G1 X118.435 Y104.656 E0.14239
G1 X89.403 Y75.624 E5.93984
G1 X90.383 Y75.620 E0.14181
G1 X118.435 Y103.672 E5.73929
G1 X118.435 Y102.688 E0.14239
G1 X91.206 Y75.459 E5.57098
G1 X91.875 Y75.144 E0.10701
G1 X118.435 Y101.704 E5.43405
G1 X118.435 Y100.720 E0.14239
G1 X92.466 Y74.750 E5.31319
G1 X93.009 Y74.309 E0.10122
G1 X118.435 Y99.735 E5.20206
G1 X118.435 Y98.751 E0.14239
G1 X93.423 Y73.739 E5.11733
G1 X93.774 Y73.106 E0.10475
G1 X118.435 Y97.767 E5.04556
G1 X118.435 Y96.783 E0.14239
G1 X94.047 Y72.394 E4.98982
G1 X94.157 Y71.520 E0.12742
G1 X118.435 Y95.799 E4.96723
G1 X118.435 Y94.814 E0.14239
G1 X94.063 Y70.442 E4.98647
G1 X90.862 Y67.241 F9000.000
G1 F900
G1 X81.686 Y58.065 E1.87752
G1 X82.670 Y58.065 E0.14239
G1 X118.435 Y93.830 E7.31744
G1 X118.435 Y92.846 E0.14239
G1 X83.654 Y58.065 E7.11607
G1 X84.638 Y58.065 E0.14239
G1 X118.435 Y91.862 E6.91471
G1 X118.435 Y90.877 E0.14239
G1 X85.623 Y58.065 E6.71334
G1 X86.607 Y58.065 E0.14239
G1 X118.435 Y89.893 E6.51198
G1 X118.435 Y88.909 E0.14239
G1 X87.591 Y58.065 E6.31062
G1 X88.575 Y58.065 E0.14239
G1 X118.435 Y87.925 E6.10925
G1 X118.435 Y86.941 E0.14239
G1 X89.559 Y58.065 E5.90789
G1 X90.544 Y58.065 E0.14239
G1 X118.435 Y85.956 E5.70652
G1 X118.435 Y84.972 E0.14239
G1 X109.066 Y75.603 E1.91688
G1 X110.117 Y75.669 E0.15225
G1 X118.435 Y83.988 E1.70200
G1 X118.435 Y83.004 E0.14239
G1 X110.945 Y75.513 E1.53254
G1 X111.661 Y75.245 E0.11060
G1 X118.435 Y82.020 E1.38608
G1 X118.435 Y81.035 E0.14239
G1 X112.291 Y74.891 E1.25719
G1 X112.838 Y74.453 E0.10130
G1 X118.435 Y80.051 E1.14531
G1 X118.435 Y79.067 E0.14239
G1 X113.291 Y73.922 E1.05262
G1 X113.685 Y73.332 E0.10266
G1 X118.435 Y78.083 E0.97199
G1 X118.435 Y77.098 E0.14239
G1 X113.964 Y72.627 E0.91488
G1 X114.122 Y71.800 E0.12172
G1 X118.435 Y76.114 E0.88259
G1 X118.435 Y75.130 E0.14239
G1 X114.109 Y70.803 E0.88524
G1 X113.698 Y69.409 E0.21032
G1 X118.435 Y74.146 E0.96921
G1 X118.435 Y73.162 E0.14239
G1 X103.338 Y58.065 E3.08878
G1 X104.323 Y58.065 E0.14239
G1 X118.435 Y72.177 E2.88742
G1 X118.435 Y71.193 E0.14239
G1 X105.307 Y58.065 E2.68605
G1 X106.291 Y58.065 E0.14239
G1 X118.435 Y70.209 E2.48469
G1 X118.435 Y69.225 E0.14239
G1 X107.275 Y58.065 E2.28332
G1 X108.259 Y58.065 E0.14239
G1 X118.435 Y68.241 E2.08196
G1 X118.435 Y67.256 E0.14239
G1 X109.244 Y58.065 E1.88059
G1 X110.228 Y58.065 E0.14239
G1 X118.435 Y66.272 E1.67923
G1 X118.435 Y65.288 E0.14239
G1 X111.212 Y58.065 E1.47786
G1 X112.196 Y58.065 E0.14239
G1 X118.435 Y64.304 E1.27650
G1 X118.435 Y63.319 E0.14239
G1 X113.181 Y58.065 E1.07513
G1 X114.165 Y58.065 E0.14239
G1 X118.435 Y62.335 E0.87377
G1 X118.435 Y61.351 E0.14239
G1 X115.149 Y58.065 E0.67241
G1 X116.133 Y58.065 E0.14239
G1 X118.435 Y60.367 E0.47104
G1 X118.435 Y59.383 E0.14239
G1 X117.117 Y58.065 E0.26968
G1 X118.102 Y58.065 E0.14239
G1 X118.435 Y58.398 E0.06831
G1 X102.354 Y58.065 F9000.000
G1 F900
G1 X112.125 Y67.835 E1.99908
G1 X110.687 Y67.382 E0.21816
G1 X101.370 Y58.065 E1.90622
G1 X100.386 Y58.065 E0.14239
G1 X109.697 Y67.376 E1.90503
G1 X108.888 Y67.551 E0.11976
G1 X99.402 Y58.065 E1.94086
G1 X98.417 Y58.065 E0.14239
G1 X108.171 Y67.819 E1.99562
G1 X107.569 Y68.201 E0.10317
G1 X97.433 Y58.065 E2.07380
G1 X96.449 Y58.065 E0.14239
G1 X107.055 Y68.671 E2.17001
G1 X106.597 Y69.197 E0.10092
G1 X95.465 Y58.065 E2.27764
G1 X94.480 Y58.065 E0.14239
G1 X106.248 Y69.832 E2.40758
G1 X105.995 Y70.563 E0.11194
G1 X93.496 Y58.065 E2.55718
G1 X92.512 Y58.065 E0.14239
G1 X105.856 Y71.408 E2.73010
G1 X105.926 Y72.463 E0.15290
G1 X91.528 Y58.065 E2.94586
G1 X81.565 Y69.754 F9000.000
G1 F900
G1 X118.435 Y106.625 E7.54359
G1 X118.435 Y107.609 E0.14239
G1 X81.565 Y70.738 E7.54359
G1 X81.565 Y71.722 E0.14239
G1 X118.435 Y108.593 E7.54359
G1 X118.435 Y109.578 E0.14239
G1 X81.565 Y72.707 E7.54359
G1 X81.565 Y73.691 E0.14239
G1 X118.435 Y110.562 E7.54359
G1 X118.435 Y111.546 E0.14239
G1 X81.565 Y74.675 E7.54359
G1 X81.565 Y75.659 E0.14239
G1 X118.435 Y112.530 E7.54359
G1 X118.435 Y113.514 E0.14239
G1 X81.565 Y76.643 E7.54359
G1 X81.565 Y77.628 E0.14239
G1 X112.007 Y108.070 E6.22826
G1 X110.609 Y107.657 E0.21076
G1 X81.565 Y78.612 E5.94243
G1 X81.565 Y79.596 E0.14239
G1 X109.638 Y107.670 E5.74366
G1 X108.840 Y107.856 E0.11855
G1 X81.565 Y80.580 E5.58038
G1 X81.565 Y81.565 E0.14239
G1 X108.133 Y108.133 E5.43575
G1 X107.531 Y108.515 E0.10317
G1 X81.565 Y82.549 E5.31256
G1 X81.565 Y83.533 E0.14239
G1 X107.025 Y108.993 E5.20904
G1 X106.575 Y109.528 E0.10105
G1 X81.565 Y84.517 E5.11698
G1 X81.565 Y85.501 E0.14239
G1 X106.226 Y110.163 E5.04554
G1 X105.982 Y110.903 E0.11280
G1 X81.565 Y86.486 E4.99572
G1 X81.565 Y87.470 E0.14239
G1 X105.239 Y111.144 E4.84368
G1 X105.498 Y112.387 F9000.000
G1 F900
G1 X81.565 Y88.454 E4.89664
G1 X81.565 Y89.438 E0.14239
G1 X118.435 Y126.309 E7.54359
G1 X118.435 Y125.325 E0.14239
G1 X108.982 Y115.872 E1.93403
G1 X110.050 Y115.955 E0.15484
G1 X118.435 Y124.341 E1.71571
G1 X118.435 Y123.357 E0.14239
G1 X110.892 Y115.813 E1.54333
G1 X111.618 Y115.555 E0.11146
G1 X118.435 Y122.372 E1.39482
G1 X118.435 Y121.388 E0.14239
G1 X112.264 Y115.217 E1.26255
G1 X112.803 Y114.772 E0.10113
G1 X118.435 Y120.404 E1.15235
G1 X118.435 Y119.420 E0.14239
G1 X113.264 Y114.248 E1.05803
G1 X113.667 Y113.667 E0.10233
G1 X118.435 Y118.435 E0.97564
G1 X118.435 Y117.451 E0.14239
G1 X113.946 Y112.962 E0.91852
G1 X114.115 Y112.146 E0.12049
G1 X118.435 Y116.467 E0.88403
G1 X118.435 Y115.483 E0.14239
G1 X114.118 Y111.165 E0.88338
G1 X113.739 Y109.803 E0.20458
G1 X118.435 Y114.499 E0.96079
G1 X118.435 Y127.293 F9000.000
G1 F900
G1 X81.565 Y90.422 E7.54359
G1 X81.565 Y91.407 E0.14239
G1 X118.435 Y128.278 E7.54359
G1 X118.435 Y129.262 E0.14239
G1 X81.565 Y92.391 E7.54359
G1 X81.565 Y93.375 E0.14239
G1 X118.435 Y130.246 E7.54359
G1 X118.435 Y131.230 E0.14239
G1 X81.565 Y94.359 E7.54359
G1 X81.565 Y95.344 E0.14239
G1 X118.435 Y132.214 E7.54359
G1 X118.435 Y133.199 E0.14239
G1 X81.565 Y96.328 E7.54359
G1 X81.565 Y97.312 E0.14239
G1 X118.435 Y134.183 E7.54359
G1 X118.435 Y135.167 E0.14239
G1 X94.072 Y110.804 E4.98461
G1 X94.150 Y111.866 E0.15407
G1 X118.435 Y136.151 E4.96867
G1 X118.435 Y137.136 E0.14239
G1 X94.036 Y112.736 E4.99209
G1 X93.756 Y113.441 E0.10971
G1 X118.435 Y138.120 E5.04920
G1 X118.435 Y139.104 E0.14239
G1 X93.397 Y114.065 E5.12273
G1 X92.976 Y114.629 E0.10172
G1 X118.435 Y140.088 E5.20889
G1 X118.435 Y141.072 E0.14239
G1 X92.437 Y115.074 E5.31909
G1 X91.833 Y115.454 E0.10328
G1 X118.314 Y141.935 E5.41800
G1 X117.330 Y141.935 E0.14239
G1 X91.157 Y115.763 E5.35482
G1 X90.331 Y115.920 E0.12173
G1 X116.346 Y141.935 E5.32256
G1 X115.362 Y141.935 E0.14239
G1 X89.326 Y115.900 E5.32675
G1 X87.976 Y115.534 E0.20238
G1 X114.377 Y141.935 E5.40162
G1 X113.393 Y141.935 E0.14239
G1 X81.565 Y110.107 E6.51198
G1 X81.565 Y111.091 E0.14239
G1 X112.409 Y141.935 E6.31061
G1 X111.425 Y141.935 E0.14239
G1 X81.565 Y112.075 E6.10925
G1 X81.565 Y113.059 E0.14239
G1 X110.441 Y141.935 E5.90788
G1 X109.456 Y141.935 E0.14239
G1 X81.565 Y114.044 E5.70652
G1 X81.565 Y115.028 E0.14239
G1 X108.472 Y141.935 E5.50515
G1 X107.488 Y141.935 E0.14239
G1 X81.565 Y116.012 E5.30379
G1 X81.565 Y116.996 E0.14239
G1 X106.504 Y141.935 E5.10242
G1 X105.520 Y141.935 E0.14239
G1 X81.565 Y117.980 E4.90106
G1 X81.565 Y118.965 E0.14239
G1 X104.535 Y141.935 E4.69970
G1 X103.551 Y141.935 E0.14239
G1 X81.565 Y119.949 E4.49833
G1 X81.565 Y120.933 E0.14239
G1 X102.567 Y141.935 E4.29697
G1 X101.583 Y141.935 E0.14239
G1 X81.565 Y121.917 E4.09560
