; generated by Slic3r 1.3.0-dev on 2016-03-31 at 18:56:43

; external perimeters extrusion width = 0.50mm
; perimeters extrusion width = 0.50mm
; infill extrusion width = 0.50mm
; solid infill extrusion width = 0.50mm
; top infill extrusion width = 0.50mm

M107
M190 S57 ; set bed temperature and wait for it to be reached
G28        ; Home all axes
M83;
G10 P0 S195 R160                       ; Set tool 0 operating and standby temperatures
T0

G21 ; set units to millimeters
G90 ; use absolute coordinates
M83 ; use relative distances for extrusion
G1 E-3.50000 F2400.00000
G1 Z0.500 F9000.000
G1 X76.169 Y76.751 F9000.000
G1 E3.50000 F2400.00000
G1 F1200
G1 X77.173 Y75.763 E0.20292
G1 X78.539 Y74.547 E0.26341
G1 X79.082 Y74.099 E0.10131
G1 X80.057 Y73.341 E0.17787
G1 X80.651 Y72.906 E0.10600
G1 X82.198 Y71.865 E0.26838
G1 X83.385 Y71.148 E0.19972
G1 X83.988 Y70.810 E0.09961
G1 X85.092 Y70.230 E0.17957
G1 X86.750 Y69.457 E0.26341
G1 X87.549 Y69.122 E0.12474
G1 X88.550 Y68.737 E0.15444
G1 X89.398 Y68.440 E0.12943
G1 X90.389 Y68.124 E0.14976
G1 X91.181 Y67.896 E0.11865
G1 X92.261 Y67.619 E0.16054
G1 X93.097 Y67.430 E0.12334
G1 X94.267 Y67.204 E0.17161
G1 X96.077 Y66.938 E0.26341
G1 X96.993 Y66.842 E0.13271
G1 X98.008 Y66.766 E0.14648
G1 X99.068 Y66.720 E0.15286
G1 X99.945 Y66.707 E0.12633
G1 X100.932 Y66.719 E0.14208
G1 X101.992 Y66.766 E0.15286
G1 X102.900 Y66.833 E0.13101
G1 X103.815 Y66.926 E0.13242
G1 X104.858 Y67.063 E0.15146
G1 X105.733 Y67.204 E0.12773
G1 X106.903 Y67.430 E0.17161
G1 X107.739 Y67.619 E0.12334
G1 X108.715 Y67.868 E0.14507
G1 X109.611 Y68.124 E0.13411
G1 X110.602 Y68.440 E0.14976
G1 X111.450 Y68.737 E0.12943
G1 X113.150 Y69.413 E0.26340
G1 X114.256 Y69.913 E0.17488
G1 X114.908 Y70.230 E0.10430
G1 X116.106 Y70.861 E0.19504
G1 X117.711 Y71.809 E0.26839
G1 X118.357 Y72.225 E0.11068
G1 X119.349 Y72.906 E0.17319
G1 X119.943 Y73.341 E0.10600
G1 X121.377 Y74.476 E0.26341
G1 X122.414 Y75.382 E0.19832
G1 X122.924 Y75.857 E0.10039
G1 X124.142 Y77.075 E0.24802
G1 X125.434 Y78.518 E0.27886
G1 X126.769 Y80.205 E0.30978
G1 X127.756 Y81.616 E0.24794
G1 X128.778 Y83.261 E0.27886
G1 X129.703 Y84.962 E0.27886
G1 X130.527 Y86.715 E0.27886
G1 X131.248 Y88.512 E0.27886
G1 X131.718 Y89.910 E0.21238
G1 X131.925 Y90.555 E0.09740
G1 X132.420 Y92.427 E0.27886
G1 X132.768 Y94.113 E0.24794
G1 X133.055 Y96.028 E0.27886
G1 X133.230 Y97.957 E0.27886
G1 X133.292 Y99.893 E0.27886
G1 X133.240 Y101.863 E0.28383
G1 X133.072 Y103.829 E0.28412
G1 X132.748 Y105.997 E0.31562
G1 X132.387 Y107.714 E0.25262
G1 X131.873 Y109.619 E0.28412
G1 X131.171 Y111.695 E0.31562
G1 X130.511 Y113.321 E0.25262
G1 X129.669 Y115.105 E0.28412
G1 X128.722 Y116.836 E0.28412
G1 X127.674 Y118.508 E0.28412
G1 X126.396 Y120.289 E0.31562
G1 X125.148 Y121.817 E0.28412
G1 X123.831 Y123.249 E0.28007
G1 X122.827 Y124.237 E0.20290
G1 X121.461 Y125.453 E0.26343
G1 X120.918 Y125.901 E0.10131
G1 X119.943 Y126.659 E0.17787
G1 X119.349 Y127.094 E0.10599
G1 X117.802 Y128.135 E0.26839
G1 X116.615 Y128.852 E0.19973
G1 X116.012 Y129.190 E0.09961
G1 X114.908 Y129.770 E0.17957
G1 X113.250 Y130.543 E0.26341
G1 X112.451 Y130.878 E0.12474
G1 X111.450 Y131.263 E0.15444
G1 X110.602 Y131.560 E0.12943
G1 X109.611 Y131.876 E0.14976
G1 X108.819 Y132.104 E0.11865
G1 X107.739 Y132.381 E0.16053
G1 X106.903 Y132.570 E0.12333
G1 X105.733 Y132.796 E0.17161
G1 X103.923 Y133.061 E0.26341
G1 X103.007 Y133.158 E0.13271
G1 X101.992 Y133.234 E0.14648
G1 X100.932 Y133.280 E0.15285
G1 X100.055 Y133.293 E0.12634
G1 X99.068 Y133.280 E0.14208
G1 X98.008 Y133.234 E0.15286
G1 X97.100 Y133.167 E0.13102
G1 X96.185 Y133.074 E0.13241
G1 X95.142 Y132.937 E0.15146
G1 X94.267 Y132.796 E0.12773
G1 X93.097 Y132.570 E0.17160
G1 X92.261 Y132.381 E0.12334
G1 X91.285 Y132.132 E0.14508
G1 X90.389 Y131.876 E0.13411
G1 X89.398 Y131.560 E0.14976
G1 X88.550 Y131.263 E0.12943
G1 X86.850 Y130.587 E0.26341
G1 X85.744 Y130.087 E0.17488
G1 X85.092 Y129.770 E0.10430
G1 X83.894 Y129.139 E0.19503
G1 X82.289 Y128.191 E0.26839
G1 X81.643 Y127.775 E0.11068
G1 X80.651 Y127.094 E0.17319
G1 X80.057 Y126.659 E0.10600
G1 X78.623 Y125.524 E0.26341
G1 X77.586 Y124.618 E0.19831
G1 X77.076 Y124.143 E0.10039
G1 X75.858 Y122.925 E0.24802
G1 X74.566 Y121.482 E0.27886
G1 X73.231 Y119.795 E0.30978
G1 X72.244 Y118.384 E0.24794
G1 X71.222 Y116.739 E0.27886
G1 X70.297 Y115.038 E0.27886
G1 X69.473 Y113.285 E0.27886
G1 X68.752 Y111.488 E0.27886
G1 X68.137 Y109.651 E0.27886
G1 X67.580 Y107.573 E0.30978
G1 X67.232 Y105.887 E0.24794
G1 X66.945 Y103.972 E0.27886
G1 X66.770 Y102.043 E0.27886
G1 X66.708 Y100.107 E0.27886
G1 X66.760 Y98.137 E0.28383
G1 X66.928 Y96.171 E0.28412
G1 X67.252 Y94.003 E0.31562
G1 X67.665 Y92.074 E0.28412
G1 X68.127 Y90.381 E0.25262
G1 X68.829 Y88.305 E0.31562
G1 X69.489 Y86.679 E0.25262
G1 X70.331 Y84.895 E0.28412
G1 X71.278 Y83.164 E0.28412
G1 X72.326 Y81.492 E0.28412
G1 X73.604 Y79.711 E0.31562
G1 X74.852 Y78.183 E0.28412
G1 X76.117 Y76.805 E0.26927
G1 E-3.50000 F2400.00000
G1 X102.411 Y126.326 F9000.000
G1 E3.50000 F2400.00000
G1 F900
G1 X102.006 Y126.884 E0.09933
G1 X101.474 Y127.323 E0.09933
G1 X100.850 Y127.617 E0.09933
G1 X100.173 Y127.746 E0.09932
G1 X99.484 Y127.703 E0.09932
G1 X98.828 Y127.490 E0.09933
G1 X98.246 Y127.120 E0.09932
G1 X97.774 Y126.617 E0.09933
G1 X97.441 Y126.013 E0.09933
G1 X97.267 Y125.335 E0.10073
G1 X97.280 Y124.615 E0.10372
G1 X97.441 Y123.987 E0.09340
G1 X97.774 Y123.383 E0.09933
G1 X98.246 Y122.880 E0.09932
G1 X98.828 Y122.510 E0.09932
G1 X99.484 Y122.297 E0.09933
G1 F900
G1 X100.132 Y122.256 E0.09340
G1 X100.842 Y122.379 E0.10371
G1 X101.474 Y122.677 E0.10073
G1 X102.006 Y123.116 E0.09933
G1 X102.411 Y123.674 E0.09933
G1 X102.665 Y124.316 E0.09932
G1 X102.752 Y125.000 E0.09933
G1 X102.665 Y125.684 E0.09933
G1 X102.439 Y126.256 E0.08852
G1 X101.800 Y125.989 F9000.000
G1 F900
G1 X101.497 Y126.406 E0.07412
G1 X101.100 Y126.734 E0.07412
G1 X100.635 Y126.953 E0.07412
G1 X100.129 Y127.050 E0.07412
G1 X99.615 Y127.017 E0.07412
G1 X99.126 Y126.858 E0.07412
G1 X98.691 Y126.582 E0.07412
G1 X98.339 Y126.207 E0.07412
G1 X98.091 Y125.756 E0.07412
G1 X97.962 Y125.254 E0.07464
G1 X97.971 Y124.709 E0.07851
G1 X98.091 Y124.244 E0.06909
G1 X98.339 Y123.793 E0.07412
G1 X98.691 Y123.418 E0.07412
G1 X99.126 Y123.142 E0.07412
G1 X99.615 Y122.983 E0.07412
G1 F900
G1 X100.094 Y122.953 E0.06909
G1 X100.631 Y123.045 E0.07851
G1 X101.100 Y123.266 E0.07464
G1 X101.497 Y123.594 E0.07412
G1 X101.800 Y124.011 E0.07412
G1 X101.989 Y124.489 E0.07412
G1 X102.054 Y125.000 E0.07412
G1 X101.989 Y125.511 E0.07412
G1 X101.827 Y125.920 E0.06332
G1 X101.800 Y125.989 F9000.000
G1 E-3.50000 F2400.00000
G1 X74.652 Y96.169 F9000.000
G1 E3.50000 F2400.00000
G1 F900
G1 X77.006 Y98.116 E0.43987
G1 X77.411 Y98.674 E0.09932
G1 X77.665 Y99.316 E0.09932
G1 X77.752 Y100.000 E0.09933
G1 X77.665 Y100.684 E0.09933
G1 X77.411 Y101.326 E0.09932
G1 X77.006 Y101.884 E0.09932
G1 X76.474 Y102.323 E0.09932
G1 X75.850 Y102.617 E0.09932
G1 X75.173 Y102.746 E0.09933
G1 X74.484 Y102.703 E0.09932
G1 X73.828 Y102.490 E0.09932
G1 X73.246 Y102.120 E0.09933
G1 X72.774 Y101.617 E0.09933
G1 X72.441 Y101.013 E0.09933
G1 X72.267 Y100.335 E0.10073
G1 X72.280 Y99.615 E0.10372
G1 X72.441 Y98.987 E0.09340
G1 X72.774 Y98.383 E0.09933
G1 X73.246 Y97.880 E0.09932
G1 X73.837 Y97.505 E0.10073
G1 X74.652 Y97.256 E0.12281
G1 X74.652 Y96.244 E0.14566
G1 X75.345 Y97.641 F9000.000
G1 F900
G1 X76.497 Y98.594 E0.21530
G1 X76.800 Y99.011 E0.07412
G1 X76.989 Y99.489 E0.07412
G1 X77.054 Y100.000 E0.07412
G1 X76.989 Y100.511 E0.07412
G1 X76.800 Y100.989 E0.07412
G1 X76.497 Y101.406 E0.07412
G1 X76.100 Y101.734 E0.07412
G1 X75.635 Y101.953 E0.07412
G1 X75.129 Y102.050 E0.07412
G1 X74.615 Y102.017 E0.07412
G1 X74.126 Y101.858 E0.07412
G1 X73.691 Y101.582 E0.07412
G1 X73.339 Y101.207 E0.07412
G1 X73.091 Y100.756 E0.07412
G1 X72.962 Y100.254 E0.07464
G1 X72.971 Y99.709 E0.07851
G1 X73.091 Y99.244 E0.06909
G1 X73.339 Y98.793 E0.07412
G1 X73.691 Y98.418 E0.07412
G1 X74.129 Y98.140 E0.07464
G1 X74.650 Y97.981 E0.07851
G1 X75.345 Y97.937 E0.10025
G1 X75.345 Y97.716 E0.03179
G1 X75.715 Y97.305 F9000.000
G1 X97.774 Y76.617 F9000.000
G1 F900
G1 X97.441 Y76.013 E0.09933
G1 X97.270 Y75.345 E0.09932
G1 X97.270 Y74.655 E0.09932
G1 X97.431 Y74.027 E0.09340
G1 X97.767 Y73.390 E0.10372
G1 X98.246 Y72.880 E0.10073
G1 X98.828 Y72.510 E0.09933
G1 X99.484 Y72.297 E0.09933
G1 F900
G1 X100.132 Y72.256 E0.09340
G1 X100.842 Y72.379 E0.10371
G1 X101.474 Y72.677 E0.10073
G1 X102.006 Y73.116 E0.09933
G1 X102.411 Y73.674 E0.09933
G1 X102.665 Y74.316 E0.09932
G1 X102.752 Y75.000 E0.09933
G1 X102.555 Y76.559 E0.22633
G1 X102.242 Y76.559 E0.04510
G1 X102.006 Y76.884 E0.05773
G1 X101.474 Y77.323 E0.09933
G1 X100.850 Y77.617 E0.09933
G1 X100.173 Y77.746 E0.09932
G1 X99.484 Y77.703 E0.09932
G1 X98.828 Y77.490 E0.09933
G1 X98.246 Y77.120 E0.09932
G1 X97.825 Y76.672 E0.08852
G1 X98.339 Y76.207 F9000.000
G1 F900
G1 X98.091 Y75.756 E0.07412
G1 X97.963 Y75.257 E0.07412
G1 X97.963 Y74.743 E0.07412
G1 X98.082 Y74.278 E0.06909
G1 X98.336 Y73.796 E0.07851
G1 X98.691 Y73.418 E0.07464
G1 X99.126 Y73.142 E0.07412
G1 X99.615 Y72.983 E0.07412
G1 F900
G1 X100.094 Y72.953 E0.06909
G1 X100.631 Y73.045 E0.07851
G1 X101.100 Y73.266 E0.07464
G1 X101.497 Y73.594 E0.07412
G1 X101.800 Y74.011 E0.07412
G1 X101.989 Y74.489 E0.07412
G1 X102.054 Y75.000 E0.07412
G1 X101.944 Y75.867 E0.12579
G1 X101.848 Y75.867 E0.01382
G1 X101.800 Y75.989 E0.01899
G1 X101.497 Y76.406 E0.07412
G1 X101.100 Y76.734 E0.07412
G1 X100.635 Y76.953 E0.07412
G1 X100.129 Y77.050 E0.07412
G1 X99.615 Y77.017 E0.07412
G1 X99.126 Y76.858 E0.07412
G1 X98.691 Y76.582 E0.07412
G1 X98.390 Y76.262 E0.06332
G1 X98.339 Y76.207 F9000.000
G1 X122.774 Y98.383 F9000.000
G1 F900
G1 X123.246 Y97.880 E0.09932
G1 X123.837 Y97.505 E0.10073
G1 X124.525 Y97.294 E0.10372
G1 F900
G1 X125.173 Y97.254 E0.09340
G1 X125.850 Y97.383 E0.09932
G1 X126.474 Y97.677 E0.09932
G1 X127.006 Y98.116 E0.09933
G1 X127.411 Y98.674 E0.09932
G1 X127.665 Y99.316 E0.09932
G1 X127.752 Y100.000 E0.09932
G1 X127.665 Y100.684 E0.09932
G1 X127.411 Y101.326 E0.09932
G1 X127.000 Y101.892 E0.10073
G1 X126.437 Y102.341 E0.10372
G1 X125.850 Y102.617 E0.09340
G1 X125.173 Y102.746 E0.09933
G1 X124.484 Y102.703 E0.09933
G1 X123.828 Y102.490 E0.09932
G1 X123.246 Y102.120 E0.09933
G1 X122.774 Y101.617 E0.09932
G1 X122.461 Y101.049 E0.09340
G1 X122.267 Y100.345 E0.10512
G1 X122.280 Y99.615 E0.10513
G1 X122.441 Y98.987 E0.09340
G1 X122.738 Y98.448 E0.08852
G1 X123.339 Y98.793 F9000.000
G1 F900
G1 X123.691 Y98.418 E0.07412
G1 X124.129 Y98.140 E0.07464
G1 X124.650 Y97.981 E0.07851
G1 F900
G1 X125.129 Y97.950 E0.06909
G1 X125.635 Y98.047 E0.07412
G1 X126.100 Y98.266 E0.07412
G1 X126.497 Y98.594 E0.07412
G1 X126.800 Y99.011 E0.07412
G1 X126.989 Y99.489 E0.07412
G1 X127.054 Y100.000 E0.07412
G1 X126.989 Y100.511 E0.07412
G1 X126.800 Y100.989 E0.07412
G1 X126.495 Y101.409 E0.07464
G1 X126.069 Y101.749 E0.07851
G1 X125.635 Y101.953 E0.06909
G1 X125.129 Y102.050 E0.07412
G1 X124.615 Y102.017 E0.07412
G1 X124.126 Y101.858 E0.07412
G1 X123.691 Y101.582 E0.07412
G1 X123.339 Y101.207 E0.07412
G1 X123.107 Y100.787 E0.06909
G1 X122.962 Y100.258 E0.07903
G1 X122.971 Y99.709 E0.07903
G1 X123.091 Y99.244 E0.06909
G1 X123.302 Y98.859 E0.06332
G1 X123.339 Y98.793 F9000.000
G1 E-3.50000 F2400.00000
G1 X128.469 Y98.644 F9000.000
G1 E3.50000 F2400.00000
G1 F900
G1 X128.508 Y100.000 E0.19534
G1 X128.458 Y101.689 E0.24334
G1 X128.308 Y103.372 E0.24329
G1 X128.058 Y105.043 E0.24329
G1 X127.710 Y106.696 E0.24329
G1 X127.265 Y108.326 E0.24329
G1 X126.724 Y109.927 E0.24329
G1 X126.089 Y111.492 E0.24329
G1 X125.362 Y113.018 E0.24329
G1 X124.547 Y114.497 E0.24329
G1 X123.645 Y115.926 E0.24329
G1 X122.660 Y117.299 E0.24329
G1 X121.595 Y118.611 E0.24329
G1 X120.452 Y119.861 E0.24392
G1 X119.566 Y120.734 E0.17909
G1 X118.324 Y121.839 E0.23934
G1 X117.015 Y122.874 E0.24038
G1 X116.625 Y123.159 E0.06951
G1 X115.669 Y123.816 E0.16701
G1 X114.254 Y124.689 E0.23947
G1 X112.794 Y125.476 E0.23878
G1 X111.291 Y126.177 E0.23878
G1 X109.750 Y126.789 E0.23878
G1 X108.176 Y127.310 E0.23878
G1 X106.566 Y127.742 E0.24008
G1 X105.874 Y127.897 E0.10201
G1 X104.957 Y128.074 E0.13451
G1 X103.310 Y128.315 E0.23978
G1 X101.649 Y128.461 E0.23995
G1 X100.845 Y128.496 E0.11594
G1 X100.000 Y128.508 E0.12171
G1 X98.350 Y128.461 E0.23762
G1 X96.690 Y128.315 E0.23995
G1 X95.043 Y128.074 E0.23978
G1 X94.126 Y127.897 E0.13451
G1 X93.434 Y127.742 E0.10201
G1 X91.824 Y127.310 E0.24008
G1 X90.244 Y126.787 E0.23965
G1 X88.718 Y126.181 E0.23650
G1 X87.206 Y125.476 E0.24021
G1 X85.746 Y124.689 E0.23878
G1 X84.335 Y123.818 E0.23878
G1 X82.973 Y122.865 E0.23943
G1 X82.041 Y122.140 E0.16997
G1 X80.756 Y121.033 E0.24425
G1 X79.264 Y119.563 E0.30152
G1 X78.162 Y118.325 E0.23879
G1 X77.133 Y117.024 E0.23879
G1 X76.182 Y115.665 E0.23879
G1 X75.311 Y114.254 E0.23879
G1 X74.524 Y112.794 E0.23879
G1 X73.823 Y111.291 E0.23879
G1 X73.211 Y109.750 E0.23879
G1 X72.690 Y108.176 E0.23879
G1 X72.260 Y106.574 E0.23879
G1 X71.925 Y104.950 E0.23879
G1 X71.685 Y103.310 E0.23879
G1 X71.540 Y101.658 E0.23879
G1 X71.492 Y100.000 E0.23874
G1 X71.542 Y98.311 E0.24334
G1 X71.692 Y96.628 E0.24329
G1 X71.942 Y94.957 E0.24329
G1 X72.290 Y93.304 E0.24329
G1 X72.735 Y91.674 E0.24329
G1 X73.276 Y90.073 E0.24329
G1 X73.911 Y88.508 E0.24329
G1 X74.638 Y86.982 E0.24329
G1 X75.453 Y85.503 E0.24329
G1 X76.355 Y84.074 E0.24329
G1 X77.340 Y82.701 E0.24329
G1 X78.405 Y81.389 E0.24329
G1 X79.548 Y80.139 E0.24392
G1 X80.434 Y79.266 E0.17909
G1 X81.676 Y78.161 E0.23934
G1 X82.976 Y77.133 E0.23878
G1 X84.335 Y76.182 E0.23878
G1 X85.746 Y75.311 E0.23878
G1 X87.206 Y74.524 E0.23878
G1 X88.718 Y73.819 E0.24021
G1 X89.282 Y73.583 E0.08808
G1 X90.244 Y73.213 E0.14844
G1 X91.824 Y72.690 E0.23965
G1 X93.426 Y72.260 E0.23878
G1 X95.050 Y71.925 E0.23878
G1 X96.699 Y71.683 E0.23999
G1 X97.468 Y71.604 E0.11130
G1 X99.151 Y71.504 E0.24289
G1 X100.223 Y71.495 E0.15426
G1 X101.656 Y71.540 E0.20653
G1 F900
G1 X103.310 Y71.685 E0.23896
G1 X104.957 Y71.926 E0.23978
G1 X106.566 Y72.258 E0.23650
G1 X108.176 Y72.690 E0.24008
G1 X109.750 Y73.211 E0.23878
G1 X111.291 Y73.823 E0.23878
G1 X112.794 Y74.524 E0.23878
G1 X114.254 Y75.311 E0.23878
G1 X115.669 Y76.184 E0.23947
G1 X116.625 Y76.841 E0.16701
G1 X117.015 Y77.126 E0.06951
G1 X118.324 Y78.161 E0.24038
G1 X119.563 Y79.264 E0.23876
G1 X120.736 Y80.437 E0.23886
G1 X121.838 Y81.675 E0.23879
G1 X122.867 Y82.976 E0.23879
G1 X123.818 Y84.335 E0.23879
G1 X124.689 Y85.746 E0.23879
G1 X125.476 Y87.206 E0.23879
G1 X126.177 Y88.709 E0.23879
G1 X126.789 Y90.250 E0.23879
G1 X127.310 Y91.824 E0.23879
G1 X127.740 Y93.426 E0.23879
G1 X128.075 Y95.050 E0.23879
G1 X128.315 Y96.690 E0.23879
G1 X128.466 Y98.569 E0.27134
G1 X129.161 Y98.624 F9000.000
G1 F900
G1 X129.201 Y100.000 E0.19827
G1 X129.150 Y101.730 E0.24922
G1 X128.996 Y103.454 E0.24921
G1 X128.741 Y105.165 E0.24921
G1 X128.384 Y106.859 E0.24920
G1 X127.928 Y108.528 E0.24921
G1 X127.374 Y110.168 E0.24920
G1 X126.723 Y111.772 E0.24921
G1 X125.979 Y113.334 E0.24920
G1 X125.143 Y114.850 E0.24920
G1 X124.219 Y116.313 E0.24921
G1 X123.211 Y117.719 E0.24921
G1 X122.120 Y119.063 E0.24921
G1 X120.951 Y120.341 E0.24945
G1 X120.040 Y121.239 E0.18421
G1 X118.770 Y122.369 E0.24479
G1 X117.434 Y123.426 E0.24517
G1 X117.026 Y123.724 E0.07285
G1 X116.047 Y124.396 E0.17093
G1 X114.600 Y125.289 E0.24484
G1 X113.105 Y126.095 E0.24459
G1 X111.566 Y126.813 E0.24459
G1 X109.987 Y127.440 E0.24459
G1 X108.375 Y127.974 E0.24459
G1 X106.731 Y128.415 E0.24506
G1 X106.016 Y128.575 E0.10554
G1 X105.073 Y128.757 E0.13823
G1 X103.390 Y129.004 E0.24495
G1 X101.695 Y129.152 E0.24501
G1 X100.865 Y129.188 E0.11955
G1 X100.000 Y129.201 E0.12463
G1 X98.305 Y129.152 E0.24416
G1 X96.610 Y129.004 E0.24502
G1 X94.927 Y128.757 E0.24495
G1 X93.984 Y128.575 E0.13823
G1 X93.269 Y128.415 E0.10554
G1 X91.625 Y127.974 E0.24506
G1 X90.011 Y127.439 E0.24490
G1 X88.438 Y126.814 E0.24375
G1 X86.895 Y126.095 E0.24511
G1 X85.400 Y125.289 E0.24459
G1 X83.954 Y124.397 E0.24459
G1 X82.561 Y123.422 E0.24482
