; generated by Slic3r 1.3.0-dev on 2016-03-30 at 15:00:02

; external perimeters extrusion width = 0.50mm
; perimeters extrusion width = 0.50mm
; infill extrusion width = 0.50mm
; solid infill extrusion width = 0.50mm
; top infill extrusion width = 0.50mm

M107
M190 S100 ; set bed temperature and wait for it to be reached
M104 S210 ; set temperature
G28                                                        ; Home all axes
M83                                                       ; Set extruder to relative mode
T0                                                          ; Turn tool on
G1 E5 F1980                                         ; Prime the extruder
M300 S4100 P100                                ; Play a tone
M84 S0                                                  ; Keep motors on


M109 S210 ; set temperature and wait for it to be reached
G21 ; set units to millimeters
G90 ; use absolute coordinates
M83 ; use relative distances for extrusion
G1 E-4.00000 F1980.00000
G1 Z0.350 F4200.000
G1 X12.112 Y18.176 F4200.000
G1 E4.00000 F1980.00000
G1 F300
G1 X11.952 Y18.535 E0.04146
G1 X11.502 Y19.417 E0.10445
G1 X11.308 Y19.754 E0.04101
G1 X10.769 Y20.584 E0.10441
G1 X10.540 Y20.899 E0.04106
G1 X9.917 Y21.667 E0.10434
G1 X9.657 Y21.957 E0.04112
G1 X8.957 Y22.657 E0.10433
G1 X8.667 Y22.917 E0.04112
G1 X7.899 Y23.540 E0.10434
G1 X7.584 Y23.769 E0.04106
G1 X6.754 Y24.308 E0.10441
G1 X6.416 Y24.503 E0.04113
G1 X5.535 Y24.952 E0.10434
G1 X5.179 Y25.110 E0.04112
G1 X4.256 Y25.465 E0.10428
G1 X3.884 Y25.585 E0.04123
G1 X2.923 Y25.843 E0.10487
G1 X2.543 Y25.923 E0.04102
G1 X1.358 Y26.105 E0.12648
G1 X-0.062 Y26.174 E0.14998
G1 X-1.360 Y26.104 E0.13706
G1 X-2.543 Y25.923 E0.12624
G1 X-2.923 Y25.843 E0.04102
G1 X-3.884 Y25.585 E0.10487
G1 X-4.256 Y25.465 E0.04123
G1 X-5.179 Y25.110 E0.10428
G1 X-5.535 Y24.952 E0.04112
G1 X-6.416 Y24.503 E0.10434
G1 X-6.754 Y24.308 E0.04113
G1 X-7.583 Y23.769 E0.10434
G1 X-7.899 Y23.540 E0.04113
G1 X-8.667 Y22.917 E0.10434
G1 X-8.957 Y22.657 E0.04112
G1 X-9.657 Y21.957 E0.10434
G1 X-9.917 Y21.667 E0.04113
G1 X-10.540 Y20.899 E0.10434
G1 X-10.769 Y20.583 E0.04113
G1 X-11.308 Y19.754 E0.10434
G1 X-11.502 Y19.417 E0.04102
G1 X-11.952 Y18.535 E0.10445
G1 X-12.110 Y18.179 E0.04105
G1 X-12.465 Y17.255 E0.10441
G1 X-12.585 Y16.884 E0.04113
G1 X-12.841 Y15.929 E0.10434
G1 X-12.922 Y15.547 E0.04113
G1 X-13.077 Y14.570 E0.10434
G1 X-13.118 Y14.183 E0.04106
G1 X-13.170 Y13.195 E0.10440
G1 X-13.170 Y12.806 E0.04106
G1 X-13.118 Y11.817 E0.10440
G1 X-13.077 Y11.430 E0.04113
G1 X-12.922 Y10.453 E0.10434
G1 X-12.841 Y10.071 E0.04113
G1 X-12.585 Y9.116 E0.10434
G1 X-12.465 Y8.745 E0.04109
G1 X-12.110 Y7.821 E0.10437
G1 X-11.952 Y7.465 E0.04113
G1 X-11.503 Y6.584 E0.10434
G1 X-11.308 Y6.247 E0.04109
G1 X-10.769 Y5.417 E0.10437
G1 X-10.540 Y5.101 E0.04113
G1 X-9.917 Y4.332 E0.10436
G1 X-9.657 Y4.043 E0.04111
G1 X-8.959 Y3.346 E0.10400
G1 X-8.668 Y3.083 E0.04142
G1 X-7.899 Y2.460 E0.10438
G1 X-7.583 Y2.231 E0.04112
G1 X-6.753 Y1.692 E0.10437
G1 X-6.416 Y1.497 E0.04109
G1 X-5.535 Y1.048 E0.10434
G1 X-5.179 Y0.890 E0.04113
G1 X-4.255 Y0.535 E0.10430
G1 X-3.884 Y0.415 E0.04122
G1 X-2.923 Y0.157 E0.10487
G1 X-2.543 Y0.077 E0.04102
G1 X-1.362 Y-0.104 E0.12606
G1 X-0.061 Y-0.174 E0.13738
G1 X1.358 Y-0.105 E0.14984
G1 X2.543 Y0.077 E0.12648
G1 X2.923 Y0.157 E0.04102
G1 X3.884 Y0.415 E0.10487
G1 X4.256 Y0.535 E0.04123
G1 X5.180 Y0.890 E0.10441
G1 X5.534 Y1.048 E0.04094
G1 X6.416 Y1.497 E0.10439
G1 X6.753 Y1.692 E0.04109
G1 X7.583 Y2.231 E0.10437
G1 X7.899 Y2.460 E0.04113
G1 X8.668 Y3.083 E0.10445
G1 X8.957 Y3.343 E0.04101
G1 X9.657 Y4.043 E0.10434
G1 X9.917 Y4.333 E0.04112
G1 X10.540 Y5.101 E0.10434
G1 X10.769 Y5.416 E0.04102
G1 X11.308 Y6.246 E0.10444
G1 X11.503 Y6.584 E0.04113
G1 X11.952 Y7.465 E0.10434
G1 X12.110 Y7.821 E0.04112
G1 X12.465 Y8.745 E0.10434
G1 X12.585 Y9.116 E0.04111
G1 X12.841 Y10.071 E0.10435
G1 X12.922 Y10.453 E0.04113
G1 X13.077 Y11.430 E0.10434
G1 X13.118 Y11.817 E0.04113
G1 X13.170 Y12.805 E0.10434
G1 X13.170 Y13.195 E0.04113
G1 X13.118 Y14.183 E0.10440
G1 X13.077 Y14.570 E0.04106
G1 X12.922 Y15.547 E0.10434
G1 X12.841 Y15.929 E0.04113
G1 X12.585 Y16.884 E0.10434
G1 X12.465 Y17.255 E0.04113
G1 X12.130 Y18.127 E0.09846
G1 E-4.00000 F1980.00000
G1 X2.451 Y9.017 F4200.000
G1 E4.00000 F1980.00000
G1 F450
G1 X2.506 Y9.043 E0.00643
G1 X3.414 Y9.792 E0.12413
G1 X4.105 Y10.743 E0.12404
G1 X4.537 Y11.835 E0.12385
G1 X4.684 Y13.000 E0.12385
G1 X4.537 Y14.165 E0.12385
G1 X4.105 Y15.257 E0.12385
G1 X3.414 Y16.208 E0.12404
G1 X2.506 Y16.957 E0.12413
G1 X1.448 Y17.455 E0.12331
G1 X0.296 Y17.675 E0.12380
G1 X-0.881 Y17.600 E0.12440
G1 X-1.994 Y17.239 E0.12338
G1 X-2.986 Y16.609 E0.12399
G1 X-3.790 Y15.753 E0.12379
G1 X-4.355 Y14.724 E0.12385
G1 X-4.647 Y13.587 E0.12385
G1 X-4.647 Y12.413 E0.12385
G1 X-4.355 Y11.276 E0.12385
G1 X-3.790 Y10.247 E0.12385
G1 X-2.986 Y9.391 E0.12379
G1 X-1.994 Y8.761 E0.12399
G1 X-0.882 Y8.400 E0.12335
G1 F450
G1 X0.280 Y8.325 E0.12275
G1 X1.447 Y8.544 E0.12524
G1 X2.403 Y8.995 E0.11154
G1 X2.115 Y9.660 F4200.000
G1 F450
G1 X2.881 Y10.292 E0.10481
G1 X3.465 Y11.095 E0.10468
G1 X3.829 Y12.017 E0.10453
G1 X3.954 Y13.000 E0.10453
G1 X3.829 Y13.983 E0.10453
G1 X3.465 Y14.905 E0.10453
G1 X2.881 Y15.708 E0.10468
G1 X2.115 Y16.340 E0.10481
G1 X1.223 Y16.760 E0.10404
G1 X0.250 Y16.946 E0.10446
G1 X-0.744 Y16.883 E0.10507
G1 X-1.683 Y16.578 E0.10407
G1 X-2.520 Y16.046 E0.10468
G1 X-3.199 Y15.324 E0.10448
G1 X-3.676 Y14.455 E0.10453
G1 X-3.922 Y13.496 E0.10453
G1 X-3.922 Y12.504 E0.10453
G1 X-3.676 Y11.545 E0.10453
G1 X-3.199 Y10.676 E0.10453
G1 X-2.520 Y9.954 E0.10448
G1 X-1.683 Y9.422 E0.10467
G1 X-0.744 Y9.117 E0.10406
G1 F450
G1 X0.235 Y9.055 E0.10356
G1 X1.222 Y9.240 E0.10589
G1 X2.067 Y9.638 E0.09857
G1 X2.115 Y9.660 F4200.000
G1 X4.489 Y6.004 F4200.000
G1 F450
G1 X4.892 Y6.266 E0.05074
G1 X5.570 Y6.814 E0.09190
G1 X6.186 Y7.430 E0.09190
G1 X6.734 Y8.108 E0.09190
G1 X7.208 Y8.838 E0.09190
G1 X7.604 Y9.615 E0.09190
G1 X7.915 Y10.425 E0.09158
G1 X8.142 Y11.270 E0.09223
G1 X8.278 Y12.130 E0.09188
G1 X8.323 Y13.000 E0.09190
G1 X8.278 Y13.870 E0.09190
G1 X8.142 Y14.728 E0.09158
G1 X7.916 Y15.572 E0.09223
G1 X7.604 Y16.385 E0.09188
G1 X7.208 Y17.162 E0.09190
G1 X6.734 Y17.892 E0.09190
G1 X6.186 Y18.570 E0.09190
G1 X5.570 Y19.186 E0.09190
G1 X4.892 Y19.734 E0.09190
G1 X4.162 Y20.208 E0.09190
G1 X3.385 Y20.604 E0.09190
G1 X2.573 Y20.916 E0.09183
G1 X1.726 Y21.142 E0.09243
G1 X0.871 Y21.278 E0.09138
G1 X0.000 Y21.324 E0.09192
G1 X-0.870 Y21.278 E0.09198
G1 X-1.726 Y21.142 E0.09140
G1 X-2.573 Y20.916 E0.09242
G1 X-3.385 Y20.604 E0.09183
G1 X-4.162 Y20.208 E0.09190
G1 X-4.892 Y19.734 E0.09190
G1 X-5.570 Y19.186 E0.09190
G1 X-6.186 Y18.570 E0.09190
G1 X-6.734 Y17.892 E0.09190
G1 X-7.208 Y17.162 E0.09190
G1 X-7.604 Y16.385 E0.09190
G1 X-7.916 Y15.572 E0.09190
G1 X-8.142 Y14.731 E0.09190
G1 X-8.278 Y13.870 E0.09190
G1 X-8.324 Y13.000 E0.09190
G1 X-8.278 Y12.130 E0.09190
G1 X-8.142 Y11.269 E0.09190
G1 X-7.916 Y10.428 E0.09190
G1 X-7.604 Y9.615 E0.09190
G1 X-7.208 Y8.838 E0.09190
G1 X-6.734 Y8.108 E0.09190
G1 X-6.186 Y7.430 E0.09190
G1 X-5.570 Y6.814 E0.09190
G1 X-4.892 Y6.266 E0.09190
G1 X-4.162 Y5.792 E0.09190
G1 X-3.385 Y5.396 E0.09190
G1 X-2.573 Y5.084 E0.09183
G1 X-1.726 Y4.858 E0.09243
G1 X-0.872 Y4.722 E0.09119
G1 X0.003 Y4.677 E0.09246
G1 X0.871 Y4.722 E0.09164
G1 F450
G1 X1.726 Y4.858 E0.09138
G1 X2.573 Y5.084 E0.09243
G1 X3.385 Y5.396 E0.09183
G1 X4.162 Y5.792 E0.09190
G1 X4.445 Y5.976 E0.03562
G1 X4.884 Y5.396 F4200.000
G1 F450
G1 X5.319 Y5.679 E0.05474
G1 X6.055 Y6.275 E0.09991
G1 X6.725 Y6.945 E0.09991
G1 X7.321 Y7.681 E0.09991
G1 X7.837 Y8.475 E0.09991
G1 X8.267 Y9.319 E0.09991
G1 X8.605 Y10.201 E0.09958
G1 X8.852 Y11.119 E0.10025
G1 X9.000 Y12.054 E0.09991
G1 X9.049 Y13.000 E0.09991
G1 X9.000 Y13.946 E0.09991
G1 X8.852 Y14.878 E0.09959
G1 X8.606 Y15.796 E0.10025
G1 X8.267 Y16.681 E0.09991
G1 X7.837 Y17.525 E0.09991
G1 X7.321 Y18.319 E0.09991
G1 X6.725 Y19.055 E0.09991
G1 X6.055 Y19.725 E0.09991
G1 X5.319 Y20.321 E0.09991
G1 X4.525 Y20.837 E0.09991
G1 X3.681 Y21.267 E0.09991
G1 X2.797 Y21.606 E0.09985
G1 X1.877 Y21.852 E0.10045
G1 X0.946 Y22.000 E0.09938
G1 X0.000 Y22.049 E0.09994
G1 X-0.946 Y22.000 E0.09999
G1 X-1.877 Y21.852 E0.09940
G1 X-2.797 Y21.606 E0.10044
G1 X-3.681 Y21.267 E0.09985
G1 X-4.525 Y20.837 E0.09991
G1 X-5.319 Y20.321 E0.09991
G1 X-6.055 Y19.725 E0.09991
G1 X-6.725 Y19.055 E0.09991
G1 X-7.321 Y18.319 E0.09991
G1 X-7.837 Y17.525 E0.09991
G1 X-8.267 Y16.681 E0.09991
G1 X-8.606 Y15.796 E0.09991
G1 X-8.852 Y14.881 E0.09991
G1 X-9.000 Y13.946 E0.09991
G1 X-9.049 Y13.000 E0.09991
G1 X-9.000 Y12.054 E0.09991
G1 X-8.852 Y11.119 E0.09991
G1 X-8.606 Y10.204 E0.09991
G1 X-8.267 Y9.319 E0.09991
G1 X-7.837 Y8.475 E0.09991
G1 X-7.321 Y7.681 E0.09991
G1 X-6.725 Y6.945 E0.09991
G1 X-6.055 Y6.275 E0.09991
G1 X-5.319 Y5.679 E0.09991
G1 X-4.525 Y5.163 E0.09991
G1 X-3.681 Y4.733 E0.09991
G1 X-2.797 Y4.394 E0.09985
G1 X-1.877 Y4.148 E0.10044
G1 X-0.948 Y4.000 E0.09920
G1 X0.003 Y3.951 E0.10048
G1 X0.946 Y4.000 E0.09965
G1 F450
G1 X1.877 Y4.148 E0.09938
G1 X2.797 Y4.394 E0.10045
G1 X3.681 Y4.733 E0.09985
G1 X4.525 Y5.163 E0.09991
G1 X4.840 Y5.368 E0.03963
G1 X4.874 Y5.746 F4200.000
G1 X4.868 Y6.984 F4200.000
G1 F300
G1 X6.016 Y8.132 E0.17323
G1 X2.414 Y5.567 F4200.000
G1 F300
G1 X7.433 Y10.586 E0.75696
G1 X7.778 Y11.967 E0.15188
G1 X1.032 Y5.222 E1.01743
G1 X-0.104 Y5.122 E0.12165
G1 X7.878 Y13.104 E1.20385
G1 X7.819 Y14.081 E0.10448
G1 X4.766 Y11.028 E0.46049
G1 X5.071 Y12.370 E0.14676
G1 X7.658 Y14.957 E0.39023
G1 X7.420 Y15.756 E0.08884
G1 X5.062 Y13.397 E0.35570
G1 X4.915 Y14.287 E0.09620
G1 X7.115 Y16.487 E0.33182
G1 X6.752 Y17.161 E0.08160
G1 X4.621 Y15.030 E0.32139
G1 X4.254 Y15.700 E0.08144
G1 X6.336 Y17.781 E0.31390
G1 X5.855 Y18.336 E0.07838
G1 X3.818 Y16.300 E0.30718
G1 X3.287 Y16.805 E0.07820
G1 X5.336 Y18.855 E0.30916
G1 X4.781 Y19.336 E0.07838
G1 X2.719 Y17.274 E0.31098
G1 X2.025 Y17.616 E0.08254
G1 X4.161 Y19.752 E0.32212
G1 X3.487 Y20.115 E0.08160
G1 X1.282 Y17.910 E0.33255
G1 X0.412 Y18.077 E0.09450
G1 X2.756 Y20.420 E0.35345
G1 X1.957 Y20.658 E0.08884
G1 X-0.631 Y18.070 E0.39047
G1 X-1.967 Y17.771 E0.14594
G1 X1.082 Y20.819 E0.45978
G1 X0.104 Y20.878 E0.10448
G1 X-7.878 Y12.896 E1.20383
G1 X-7.819 Y11.919 E0.10448
G1 X-4.802 Y14.935 E0.45500
G1 X-5.090 Y13.611 E0.14448
G1 X-7.659 Y11.042 E0.38748
G1 X-7.420 Y10.244 E0.08883
G1 X-5.090 Y12.575 E0.35148
G1 X-4.895 Y11.733 E0.09215
G1 X-7.115 Y9.513 E0.33487
G1 X-6.752 Y8.839 E0.08160
G1 X-4.626 Y10.965 E0.32059
G1 X-4.259 Y10.296 E0.08140
G1 X-6.336 Y8.219 E0.31324
G1 X-5.855 Y7.663 E0.07838
G1 X-3.807 Y9.712 E0.30891
G1 X-3.305 Y9.177 E0.07821
G1 X-5.337 Y7.145 E0.30645
G1 X-4.781 Y6.664 E0.07838
G1 X-2.694 Y8.751 E0.31471
G1 X-2.052 Y8.357 E0.08038
G1 X-4.161 Y6.248 E0.31806
G1 X-3.487 Y5.885 E0.08160
G1 X-1.270 Y8.103 E0.33450
G1 X-0.400 Y7.935 E0.09440
G1 X-2.756 Y5.580 E0.35523
G1 X-1.957 Y5.342 E0.08884
G1 X0.606 Y7.905 E0.38665
G1 X1.933 Y8.196 E0.14494
G1 X-1.082 Y5.181 E0.45476
G1 X-7.778 Y14.033 F4200.000
G1 F300
G1 X-1.033 Y20.778 E1.01743
G1 X-2.414 Y20.433 E0.15190
G1 X-7.433 Y15.414 E0.75696
G1 X-6.016 Y17.868 F4200.000
G1 F300
G1 X-4.868 Y19.016 E0.17322
G1 E-4.00000 F1980.00000
G1 Z0.550 F4200.000
G1 X2.275 Y9.395 F4200.000
G1 E4.00000 F1980.00000
G1 F900
G1 X3.107 Y10.080 E0.04096
G1 X3.736 Y10.946 E0.04069
G1 X4.129 Y11.940 E0.04061
G1 X4.263 Y13.000 E0.04061
G1 X4.129 Y14.060 E0.04061
G1 X3.736 Y15.054 E0.04061
G1 X3.107 Y15.920 E0.04069
G1 X2.275 Y16.605 E0.04096
G1 X1.332 Y17.049 E0.03960
G1 X0.260 Y17.255 E0.04150
G1 X-0.797 Y17.187 E0.04023
G1 X-1.795 Y16.865 E0.03986
G1 X-2.717 Y16.286 E0.04138
G1 X-3.449 Y15.506 E0.04066
G1 X-3.964 Y14.569 E0.04061
G1 X-4.229 Y13.534 E0.04061
G1 X-4.229 Y12.466 E0.04061
G1 X-3.969 Y11.451 E0.03980
G1 X-3.450 Y10.496 E0.04133
G1 X-2.718 Y9.716 E0.04066
G1 X-1.820 Y9.145 E0.04042
G1 X-0.798 Y8.813 E0.04087
G1 F900
G1 X0.244 Y8.746 E0.03968
G1 X1.331 Y8.951 E0.04203
G1 X2.227 Y9.373 E0.03765
G1 X2.028 Y9.784 F4200.000
G1 F900
G1 X2.771 Y10.396 E0.03657
G1 X3.332 Y11.168 E0.03628
G1 X3.683 Y12.054 E0.03622
G1 X3.802 Y13.000 E0.03622
G1 X3.683 Y13.946 E0.03622
G1 X3.332 Y14.832 E0.03623
G1 X2.771 Y15.604 E0.03628
G1 X2.028 Y16.216 E0.03657
G1 X1.189 Y16.610 E0.03524
G1 X0.231 Y16.795 E0.03710
G1 X-0.711 Y16.735 E0.03585
G1 X-1.600 Y16.448 E0.03552
G1 X-2.424 Y15.930 E0.03698
G1 X-3.076 Y15.235 E0.03623
G1 X-3.535 Y14.400 E0.03622
G1 X-3.772 Y13.477 E0.03623
G1 X-3.772 Y12.523 E0.03622
G1 X-3.540 Y11.620 E0.03546
G1 X-3.077 Y10.766 E0.03694
G1 X-2.424 Y10.071 E0.03623
G1 X-1.624 Y9.562 E0.03603
G1 X-0.711 Y9.265 E0.03649
G1 F900
G1 X0.216 Y9.206 E0.03530
G1 X1.189 Y9.389 E0.03763
G1 X1.981 Y9.762 E0.03326
G1 X2.028 Y9.784 F4200.000
G1 X4.712 Y5.651 F4200.000
G1 F900
G1 X5.138 Y5.928 E0.01930
G1 X5.849 Y6.504 E0.03478
G1 X6.496 Y7.151 E0.03478
G1 X7.072 Y7.862 E0.03478
G1 X7.571 Y8.629 E0.03478
G1 X7.986 Y9.444 E0.03478
G1 X8.310 Y10.288 E0.03433
G1 X8.551 Y11.183 E0.03524
G1 X8.694 Y12.086 E0.03476
G1 X8.742 Y13.000 E0.03478
G1 X8.694 Y13.914 E0.03478
G1 X8.553 Y14.806 E0.03433
G1 X8.314 Y15.702 E0.03524
G1 X7.986 Y16.556 E0.03476
G1 X7.571 Y17.371 E0.03478
G1 X7.072 Y18.138 E0.03478
G1 X6.496 Y18.849 E0.03478
G1 X5.849 Y19.496 E0.03478
G1 X5.138 Y20.072 E0.03478
G1 X4.371 Y20.571 E0.03478
G1 X3.556 Y20.986 E0.03478
G1 X2.702 Y21.314 E0.03475
G1 X1.806 Y21.553 E0.03524
G1 X0.916 Y21.694 E0.03427
G1 X0.001 Y21.742 E0.03481
G1 X-0.915 Y21.694 E0.03487
G1 X-1.805 Y21.553 E0.03422
G1 X-2.702 Y21.314 E0.03531
G1 X-3.556 Y20.986 E0.03474
G1 X-4.371 Y20.571 E0.03478
G1 X-5.138 Y20.072 E0.03478
G1 X-5.849 Y19.496 E0.03478
G1 X-6.496 Y18.849 E0.03478
G1 X-7.072 Y18.138 E0.03478
G1 X-7.571 Y17.371 E0.03478
G1 X-7.986 Y16.556 E0.03478
G1 X-8.314 Y15.701 E0.03478
G1 X-8.551 Y14.818 E0.03478
G1 X-8.694 Y13.914 E0.03478
G1 X-8.742 Y13.000 E0.03478
G1 X-8.694 Y12.086 E0.03478
G1 X-8.551 Y11.182 E0.03478
G1 X-8.314 Y10.299 E0.03478
G1 X-7.986 Y9.444 E0.03478
G1 X-7.571 Y8.629 E0.03478
G1 X-7.072 Y7.862 E0.03478
G1 X-6.496 Y7.151 E0.03478
G1 X-5.849 Y6.504 E0.03478
G1 X-5.138 Y5.928 E0.03478
G1 X-4.371 Y5.429 E0.03478
G1 X-3.556 Y5.014 E0.03478
G1 X-2.702 Y4.686 E0.03475
G1 X-1.806 Y4.447 E0.03524
G1 X-0.923 Y4.307 E0.03399
G1 X0.011 Y4.258 E0.03553
G1 X0.916 Y4.306 E0.03444
G1 F900
G1 X1.806 Y4.447 E0.03428
G1 X2.702 Y4.686 E0.03524
G1 X3.556 Y5.014 E0.03475
G1 X4.371 Y5.429 E0.03478
G1 X4.668 Y5.622 E0.01348
G1 X4.961 Y5.268 F4200.000
G1 F900
G1 X5.407 Y5.557 E0.02021
G1 X6.156 Y6.163 E0.03660
G1 X6.837 Y6.844 E0.03660
G1 X7.443 Y7.593 E0.03660
G1 X7.967 Y8.400 E0.03660
G1 X8.404 Y9.258 E0.03660
G1 X8.745 Y10.146 E0.03614
G1 X8.999 Y11.087 E0.03706
G1 X9.149 Y12.038 E0.03659
G1 X9.200 Y13.000 E0.03660
G1 X9.149 Y13.962 E0.03660
G1 X9.000 Y14.901 E0.03614
G1 X8.749 Y15.843 E0.03706
G1 X8.404 Y16.742 E0.03659
G1 X7.967 Y17.600 E0.03660
G1 X7.443 Y18.407 E0.03660
G1 X6.837 Y19.156 E0.03660
G1 X6.156 Y19.837 E0.03660
G1 X5.407 Y20.443 E0.03660
G1 X4.600 Y20.967 E0.03660
G1 X3.742 Y21.404 E0.03660
G1 X2.843 Y21.749 E0.03657
G1 X1.901 Y22.001 E0.03706
G1 X0.964 Y22.149 E0.03608
G1 X0.001 Y22.200 E0.03663
G1 X-0.963 Y22.149 E0.03669
G1 X-1.899 Y22.001 E0.03603
G1 X-2.843 Y21.749 E0.03713
G1 X-3.742 Y21.404 E0.03657
G1 X-4.600 Y20.967 E0.03660
G1 X-5.407 Y20.443 E0.03660
G1 X-6.156 Y19.837 E0.03660
G1 X-6.837 Y19.156 E0.03660
G1 X-7.443 Y18.407 E0.03660
G1 X-7.967 Y17.600 E0.03660
G1 X-8.404 Y16.742 E0.03660
G1 X-8.749 Y15.843 E0.03660
G1 X-8.999 Y14.913 E0.03660
G1 X-9.149 Y13.962 E0.03660
G1 X-9.200 Y13.000 E0.03660
G1 X-9.149 Y12.038 E0.03660
G1 X-8.999 Y11.087 E0.03660
G1 X-8.749 Y10.157 E0.03660
G1 X-8.404 Y9.258 E0.03660
G1 X-7.967 Y8.400 E0.03660
G1 X-7.443 Y7.593 E0.03660
G1 X-6.837 Y6.844 E0.03660
G1 X-6.156 Y6.163 E0.03660
G1 X-5.407 Y5.557 E0.03660
G1 X-4.600 Y5.033 E0.03660
G1 X-3.742 Y4.596 E0.03660
G1 X-2.843 Y4.251 E0.03657
G1 X-1.901 Y3.999 E0.03706
G1 X-0.971 Y3.852 E0.03581
G1 X0.011 Y3.801 E0.03735
G1 X0.963 Y3.851 E0.03626
G1 F900
