; generated by Slic3r 1.3.0-dev on 2016-04-01 at 14:53:26

; external perimeters extrusion width = 0.50mm
; perimeters extrusion width = 0.50mm
; infill extrusion width = 0.50mm
; solid infill extrusion width = 0.50mm
; top infill extrusion width = 0.50mm

M107
M190 S100 ; set bed temperature and wait for it to be reached
M104 S210 ; set temperature
G28                                                        ; Home all axes
M83                                                       ; Set extruder to relative mode
T0                                                          ; Turn tool on
G1 E5 F1980                                         ; Prime the extruder
M300 S4100 P100                                ; Play a tone
M84 S0                                                  ; Keep motors on


M109 S210 ; set temperature and wait for it to be reached
G21 ; set units to millimeters
G90 ; use absolute coordinates
M83 ; use relative distances for extrusion
G1 E-4.00000 F1980.00000
G1 Z0.350 F4200.000
G1 X23.675 Y-21.471 F4200.000
G1 E4.00000 F1980.00000
G1 F300
G1 X23.675 Y47.471 E7.27209
G1 X23.632 Y48.452 E0.10352
G1 X23.599 Y48.804 E0.03739
G1 X23.417 Y49.948 E0.12218
G1 X23.228 Y50.730 E0.08482
G1 X22.865 Y51.830 E0.12218
G1 X22.399 Y52.890 E0.12218
G1 X22.236 Y53.206 E0.03739
G1 X21.643 Y54.200 E0.12218
G1 X20.957 Y55.134 E0.12218
G1 X20.431 Y55.742 E0.08482
G1 X20.085 Y56.094 E0.05206
G1 X19.336 Y56.785 E0.10750
G1 X18.704 Y57.282 E0.08482
G1 X18.415 Y57.488 E0.03739
G1 X17.432 Y58.100 E0.12218
G1 X16.717 Y58.468 E0.08482
G1 X15.648 Y58.914 E0.12218
G1 X14.542 Y59.257 E0.12218
G1 X14.197 Y59.340 E0.03739
G1 X13.057 Y59.543 E0.12218
G1 X11.902 Y59.636 E0.12218
G1 X-11.902 Y59.636 E2.51088
G1 X-13.057 Y59.543 E0.12218
G1 X-14.197 Y59.340 E0.12218
G1 X-15.313 Y59.030 E0.12218
G1 X-15.648 Y58.914 E0.03739
G1 X-16.717 Y58.468 E0.12218
G1 X-17.739 Y57.923 E0.12218
G1 X-18.704 Y57.282 E0.12218
G1 X-19.336 Y56.785 E0.08482
G1 X-19.705 Y56.457 E0.05206
G1 X-20.431 Y55.742 E0.10750
G1 X-21.176 Y54.855 E0.12218
G1 X-21.643 Y54.200 E0.08482
G1 X-22.236 Y53.206 E0.12218
G1 X-22.733 Y52.159 E0.12218
G1 X-22.865 Y51.830 E0.03739
G1 X-23.228 Y50.730 E0.12218
G1 X-23.417 Y49.948 E0.08482
G1 X-23.504 Y49.463 E0.05205
G1 X-23.632 Y48.452 E0.10751
G1 X-23.675 Y47.471 E0.10352
G1 X-23.675 Y-21.471 E7.27209
G1 X-23.632 Y-22.452 E0.10352
G1 X-23.599 Y-22.804 E0.03739
G1 X-23.417 Y-23.948 E0.12218
G1 X-23.228 Y-24.730 E0.08483
G1 X-22.865 Y-25.830 E0.12218
G1 X-22.399 Y-26.890 E0.12218
G1 X-22.236 Y-27.206 E0.03739
G1 X-21.643 Y-28.200 E0.12218
G1 X-20.957 Y-29.134 E0.12218
G1 X-20.431 Y-29.742 E0.08482
G1 X-20.085 Y-30.094 E0.05206
G1 X-19.336 Y-30.785 E0.10750
G1 X-18.704 Y-31.282 E0.08482
G1 X-17.739 Y-31.923 E0.12218
G1 X-17.308 Y-32.164 E0.05206
G1 X-16.395 Y-32.616 E0.10750
G1 X-15.313 Y-33.030 E0.12219
G1 X-14.542 Y-33.257 E0.08482
G1 X-13.407 Y-33.493 E0.12218
G1 X-12.395 Y-33.606 E0.10751
G1 X-11.902 Y-33.636 E0.05205
G1 X11.902 Y-33.636 E2.51088
G1 X13.057 Y-33.543 E0.12218
G1 X14.197 Y-33.340 E0.12218
G1 X15.313 Y-33.030 E0.12218
G1 X16.395 Y-32.616 E0.12219
G1 X16.841 Y-32.405 E0.05205
G1 X17.739 Y-31.923 E0.10751
G1 X18.704 Y-31.282 E0.12218
G1 X19.604 Y-30.553 E0.12218
G1 X20.431 Y-29.742 E0.12218
G1 X21.176 Y-28.855 E0.12218
G1 X21.834 Y-27.902 E0.12218
G1 X22.399 Y-26.890 E0.12218
G1 X22.865 Y-25.830 E0.12218
G1 X23.228 Y-24.730 E0.12218
G1 X23.484 Y-23.600 E0.12218
G1 X23.632 Y-22.452 E0.12218
G1 X23.674 Y-21.524 E0.09798
G1 E-4.00000 F1980.00000
G1 X-10.052 Y-25.926 F4200.000
G1 E4.00000 F1980.00000
G1 F450
G1 X-8.990 Y-25.426 E0.12385
G1 X-8.085 Y-24.678 E0.12385
G1 X-7.395 Y-23.728 E0.12385
G1 X-6.963 Y-22.636 E0.12385
G1 X-6.816 Y-21.471 E0.12385
G1 X-6.963 Y-20.306 E0.12385
G1 X-7.395 Y-19.214 E0.12385
G1 X-8.085 Y-18.265 E0.12385
G1 X-8.990 Y-17.516 E0.12385
G1 X-10.052 Y-17.016 E0.12385
G1 X-11.206 Y-16.796 E0.12385
G1 X-12.378 Y-16.870 E0.12385
G1 X-13.494 Y-17.233 E0.12385
G1 X-14.486 Y-17.862 E0.12385
G1 X-15.290 Y-18.718 E0.12385
G1 X-15.855 Y-19.747 E0.12385
G1 X-16.147 Y-20.884 E0.12385
G1 X-16.147 Y-22.058 E0.12385
G1 X-15.855 Y-23.196 E0.12385
G1 X-15.290 Y-24.224 E0.12385
G1 X-14.486 Y-25.080 E0.12385
G1 X-13.491 Y-25.712 E0.12427
G1 X-12.348 Y-26.074 E0.12646
G1 F450
G1 X-11.206 Y-26.146 E0.12074
G1 X-10.104 Y-25.936 E0.11832
G1 X-10.278 Y-25.231 F4200.000
G1 F450
G1 X-9.382 Y-24.809 E0.10453
G1 X-8.618 Y-24.178 E0.10453
G1 X-8.035 Y-23.376 E0.10453
G1 X-7.671 Y-22.454 E0.10453
G1 X-7.546 Y-21.471 E0.10453
G1 X-7.671 Y-20.488 E0.10453
G1 X-8.035 Y-19.566 E0.10453
G1 X-8.618 Y-18.765 E0.10453
G1 X-9.382 Y-18.133 E0.10453
G1 X-10.278 Y-17.711 E0.10453
G1 X-11.252 Y-17.525 E0.10453
G1 X-12.241 Y-17.588 E0.10453
G1 X-13.183 Y-17.894 E0.10453
G1 X-14.020 Y-18.425 E0.10453
G1 X-14.699 Y-19.147 E0.10453
G1 X-15.176 Y-20.016 E0.10453
G1 X-15.422 Y-20.976 E0.10453
G1 X-15.422 Y-21.967 E0.10453
G1 X-15.176 Y-22.927 E0.10453
G1 X-14.699 Y-23.795 E0.10453
G1 X-14.020 Y-24.517 E0.10453
G1 X-13.182 Y-25.049 E0.10468
G1 X-12.214 Y-25.356 E0.10714
G1 F450
G1 X-11.252 Y-25.417 E0.10170
G1 X-10.330 Y-25.241 E0.09900
G1 X-10.278 Y-25.231 F4200.000
G1 X-9.331 Y-28.458 F4200.000
G1 F450
G1 X-9.105 Y-28.392 E0.02485
G1 X-8.458 Y-28.133 E0.07352
G1 X-7.838 Y-27.814 E0.07352
G1 X-7.252 Y-27.437 E0.07352
G1 X-6.704 Y-27.006 E0.07352
G1 X-6.200 Y-26.525 E0.07352
G1 X-5.743 Y-25.998 E0.07352
G1 X-5.339 Y-25.431 E0.07352
G1 X-4.990 Y-24.827 E0.07352
G1 X-4.701 Y-24.193 E0.07352
G1 X-4.473 Y-23.534 E0.07352
G1 X-4.309 Y-22.857 E0.07352
G1 X-4.209 Y-22.167 E0.07352
G1 X-4.176 Y-21.471 E0.07352
G1 X-4.209 Y-20.775 E0.07352
G1 X-4.309 Y-20.085 E0.07352
G1 X-4.473 Y-19.408 E0.07352
G1 X-4.701 Y-18.749 E0.07352
G1 X-4.990 Y-18.115 E0.07352
G1 X-5.339 Y-17.512 E0.07352
G1 X-5.743 Y-16.944 E0.07352
G1 X-6.200 Y-16.417 E0.07352
G1 X-6.704 Y-15.936 E0.07352
G1 X-7.149 Y-15.586 E0.05967
G1 X-7.845 Y-15.125 E0.08814
G1 X-8.458 Y-14.809 E0.07268
G1 X-9.105 Y-14.550 E0.07352
G1 X-9.773 Y-14.354 E0.07352
G1 X-10.458 Y-14.222 E0.07352
G1 X-11.152 Y-14.156 E0.07352
G1 X-11.848 Y-14.156 E0.07352
G1 X-12.542 Y-14.222 E0.07352
G1 X-13.227 Y-14.354 E0.07352
G1 X-13.895 Y-14.550 E0.07352
G1 X-14.542 Y-14.809 E0.07352
G1 X-15.162 Y-15.129 E0.07352
G1 X-15.748 Y-15.505 E0.07352
G1 X-16.296 Y-15.936 E0.07352
G1 X-16.800 Y-16.417 E0.07352
G1 X-17.257 Y-16.944 E0.07352
G1 X-17.661 Y-17.512 E0.07352
G1 X-18.010 Y-18.115 E0.07352
G1 X-18.299 Y-18.749 E0.07352
G1 X-18.527 Y-19.408 E0.07352
G1 X-18.691 Y-20.085 E0.07352
G1 X-18.791 Y-20.775 E0.07352
G1 X-18.824 Y-21.471 E0.07352
G1 X-18.791 Y-22.167 E0.07352
G1 X-18.691 Y-22.857 E0.07352
G1 X-18.527 Y-23.534 E0.07352
G1 X-18.299 Y-24.193 E0.07352
G1 X-18.010 Y-24.827 E0.07352
G1 X-17.661 Y-25.431 E0.07352
G1 X-17.257 Y-25.998 E0.07352
G1 X-16.800 Y-26.525 E0.07352
G1 X-16.296 Y-27.006 E0.07352
G1 X-15.748 Y-27.437 E0.07352
G1 X-15.162 Y-27.814 E0.07352
G1 X-14.542 Y-28.133 E0.07352
G1 X-13.895 Y-28.392 E0.07352
G1 X-13.227 Y-28.588 E0.07352
G1 X-12.542 Y-28.720 E0.07352
G1 X-11.848 Y-28.787 E0.07352
G1 X-11.152 Y-28.787 E0.07352
G1 X-10.537 Y-28.728 E0.06516
G1 F450
G1 X-9.768 Y-28.587 E0.08237
G1 X-9.381 Y-28.473 E0.04259
G1 X-9.126 Y-29.154 F4200.000
G1 F450
G1 X-8.867 Y-29.078 E0.02849
G1 X-8.156 Y-28.793 E0.08080
G1 X-7.475 Y-28.442 E0.08080
G1 X-6.831 Y-28.028 E0.08080
G1 X-6.229 Y-27.555 E0.08080
G1 X-5.674 Y-27.026 E0.08080
G1 X-5.173 Y-26.447 E0.08080
G1 X-4.728 Y-25.823 E0.08080
G1 X-4.345 Y-25.160 E0.08080
G1 X-4.027 Y-24.463 E0.08080
G1 X-3.777 Y-23.739 E0.08080
G1 X-3.596 Y-22.994 E0.08080
G1 X-3.487 Y-22.236 E0.08080
G1 X-3.451 Y-21.471 E0.08080
G1 X-3.487 Y-20.706 E0.08080
G1 X-3.596 Y-19.948 E0.08080
G1 X-3.777 Y-19.203 E0.08080
G1 X-4.027 Y-18.479 E0.08080
G1 X-4.345 Y-17.783 E0.08080
G1 X-4.728 Y-17.119 E0.08080
G1 X-5.173 Y-16.495 E0.08080
G1 X-5.674 Y-15.916 E0.08080
G1 X-6.229 Y-15.388 E0.08080
G1 X-6.724 Y-14.998 E0.06642
G1 X-7.478 Y-14.499 E0.09542
G1 X-8.156 Y-14.149 E0.08050
G1 X-8.867 Y-13.864 E0.08080
G1 X-9.602 Y-13.649 E0.08080
G1 X-10.354 Y-13.504 E0.08080
G1 X-11.117 Y-13.431 E0.08080
G1 X-11.883 Y-13.431 E0.08080
G1 X-12.646 Y-13.504 E0.08080
G1 X-13.398 Y-13.649 E0.08080
G1 X-14.133 Y-13.864 E0.08080
G1 X-14.844 Y-14.149 E0.08080
G1 X-15.525 Y-14.500 E0.08080
G1 X-16.169 Y-14.914 E0.08080
G1 X-16.771 Y-15.388 E0.08080
G1 X-17.326 Y-15.916 E0.08080
G1 X-17.827 Y-16.495 E0.08080
G1 X-18.272 Y-17.119 E0.08080
G1 X-18.655 Y-17.783 E0.08080
G1 X-18.973 Y-18.479 E0.08080
G1 X-19.223 Y-19.203 E0.08080
G1 X-19.404 Y-19.948 E0.08080
G1 X-19.513 Y-20.706 E0.08080
G1 X-19.549 Y-21.471 E0.08080
G1 X-19.513 Y-22.236 E0.08080
G1 X-19.404 Y-22.994 E0.08080
G1 X-19.223 Y-23.739 E0.08080
G1 X-18.973 Y-24.463 E0.08080
G1 X-18.655 Y-25.160 E0.08080
G1 X-18.272 Y-25.823 E0.08080
G1 X-17.827 Y-26.447 E0.08080
G1 X-17.326 Y-27.026 E0.08080
G1 X-16.771 Y-27.555 E0.08080
G1 X-16.169 Y-28.028 E0.08080
G1 X-15.525 Y-28.442 E0.08080
G1 X-14.844 Y-28.793 E0.08080
G1 X-14.133 Y-29.078 E0.08080
G1 X-13.398 Y-29.294 E0.08080
G1 X-12.646 Y-29.439 E0.08080
G1 X-11.883 Y-29.511 E0.08080
G1 X-11.117 Y-29.511 E0.08080
G1 X-10.437 Y-29.447 E0.07210
G1 F450
G1 X-9.601 Y-29.293 E0.08965
G1 X-9.177 Y-29.169 E0.04658
G1 X-9.057 Y-28.893 F4200.000
G1 X-9.635 Y-28.035 F4200.000
G1 F300
G1 X-4.934 Y-23.334 E0.72084
G1 X-6.294 Y-25.747 F4200.000
G1 F300
G1 X-7.280 Y-26.734 E0.15121
G1 X-8.046 Y-25.392 F4200.000
G1 F300
G1 X-10.963 Y-28.309 E0.44716
G1 X-12.045 Y-28.337 E0.11737
G1 X-10.131 Y-26.423 E0.29344
G1 X-11.333 Y-26.572 E0.13131
G1 X-12.974 Y-28.213 E0.25165
G1 X-13.809 Y-27.995 E0.09358
G1 X-12.320 Y-26.506 E0.22828
G1 X-13.120 Y-26.252 E0.09097
G1 X-14.556 Y-27.688 E0.22017
G1 X-15.233 Y-27.312 E0.08399
G1 X-13.856 Y-25.935 E0.21113
G1 X-14.501 Y-25.526 E0.08276
G1 X-15.849 Y-26.874 E0.20671
G1 X-16.395 Y-26.366 E0.08082
G1 X-15.056 Y-25.027 E0.20532
G1 X-15.566 Y-24.483 E0.08080
G1 X-16.906 Y-25.824 E0.20549
G1 X-17.344 Y-25.208 E0.08191
G1 X-15.955 Y-23.819 E0.21299
G1 X-16.300 Y-23.110 E0.08545
G1 X-17.716 Y-24.526 E0.21713
G1 X-18.020 Y-23.776 E0.08770
G1 X-16.515 Y-22.271 E0.23071
G1 X-16.590 Y-21.293 E0.10641
G1 X-18.247 Y-22.950 E0.25403
G1 X-18.362 Y-22.012 E0.10245
G1 X-16.446 Y-20.096 E0.29379
G1 X-18.066 Y-19.609 F4200.000
G1 F300
G1 X-13.365 Y-14.907 E0.72083
G1 X-12.038 Y-14.633 E0.14690
G1 X-18.344 Y-20.940 E0.96681
G1 X-16.706 Y-17.195 F4200.000
G1 F300
G1 X-15.720 Y-16.209 E0.15119
G1 X-12.851 Y-16.501 F4200.000
G1 F300
G1 X-10.955 Y-14.605 E0.29067
G1 X-10.026 Y-14.729 E0.10166
G1 X-11.669 Y-16.372 E0.25192
G1 X-10.710 Y-16.467 E0.10444
G1 X-9.191 Y-14.947 E0.23298
G1 X-8.444 Y-15.254 E0.08753
G1 X-9.863 Y-16.673 E0.21753
G1 X-9.146 Y-17.010 E0.08584
G1 X-7.770 Y-15.634 E0.21094
G1 X-7.151 Y-16.068 E0.08200
G1 X-8.506 Y-17.424 E0.20778
G1 X-7.930 Y-17.901 E0.08112
G1 X-6.605 Y-16.576 E0.20307
G1 X-6.094 Y-17.118 E0.08080
G1 X-7.457 Y-18.481 E0.20894
G1 X-7.016 Y-19.094 E0.08184
G1 X-5.656 Y-17.734 E0.20853
G1 X-5.284 Y-18.416 E0.08419
G1 X-6.717 Y-19.849 E0.21971
G1 X-6.489 Y-20.674 E0.09281
G1 X-4.980 Y-19.166 E0.23125
G1 X-4.753 Y-19.992 E0.09292
G1 X-6.371 Y-21.610 E0.24794
G1 X-6.519 Y-22.811 E0.13124
G1 X-4.638 Y-20.930 E0.28836
G1 X-4.656 Y-22.003 E0.11625
G1 X-7.548 Y-24.894 E0.44328
G1 E-4.00000 F1980.00000
G1 X-10.052 Y-2.945 F4200.000
G1 E4.00000 F1980.00000
G1 F450
G1 X-8.990 Y-2.445 E0.12385
G1 X-8.085 Y-1.697 E0.12385
G1 X-7.395 Y-0.747 E0.12385
G1 X-6.963 Y0.345 E0.12385
G1 X-6.816 Y1.510 E0.12385
G1 X-6.963 Y2.675 E0.12385
G1 X-7.395 Y3.766 E0.12385
G1 X-8.085 Y4.716 E0.12385
G1 X-8.990 Y5.465 E0.12385
G1 X-10.052 Y5.965 E0.12385
G1 X-11.206 Y6.185 E0.12385
G1 X-12.378 Y6.111 E0.12385
G1 X-13.494 Y5.748 E0.12385
G1 X-14.486 Y5.119 E0.12385
G1 X-15.290 Y4.263 E0.12385
G1 X-15.855 Y3.234 E0.12385
G1 X-16.147 Y2.097 E0.12385
G1 X-16.147 Y0.923 E0.12385
G1 X-15.855 Y-0.215 E0.12385
G1 X-15.290 Y-1.244 E0.12385
G1 X-14.486 Y-2.100 E0.12385
G1 X-13.491 Y-2.731 E0.12427
G1 X-12.348 Y-3.093 E0.12646
G1 F450
G1 X-11.206 Y-3.165 E0.12074
G1 X-10.104 Y-2.955 E0.11832
G1 X-10.278 Y-2.250 F4200.000
G1 F450
G1 X-9.382 Y-1.828 E0.10453
G1 X-8.618 Y-1.197 E0.10453
G1 X-8.035 Y-0.395 E0.10453
G1 X-7.671 Y0.526 E0.10453
G1 X-7.546 Y1.510 E0.10453
G1 X-7.671 Y2.493 E0.10453
G1 X-8.035 Y3.414 E0.10453
G1 X-8.618 Y4.216 E0.10453
G1 X-9.382 Y4.848 E0.10453
G1 X-10.278 Y5.270 E0.10453
G1 X-11.252 Y5.455 E0.10453
G1 X-12.241 Y5.393 E0.10453
G1 X-13.183 Y5.087 E0.10453
G1 X-14.020 Y4.556 E0.10453
G1 X-14.699 Y3.833 E0.10453
G1 X-15.176 Y2.965 E0.10453
G1 X-15.422 Y2.005 E0.10453
G1 X-15.422 Y1.014 E0.10453
G1 X-15.176 Y0.054 E0.10453
G1 X-14.699 Y-0.814 E0.10453
G1 X-14.020 Y-1.537 E0.10453
G1 X-13.182 Y-2.068 E0.10468
G1 X-12.214 Y-2.376 E0.10714
G1 F450
G1 X-11.252 Y-2.436 E0.10170
G1 X-10.330 Y-2.260 E0.09900
G1 X-10.278 Y-2.250 F4200.000
G1 X-9.331 Y-5.478 F4200.000
G1 F450
G1 X-9.105 Y-5.411 E0.02485
G1 X-8.458 Y-5.152 E0.07352
G1 X-7.838 Y-4.833 E0.07352
G1 X-7.252 Y-4.456 E0.07352
G1 X-6.704 Y-4.025 E0.07352
G1 X-6.200 Y-3.544 E0.07352
G1 X-5.743 Y-3.018 E0.07352
G1 X-5.339 Y-2.450 E0.07352
G1 X-4.990 Y-1.846 E0.07352
G1 X-4.701 Y-1.212 E0.07352
G1 X-4.473 Y-0.554 E0.07352
G1 X-4.309 Y0.124 E0.07352
G1 X-4.209 Y0.813 E0.07352
G1 X-4.176 Y1.510 E0.07352
G1 X-4.209 Y2.206 E0.07352
G1 X-4.309 Y2.896 E0.07352
G1 X-4.473 Y3.573 E0.07352
G1 X-4.701 Y4.232 E0.07352
G1 X-4.990 Y4.866 E0.07352
G1 X-5.339 Y5.469 E0.07352
G1 X-5.743 Y6.037 E0.07352
G1 X-6.200 Y6.564 E0.07352
G1 X-6.704 Y7.045 E0.07352
G1 X-7.149 Y7.394 E0.05967
G1 X-7.845 Y7.856 E0.08814
G1 X-8.458 Y8.172 E0.07268
G1 X-9.105 Y8.431 E0.07352
G1 X-9.773 Y8.627 E0.07352
G1 X-10.458 Y8.759 E0.07352
G1 X-11.152 Y8.825 E0.07352
G1 X-11.848 Y8.825 E0.07352
G1 X-12.542 Y8.759 E0.07352
G1 X-13.227 Y8.627 E0.07352
G1 X-13.895 Y8.431 E0.07352
G1 X-14.542 Y8.172 E0.07352
G1 X-15.162 Y7.852 E0.07352
G1 X-15.748 Y7.475 E0.07352
G1 X-16.296 Y7.045 E0.07352
G1 X-16.800 Y6.564 E0.07352
G1 X-17.257 Y6.037 E0.07352
G1 X-17.661 Y5.469 E0.07352
G1 X-18.010 Y4.866 E0.07352
G1 X-18.299 Y4.232 E0.07352
G1 X-18.527 Y3.573 E0.07352
G1 X-18.691 Y2.896 E0.07352
G1 X-18.791 Y2.206 E0.07352
G1 X-18.824 Y1.510 E0.07352
G1 X-18.791 Y0.813 E0.07352
G1 X-18.691 Y0.124 E0.07352
G1 X-18.527 Y-0.554 E0.07352
G1 X-18.299 Y-1.212 E0.07352
G1 X-18.010 Y-1.846 E0.07352
G1 X-17.661 Y-2.450 E0.07352
G1 X-17.257 Y-3.018 E0.07352
G1 X-16.800 Y-3.544 E0.07352
G1 X-16.296 Y-4.025 E0.07352
G1 X-15.748 Y-4.456 E0.07352
G1 X-15.162 Y-4.833 E0.07352
G1 X-14.542 Y-5.152 E0.07352
G1 X-13.895 Y-5.411 E0.07352
G1 X-13.227 Y-5.608 E0.07352
G1 X-12.542 Y-5.740 E0.07352
G1 X-11.848 Y-5.806 E0.07352
G1 X-11.152 Y-5.806 E0.07352
G1 X-10.537 Y-5.747 E0.06516
G1 F450
G1 X-9.768 Y-5.606 E0.08237
G1 X-9.381 Y-5.493 E0.04259
G1 X-9.126 Y-6.173 F4200.000
G1 F450
G1 X-8.867 Y-6.097 E0.02849
G1 X-8.156 Y-5.812 E0.08080
G1 X-7.475 Y-5.461 E0.08080
G1 X-6.831 Y-5.047 E0.08080
G1 X-6.229 Y-4.574 E0.08080
G1 X-5.674 Y-4.045 E0.08080
G1 X-5.173 Y-3.466 E0.08080
G1 X-4.728 Y-2.842 E0.08080
G1 X-4.345 Y-2.179 E0.08080
G1 X-4.027 Y-1.482 E0.08080
G1 X-3.777 Y-0.758 E0.08080
G1 X-3.596 Y-0.014 E0.08080
G1 X-3.487 Y0.744 E0.08080
G1 X-3.451 Y1.510 E0.08080
G1 X-3.487 Y2.275 E0.08080
G1 X-3.596 Y3.033 E0.08080
G1 X-3.777 Y3.777 E0.08080
G1 X-4.027 Y4.501 E0.08080
G1 X-4.345 Y5.198 E0.08080
G1 X-4.728 Y5.862 E0.08080
G1 X-5.173 Y6.485 E0.08080
G1 X-5.674 Y7.064 E0.08080
G1 X-6.229 Y7.593 E0.08080
G1 X-6.724 Y7.982 E0.06642
G1 X-7.478 Y8.482 E0.09542
G1 X-8.156 Y8.832 E0.08050
G1 X-8.867 Y9.116 E0.08080
G1 X-9.602 Y9.332 E0.08080
G1 X-10.354 Y9.477 E0.08080
G1 X-11.117 Y9.550 E0.08080
G1 X-11.883 Y9.550 E0.08080
G1 X-12.646 Y9.477 E0.08080
G1 X-13.398 Y9.332 E0.08080
G1 X-14.133 Y9.116 E0.08080
G1 X-14.844 Y8.832 E0.08080
G1 X-15.525 Y8.481 E0.08080
G1 X-16.169 Y8.067 E0.08080
G1 X-16.771 Y7.593 E0.08080
G1 X-17.326 Y7.064 E0.08080
G1 X-17.827 Y6.485 E0.08080
G1 X-18.272 Y5.862 E0.08080
G1 X-18.655 Y5.198 E0.08080
G1 X-18.973 Y4.501 E0.08080
G1 X-19.223 Y3.777 E0.08080
G1 X-19.404 Y3.033 E0.08080
