; generated by Slic3r 1.3.0-dev on 2016-03-30 at 19:26:47

; external perimeters extrusion width = 0.50mm
; perimeters extrusion width = 0.50mm
; infill extrusion width = 0.50mm
; solid infill extrusion width = 0.50mm
; top infill extrusion width = 0.50mm

M107
M190 S100 ; set bed temperature and wait for it to be reached
M104 S210 ; set temperature
G28                                                        ; Home all axes
M83                                                       ; Set extruder to relative mode
T0                                                          ; Turn tool on
G1 E5 F1980                                         ; Prime the extruder
M300 S4100 P100                                ; Play a tone
M84 S0                                                  ; Keep motors on


M109 S210 ; set temperature and wait for it to be reached
G21 ; set units to millimeters
G90 ; use absolute coordinates
M83 ; use relative distances for extrusion
G1 E-4.00000 F1980.00000
G1 Z0.350 F4200.000
G1 X-13.857 Y-1.675 F4200.000
G1 E4.00000 F1980.00000
G1 F300
G1 X14.252 Y-1.673 E2.96499
G1 X15.436 Y-1.637 E0.12490
G1 X15.796 Y-1.608 E0.03816
G1 X16.852 Y-1.470 E0.11227
G1 X17.207 Y-1.406 E0.03808
G1 X18.243 Y-1.167 E0.11218
G1 X18.591 Y-1.069 E0.03813
G1 X19.600 Y-0.730 E0.11222
G1 X19.936 Y-0.599 E0.03816
G1 X20.907 Y-0.164 E0.11218
G1 X21.230 Y-0.000 E0.03816
G1 X22.154 Y0.527 E0.11218
G1 X22.459 Y0.721 E0.03816
G1 X23.328 Y1.336 E0.11228
G1 X23.612 Y1.558 E0.03806
G1 X24.417 Y2.253 E0.11219
G1 X24.679 Y2.503 E0.03816
G1 X25.412 Y3.273 E0.11220
G1 X25.649 Y3.547 E0.03815
G1 X26.304 Y4.385 E0.11223
G1 X26.513 Y4.680 E0.03811
G1 X27.084 Y5.577 E0.11218
G1 X27.263 Y5.891 E0.03816
G1 X27.745 Y6.840 E0.11224
G1 X27.892 Y7.170 E0.03810
G1 X28.277 Y8.154 E0.11145
G1 X28.532 Y9.509 E0.14547
G1 X28.532 Y16.491 E0.73638
G1 X28.277 Y17.846 E0.14547
G1 X27.892 Y18.830 E0.11145
G1 X27.745 Y19.160 E0.03810
G1 X27.263 Y20.109 E0.11224
G1 X27.084 Y20.423 E0.03816
G1 X26.513 Y21.320 E0.11218
G1 X26.304 Y21.616 E0.03816
G1 X25.649 Y22.453 E0.11218
G1 X25.412 Y22.727 E0.03816
G1 X24.679 Y23.497 E0.11218
G1 X24.417 Y23.747 E0.03816
G1 X23.612 Y24.442 E0.11223
G1 X23.327 Y24.665 E0.03811
G1 X22.459 Y25.279 E0.11218
G1 X22.154 Y25.473 E0.03816
G1 X21.230 Y26.000 E0.11218
G1 X20.907 Y26.164 E0.03813
G1 X19.936 Y26.598 E0.11221
G1 X19.600 Y26.730 E0.03816
G1 X18.591 Y27.069 E0.11218
G1 X18.243 Y27.167 E0.03816
G1 X17.207 Y27.406 E0.11218
G1 X16.851 Y27.470 E0.03816
G1 X15.796 Y27.608 E0.11218
G1 X15.436 Y27.637 E0.03816
G1 X14.252 Y27.673 E0.12490
G1 X-14.044 Y27.670 E2.98467
G1 X-15.313 Y27.602 E0.13407
G1 X-16.534 Y27.425 E0.13009
G1 X-16.891 Y27.354 E0.03841
G1 X-17.940 Y27.092 E0.11409
G1 X-18.291 Y26.985 E0.03871
G1 X-19.302 Y26.624 E0.11330
G1 X-19.640 Y26.484 E0.03854
G1 X-20.612 Y26.024 E0.11337
G1 X-20.934 Y25.852 E0.03853
G1 X-21.856 Y25.299 E0.11335
G1 X-22.159 Y25.096 E0.03856
G1 X-23.019 Y24.459 E0.11294
G1 X-23.305 Y24.224 E0.03896
G1 X-24.101 Y23.503 E0.11335
G1 X-24.360 Y23.244 E0.03856
G1 X-25.082 Y22.448 E0.11338
G1 X-25.313 Y22.165 E0.03852
G1 X-25.954 Y21.302 E0.11343
G1 X-26.157 Y20.998 E0.03848
G1 X-26.709 Y20.077 E0.11335
G1 X-26.881 Y19.754 E0.03856
G1 X-27.339 Y18.786 E0.11294
G1 X-27.481 Y18.445 E0.03896
G1 X-27.843 Y17.433 E0.11335
G1 X-27.949 Y17.084 E0.03856
G1 X-28.210 Y16.041 E0.11335
G1 X-28.281 Y15.683 E0.03856
G1 X-28.439 Y14.619 E0.11349
G1 X-28.475 Y14.256 E0.03842
G1 X-28.527 Y13.182 E0.11339
G1 X-28.527 Y12.817 E0.03851
G1 X-28.475 Y11.748 E0.11294
G1 X-28.439 Y11.380 E0.03896
G1 X-28.281 Y10.317 E0.11340
G1 X-28.210 Y9.959 E0.03851
G1 X-27.949 Y8.916 E0.11335
G1 X-27.843 Y8.567 E0.03856
G1 X-27.481 Y7.555 E0.11336
G1 X-27.341 Y7.217 E0.03854
G1 X-26.881 Y6.245 E0.11347
G1 X-26.709 Y5.923 E0.03843
G1 X-26.156 Y5.001 E0.11344
G1 X-25.953 Y4.698 E0.03847
G1 X-25.313 Y3.835 E0.11335
G1 X-25.081 Y3.552 E0.03856
G1 X-24.362 Y2.759 E0.11294
G1 X-24.101 Y2.497 E0.03896
G1 X-23.305 Y1.775 E0.11338
G1 X-23.023 Y1.544 E0.03852
G1 X-22.159 Y0.903 E0.11337
G1 X-21.856 Y0.701 E0.03854
G1 X-20.933 Y0.147 E0.11347
G1 X-20.611 Y-0.024 E0.03844
G1 X-19.640 Y-0.484 E0.11335
G1 X-19.302 Y-0.624 E0.03856
G1 X-18.291 Y-0.985 E0.11328
G1 X-17.940 Y-1.092 E0.03871
G1 X-16.891 Y-1.354 E0.11409
G1 X-16.534 Y-1.425 E0.03841
G1 X-15.311 Y-1.603 E0.13028
G1 X-13.910 Y-1.674 E0.14802
G1 E-4.00000 F1980.00000
G1 X21.604 Y8.825 F4200.000
G1 E4.00000 F1980.00000
G1 F450
G1 X21.604 Y17.175 E0.88074
G1 X16.475 Y17.175 E0.54095
G1 X15.711 Y17.506 E0.08792
G1 X14.490 Y17.685 E0.13008
G1 X13.266 Y17.539 E0.13008
G1 X12.122 Y17.078 E0.13008
G1 X11.138 Y16.335 E0.13008
G1 X10.382 Y15.360 E0.13008
G1 X9.906 Y14.223 E0.13008
G1 X9.744 Y13.000 E0.13008
G1 X9.906 Y11.777 E0.13008
G1 X10.382 Y10.640 E0.13008
G1 X11.138 Y9.665 E0.13008
G1 X12.122 Y8.922 E0.13008
G1 X13.266 Y8.461 E0.13008
G1 X14.490 Y8.315 E0.13008
G1 X15.711 Y8.494 E0.13008
G1 X16.475 Y8.825 E0.08792
G1 X21.551 Y8.825 E0.53541
G1 X20.879 Y9.550 F4200.000
G1 F450
G1 X20.879 Y16.450 E0.72782
G1 X16.325 Y16.450 E0.48035
G1 X15.510 Y16.803 E0.09363
G1 X14.481 Y16.954 E0.10978
G1 X13.447 Y16.830 E0.10978
G1 X12.482 Y16.441 E0.10978
G1 X11.651 Y15.814 E0.10978
G1 X11.013 Y14.992 E0.10978
G1 X10.612 Y14.032 E0.10978
G1 X10.475 Y13.000 E0.10978
G1 X10.612 Y11.968 E0.10978
G1 X11.013 Y11.008 E0.10978
G1 X11.651 Y10.186 E0.10978
G1 X12.482 Y9.559 E0.10978
G1 X13.447 Y9.170 E0.10978
G1 X14.481 Y9.046 E0.10978
G1 X15.510 Y9.197 E0.10978
G1 X16.325 Y9.550 E0.09363
G1 X20.826 Y9.550 E0.47481
G1 X21.229 Y9.558 F4200.000
G1 X23.107 Y8.419 F4200.000
G1 F450
G1 X23.395 Y8.986 E0.06699
G1 X23.682 Y9.721 E0.08332
G1 X23.682 Y16.279 E0.69167
G1 X23.395 Y17.014 E0.08332
G1 X22.963 Y17.865 E0.10064
G1 X22.451 Y18.670 E0.10064
G1 X21.863 Y19.422 E0.10064
G1 X21.205 Y20.113 E0.10064
G1 X20.483 Y20.737 E0.10064
G1 X19.704 Y21.287 E0.10062
G1 X18.872 Y21.761 E0.10104
G1 X18.004 Y22.150 E0.10026
G1 X17.100 Y22.454 E0.10064
G1 X16.170 Y22.668 E0.10065
G1 X15.224 Y22.792 E0.10064
G1 X14.270 Y22.822 E0.10064
G1 X13.318 Y22.761 E0.10064
G1 X12.376 Y22.607 E0.10064
G1 X11.454 Y22.362 E0.10064
G1 X10.560 Y22.030 E0.10064
G1 X9.702 Y21.612 E0.10064
G1 X8.889 Y21.113 E0.10064
G1 X8.128 Y20.537 E0.10064
G1 X7.426 Y19.890 E0.10064
G1 X6.791 Y19.178 E0.10064
G1 X6.228 Y18.408 E0.10064
G1 X5.742 Y17.587 E0.10064
G1 X5.338 Y16.723 E0.10064
G1 X5.019 Y15.823 E0.10064
G1 X4.790 Y14.897 E0.10064
G1 X4.651 Y13.953 E0.10064
G1 X4.605 Y13.000 E0.10064
G1 X4.651 Y12.047 E0.10064
G1 X4.790 Y11.103 E0.10064
G1 X5.019 Y10.177 E0.10064
G1 X5.338 Y9.277 E0.10064
G1 X5.742 Y8.413 E0.10064
G1 X6.228 Y7.592 E0.10064
G1 X6.791 Y6.822 E0.10064
G1 X7.426 Y6.110 E0.10064
G1 X8.128 Y5.463 E0.10064
G1 X8.889 Y4.887 E0.10064
G1 X9.702 Y4.388 E0.10064
G1 X10.560 Y3.970 E0.10064
G1 X11.454 Y3.638 E0.10064
G1 X12.376 Y3.393 E0.10064
G1 X13.318 Y3.239 E0.10064
G1 X14.270 Y3.178 E0.10064
G1 X15.220 Y3.208 E0.10026
G1 F450
G1 X16.170 Y3.332 E0.10104
G1 X17.100 Y3.546 E0.10062
G1 X18.004 Y3.850 E0.10064
G1 X18.875 Y4.240 E0.10064
G1 X19.704 Y4.713 E0.10064
G1 X20.483 Y5.263 E0.10064
G1 X21.202 Y5.885 E0.10026
G1 X21.863 Y6.578 E0.10104
G1 X22.451 Y7.330 E0.10062
G1 X22.963 Y8.135 E0.10064
G1 X23.084 Y8.372 E0.02812
G1 X23.754 Y8.091 F4200.000
G1 F450
G1 X24.057 Y8.689 E0.07071
G1 X24.407 Y9.585 E0.10145
G1 X24.407 Y16.415 E0.72048
G1 X24.057 Y17.311 E0.10145
G1 X23.594 Y18.225 E0.10808
G1 X23.043 Y19.089 E0.10808
G1 X22.412 Y19.896 E0.10808
G1 X21.705 Y20.638 E0.10808
G1 X20.930 Y21.308 E0.10808
G1 X20.093 Y21.900 E0.10807
G1 X19.200 Y22.409 E0.10848
G1 X18.268 Y22.826 E0.10769
G1 X17.297 Y23.152 E0.10808
G1 X16.298 Y23.382 E0.10808
G1 X15.282 Y23.515 E0.10808
G1 X14.258 Y23.548 E0.10808
G1 X13.236 Y23.482 E0.10808
G1 X12.225 Y23.317 E0.10808
G1 X11.234 Y23.054 E0.10808
G1 X10.274 Y22.697 E0.10808
G1 X9.353 Y22.248 E0.10808
G1 X8.479 Y21.712 E0.10808
G1 X7.662 Y21.094 E0.10808
G1 X6.909 Y20.399 E0.10808
G1 X6.227 Y19.635 E0.10808
G1 X5.622 Y18.808 E0.10808
G1 X5.100 Y17.926 E0.10808
G1 X4.666 Y16.998 E0.10808
G1 X4.324 Y16.032 E0.10808
G1 X4.078 Y15.037 E0.10808
G1 X3.929 Y14.023 E0.10808
G1 X3.879 Y13.000 E0.10808
G1 X3.929 Y11.977 E0.10808
G1 X4.078 Y10.963 E0.10808
G1 X4.324 Y9.968 E0.10808
G1 X4.666 Y9.002 E0.10808
G1 X5.100 Y8.074 E0.10808
G1 X5.622 Y7.192 E0.10808
G1 X6.227 Y6.365 E0.10808
G1 X6.909 Y5.601 E0.10808
G1 X7.662 Y4.906 E0.10808
G1 X8.479 Y4.288 E0.10808
G1 X9.353 Y3.752 E0.10808
G1 X10.274 Y3.303 E0.10808
G1 X11.234 Y2.946 E0.10808
G1 X12.225 Y2.683 E0.10808
G1 X13.236 Y2.518 E0.10808
G1 X14.258 Y2.452 E0.10808
G1 X15.279 Y2.485 E0.10769
G1 F450
G1 X16.299 Y2.618 E0.10848
G1 X17.297 Y2.848 E0.10807
G1 X18.268 Y3.174 E0.10808
G1 X19.203 Y3.593 E0.10808
G1 X20.093 Y4.100 E0.10808
G1 X20.930 Y4.692 E0.10808
G1 X21.703 Y5.359 E0.10769
G1 X22.412 Y6.104 E0.10848
G1 X23.043 Y6.911 E0.10807
G1 X23.594 Y7.775 E0.10808
G1 X23.730 Y8.044 E0.03183
G1 X23.570 Y8.389 F4200.000
G1 X23.143 Y9.739 F4200.000
G1 F300
G1 X22.046 Y8.642 E0.16624
G1 X22.046 Y9.684 E0.11160
G1 X23.240 Y10.878 E0.18092
G1 X23.240 Y11.919 E0.11160
G1 X22.046 Y10.725 E0.18092
G1 X22.046 Y11.767 E0.11160
G1 X23.240 Y12.961 E0.18092
G1 X23.240 Y14.002 E0.11160
G1 X22.046 Y12.808 E0.18092
G1 X22.046 Y13.850 E0.11160
G1 X23.240 Y15.044 E0.18092
G1 X23.240 Y16.085 E0.11160
G1 X22.046 Y14.891 E0.18092
G1 X22.046 Y15.933 E0.11160
G1 X23.013 Y16.900 E0.14660
G1 X22.665 Y17.593 E0.08311
G1 X22.046 Y16.974 E0.09376
G1 X21.648 Y17.617 F4200.000
G1 F300
G1 X22.270 Y18.239 E0.09429
G1 X21.833 Y18.843 E0.07992
G1 X20.606 Y17.617 E0.18583
G1 X19.565 Y17.617 E0.11160
G1 X21.350 Y19.403 E0.27057
G1 X20.830 Y19.923 E0.07891
G1 X18.523 Y17.617 E0.34949
G1 X17.482 Y17.617 E0.11160
G1 X20.277 Y20.413 E0.42365
G1 X19.668 Y20.845 E0.08005
G1 X16.442 Y17.619 E0.48892
G1 X15.714 Y17.932 E0.08493
G1 X19.016 Y21.234 E0.50043
G1 X18.319 Y21.578 E0.08333
G1 X14.805 Y18.065 E0.53246
G1 X13.762 Y18.063 E0.11184
G1 X17.571 Y21.872 E0.57728
G1 X16.766 Y22.108 E0.08993
G1 X12.397 Y17.739 E0.66206
G1 X9.686 Y15.029 F4200.000
G1 F300
G1 X5.321 Y10.664 E0.66153
G1 X5.557 Y9.858 E0.08998
G1 X9.364 Y13.665 E0.57698
G1 X9.366 Y12.626 E0.11136
G1 X5.849 Y9.109 E0.53300
G1 X6.192 Y8.410 E0.08340
G1 X9.502 Y11.720 E0.50165
G1 X9.809 Y10.986 E0.08530
G1 X6.580 Y7.756 E0.48937
G1 X7.020 Y7.155 E0.07986
G1 X10.164 Y10.299 E0.47653
G1 X10.619 Y9.713 E0.07954
G1 X7.504 Y6.598 E0.47214
G1 X8.024 Y6.077 E0.07891
G1 X11.137 Y9.189 E0.47164
G1 X11.730 Y8.741 E0.07968
G1 X8.584 Y5.595 E0.47671
G1 X9.186 Y5.156 E0.07987
G1 X12.410 Y8.379 E0.48847
G1 X13.152 Y8.080 E0.08577
G1 X9.832 Y4.760 E0.50319
G1 X10.532 Y4.418 E0.08346
G1 X14.053 Y7.939 E0.53358
G1 X15.086 Y7.931 E0.11073
G1 X11.282 Y4.127 E0.57653
G1 X12.088 Y3.892 E0.09001
G1 X16.446 Y8.250 E0.66046
G1 X17.621 Y8.383 E0.12665
G1 X12.961 Y3.723 E0.70619
G1 X13.914 Y3.634 E0.10256
G1 X18.662 Y8.383 E0.71960
G1 X19.703 Y8.383 E0.11160
G1 X14.969 Y3.648 E0.71755
G1 X16.193 Y3.831 E0.13263
G1 X20.745 Y8.383 E0.68986
G1 X21.786 Y8.383 F4200.000
G1 F300
G1 X17.674 Y4.270 E0.62319
G1 X20.428 Y5.983 F4200.000
G1 F300
G1 X21.520 Y7.075 E0.16537
G1 X5.152 Y11.537 F4200.000
G1 F300
G1 X15.893 Y22.277 E1.62766
G1 X14.938 Y22.363 E0.10278
G1 X5.065 Y12.491 E1.49609
G1 X5.082 Y13.549 E0.11343
G1 X13.876 Y22.343 E1.33271
G1 X12.671 Y22.180 E0.13032
G1 X5.255 Y14.764 E1.12384
G1 X5.705 Y16.255 E0.16692
G1 X11.166 Y21.716 E0.82754
G1 X8.369 Y19.960 F4200.000
G1 F300
G1 X7.463 Y19.054 E0.13733
G1 E-4.00000 F1980.00000
G1 Z0.350 F4200.000
G1 X-9.320 Y14.165 F4200.000
G1 E4.00000 F1980.00000
G1 F450
G1 X-9.752 Y15.257 E0.12385
G1 X-10.443 Y16.208 E0.12404
G1 X-11.351 Y16.957 E0.12413
G1 X-12.409 Y17.455 E0.12331
G1 X-13.562 Y17.675 E0.12380
G1 X-14.739 Y17.600 E0.12440
G1 X-15.851 Y17.239 E0.12338
G1 X-16.843 Y16.609 E0.12399
G1 X-17.647 Y15.753 E0.12379
G1 X-18.212 Y14.724 E0.12385
G1 X-18.504 Y13.587 E0.12385
G1 X-18.504 Y12.413 E0.12385
G1 X-18.212 Y11.276 E0.12385
G1 X-17.647 Y10.247 E0.12385
G1 X-16.843 Y9.391 E0.12379
G1 X-15.851 Y8.761 E0.12399
G1 X-14.739 Y8.400 E0.12335
G1 F450
G1 X-13.577 Y8.325 E0.12275
G1 X-12.410 Y8.544 E0.12524
G1 X-11.351 Y9.043 E0.12351
G1 X-10.443 Y9.792 E0.12413
G1 X-9.752 Y10.743 E0.12404
G1 X-9.320 Y11.835 E0.12385
G1 X-9.173 Y13.000 E0.12385
G1 X-9.313 Y14.113 E0.11832
G1 X-10.028 Y13.983 F4200.000
G1 F450
G1 X-10.393 Y14.905 E0.10453
G1 X-10.976 Y15.708 E0.10468
G1 X-11.742 Y16.340 E0.10481
G1 X-12.635 Y16.760 E0.10404
G1 X-13.607 Y16.946 E0.10446
G1 X-14.601 Y16.883 E0.10507
G1 X-15.540 Y16.578 E0.10407
G1 X-16.378 Y16.046 E0.10468
G1 X-17.056 Y15.324 E0.10448
G1 X-17.533 Y14.455 E0.10453
G1 X-17.779 Y13.496 E0.10453
G1 X-17.779 Y12.504 E0.10453
G1 X-17.533 Y11.545 E0.10453
G1 X-17.056 Y10.676 E0.10453
G1 X-16.378 Y9.954 E0.10448
G1 X-15.540 Y9.422 E0.10468
G1 X-14.602 Y9.117 E0.10406
G1 F450
G1 X-13.622 Y9.055 E0.10356
G1 X-12.635 Y9.240 E0.10589
G1 X-11.742 Y9.660 E0.10411
G1 X-10.976 Y10.292 E0.10481
G1 X-10.393 Y11.095 E0.10468
G1 X-10.028 Y12.017 E0.10453
G1 X-9.904 Y13.000 E0.10453
G1 X-10.021 Y13.931 E0.09900
G1 X-10.028 Y13.983 F4200.000
G1 X-4.345 Y15.407 F4200.000
G1 F450
G1 X-4.456 Y15.852 E0.04839
G1 X-4.781 Y16.759 E0.10169
G1 X-5.193 Y17.631 E0.10169
G1 X-5.689 Y18.458 E0.10169
G1 X-6.263 Y19.232 E0.10169
G1 X-6.911 Y19.946 E0.10169
G1 X-7.625 Y20.594 E0.10169
G1 X-8.399 Y21.168 E0.10169
G1 X-9.226 Y21.664 E0.10169
G1 X-10.098 Y22.076 E0.10169
G1 X-11.005 Y22.400 E0.10160
G1 X-11.947 Y22.636 E0.10241
G1 X-12.895 Y22.776 E0.10109
G1 X-13.857 Y22.824 E0.10169
G1 X-14.820 Y22.776 E0.10162
G1 X-15.768 Y22.636 E0.10107
G1 X-16.710 Y22.400 E0.10243
G1 X-17.616 Y22.076 E0.10160
G1 X-18.488 Y21.664 E0.10169
G1 X-19.315 Y21.168 E0.10169
G1 X-20.089 Y20.594 E0.10169
G1 X-20.803 Y19.946 E0.10169
G1 X-21.451 Y19.232 E0.10169
G1 X-22.025 Y18.458 E0.10169
G1 X-22.521 Y17.631 E0.10169
G1 X-22.933 Y16.759 E0.10169
G1 X-23.258 Y15.852 E0.10169
G1 X-23.492 Y14.917 E0.10169
G1 X-23.633 Y13.963 E0.10169
G1 X-23.681 Y13.000 E0.10169
G1 X-23.633 Y12.037 E0.10169
G1 X-23.492 Y11.083 E0.10169
G1 X-23.258 Y10.148 E0.10169
G1 X-22.933 Y9.241 E0.10169
G1 X-22.521 Y8.369 E0.10169
G1 X-22.025 Y7.542 E0.10169
G1 X-21.451 Y6.768 E0.10169
G1 X-20.803 Y6.054 E0.10169
G1 X-20.089 Y5.406 E0.10169
G1 X-19.315 Y4.832 E0.10169
G1 X-18.488 Y4.336 E0.10169
G1 X-17.616 Y3.924 E0.10169
G1 X-16.710 Y3.600 E0.10160
G1 X-15.768 Y3.364 E0.10243
G1 X-14.820 Y3.224 E0.10106
G1 X-13.855 Y3.176 E0.10194
G1 X-12.895 Y3.224 E0.10137
G1 F450
G1 X-11.947 Y3.364 E0.10110
G1 X-11.005 Y3.600 E0.10241
G1 X-10.098 Y3.924 E0.10160
G1 X-9.226 Y4.336 E0.10169
G1 X-8.399 Y4.832 E0.10169
G1 X-7.625 Y5.406 E0.10169
G1 X-6.911 Y6.054 E0.10169
G1 X-6.263 Y6.768 E0.10169
G1 X-5.689 Y7.542 E0.10169
G1 X-5.193 Y8.369 E0.10169
G1 X-4.781 Y9.241 E0.10169
G1 X-4.456 Y10.148 E0.10169
G1 X-4.222 Y11.083 E0.10169
G1 X-4.081 Y12.037 E0.10169
G1 X-4.033 Y13.000 E0.10169
G1 X-4.081 Y13.963 E0.10169
G1 X-4.222 Y14.917 E0.10169
G1 X-4.332 Y15.356 E0.04776
G1 X-3.642 Y15.583 F4200.000
G1 F450
G1 X-3.762 Y16.062 E0.05214
G1 X-4.111 Y17.037 E0.10920
G1 X-4.553 Y17.973 E0.10920
G1 X-5.086 Y18.861 E0.10920
G1 X-5.702 Y19.693 E0.10920
G1 X-6.397 Y20.460 E0.10920
G1 X-7.165 Y21.155 E0.10920
G1 X-7.996 Y21.772 E0.10920
G1 X-8.884 Y22.304 E0.10920
G1 X-9.820 Y22.746 E0.10920
G1 X-10.794 Y23.095 E0.10913
G1 X-11.805 Y23.348 E0.10993
G1 X-12.823 Y23.499 E0.10859
G1 X-13.857 Y23.550 E0.10920
G1 X-14.891 Y23.499 E0.10912
G1 X-15.909 Y23.348 E0.10857
G1 X-16.920 Y23.095 E0.10994
G1 X-17.894 Y22.746 E0.10913
G1 X-18.830 Y22.304 E0.10920
G1 X-19.718 Y21.772 E0.10920
G1 X-20.550 Y21.155 E0.10920
G1 X-21.317 Y20.460 E0.10920
G1 X-22.012 Y19.693 E0.10920
G1 X-22.629 Y18.861 E0.10920
G1 X-23.161 Y17.973 E0.10920
G1 X-23.604 Y17.037 E0.10920
G1 X-23.952 Y16.062 E0.10920
G1 X-24.204 Y15.058 E0.10920
G1 X-24.356 Y14.034 E0.10920
G1 X-24.407 Y13.000 E0.10920
G1 X-24.356 Y11.966 E0.10920
G1 X-24.204 Y10.942 E0.10920
G1 X-23.952 Y9.938 E0.10920
G1 X-23.604 Y8.963 E0.10920
G1 X-23.161 Y8.027 E0.10920
