; generated by Slic3r 1.3.0-dev on 2016-03-29 at 16:03:07

; external perimeters extrusion width = 0.50mm
; perimeters extrusion width = 0.50mm
; infill extrusion width = 0.50mm
; solid infill extrusion width = 0.50mm
; top infill extrusion width = 0.50mm

M107
M190 S100 ; set bed temperature and wait for it to be reached
M104 S210 ; set temperature
G28                                                        ; Home all axes
M83                                                       ; Set extruder to relative mode
T0                                                          ; Turn tool on
G1 E5 F1980                                         ; Prime the extruder
M300 S4100 P100                                ; Play a tone
M84 S0                                                  ; Keep motors on


M109 S210 ; set temperature and wait for it to be reached
G21 ; set units to millimeters
G90 ; use absolute coordinates
M83 ; use relative distances for extrusion
G1 E-4.00000 F1980.00000
G1 Z0.350 F4200.000
G1 X-20.971 Y52.220 F4200.000
G1 E4.00000 F1980.00000
G1 F300
G1 X-21.457 Y52.188 E0.05140
G1 X-22.224 Y52.087 E0.08157
G1 X-22.916 Y51.927 E0.07486
G1 X-37.916 Y46.928 E1.66780
G1 X-38.999 Y46.486 E0.12337
G1 X-39.716 Y46.055 E0.08828
G1 X-40.329 Y45.585 E0.08148
G1 X-41.015 Y44.898 E0.10241
G1 X-41.484 Y44.287 E0.08122
G1 X-41.970 Y43.445 E0.10257
G1 X-42.265 Y42.734 E0.08122
G1 X-42.516 Y41.794 E0.10257
G1 X-42.646 Y40.686 E0.11766
G1 X-44.698 Y-11.950 E5.55631
G1 X-44.701 Y-22.495 E1.11230
G1 X-44.306 Y-24.163 E0.18086
G1 X-43.206 Y-25.478 E0.18086
G1 X-40.976 Y-26.220 E0.24788
G1 X38.924 Y-26.220 E8.42792
G1 X40.593 Y-25.825 E0.18086
G1 X41.908 Y-24.725 E0.18086
G1 X42.613 Y-23.013 E0.19523
G1 X44.664 Y-8.424 E1.55403
G1 X44.701 Y-7.905 E0.05484
G1 X44.701 Y40.541 E5.11020
G1 X44.669 Y41.028 E0.05139
G1 X44.568 Y41.795 E0.08164
G1 X44.316 Y42.734 E0.10250
G1 X44.021 Y43.445 E0.08122
G1 X43.535 Y44.287 E0.10257
G1 X43.066 Y44.898 E0.08122
G1 X42.380 Y45.585 E0.10242
G1 X41.767 Y46.055 E0.08147
G1 X41.049 Y46.487 E0.08848
G1 X39.968 Y46.928 E0.12311
G1 X24.967 Y51.927 E1.66788
G1 X24.276 Y52.087 E0.07483
G1 X23.509 Y52.188 E0.08160
G1 X23.022 Y52.220 E0.05140
G1 X-20.919 Y52.220 E4.63493
G1 E-4.00000 F1980.00000
G1 X-28.149 Y32.720 F4200.000
G1 E4.00000 F1980.00000
G1 F450
G1 X-21.806 Y32.720 E0.66913
G1 X-18.806 Y41.220 E0.95079
G1 X20.857 Y41.220 E4.18364
G1 X23.857 Y32.720 E0.95079
G1 X30.201 Y32.720 E0.66913
G1 X30.201 Y-6.780 E4.16650
G1 X39.851 Y-6.780 E1.01791
G1 X39.851 Y40.468 E4.98377
G1 X39.779 Y41.014 E0.05817
G1 X39.597 Y41.452 E0.04998
G1 X39.309 Y41.828 E0.04998
G1 X38.932 Y42.117 E0.05009
G1 X38.496 Y42.298 E0.04983
G1 X37.950 Y42.370 E0.05806
G1 X24.851 Y42.370 E1.38173
G1 X24.851 Y45.468 E0.32677
G1 X24.779 Y46.014 E0.05817
G1 X24.597 Y46.452 E0.04998
G1 X24.309 Y46.828 E0.04998
G1 X23.933 Y47.116 E0.04998
G1 X23.495 Y47.298 E0.04998
G1 X22.949 Y47.370 E0.05817
G1 X-20.897 Y47.370 E4.62491
G1 X-21.444 Y47.298 E0.05817
G1 X-21.882 Y47.116 E0.04998
G1 X-22.258 Y46.828 E0.04998
G1 X-22.546 Y46.452 E0.04998
G1 X-22.727 Y46.014 E0.04998
G1 X-22.799 Y45.468 E0.05817
G1 X-22.799 Y42.370 E0.32677
G1 X-35.898 Y42.370 E1.38169
G1 X-36.444 Y42.298 E0.05807
G1 X-36.881 Y42.117 E0.04987
G1 X-37.258 Y41.828 E0.05008
G1 X-37.546 Y41.452 E0.04998
G1 X-37.727 Y41.014 E0.04998
G1 X-37.799 Y40.468 E0.05817
G1 X-37.799 Y-6.780 E4.98377
G1 X-28.149 Y-6.780 E1.01791
G1 X-28.149 Y32.667 E4.16096
G1 X-27.424 Y31.995 F4200.000
G1 F450
G1 X-21.293 Y31.995 E0.64677
G1 X-18.293 Y40.495 E0.95079
G1 X20.344 Y40.495 E4.07544
G1 X23.344 Y31.995 E0.95079
G1 X29.476 Y31.995 E0.64677
G1 X29.476 Y-7.505 E4.16650
G1 X40.576 Y-7.505 E1.17084
G1 X40.576 Y40.515 E5.06525
G1 X40.485 Y41.204 E0.07325
G1 X40.231 Y41.818 E0.07011
G1 X39.826 Y42.345 E0.07011
G1 X39.298 Y42.750 E0.07021
G1 X38.685 Y43.004 E0.06997
G1 X37.998 Y43.095 E0.07315
G1 X25.576 Y43.095 E1.31027
G1 X25.576 Y45.515 E0.25532
G1 X25.485 Y46.204 E0.07325
G1 X25.231 Y46.818 E0.07011
G1 X24.826 Y47.345 E0.07011
G1 X24.299 Y47.750 E0.07011
G1 X23.685 Y48.004 E0.07011
G1 X22.996 Y48.095 E0.07325
G1 X-20.945 Y48.095 E4.63494
G1 X-21.633 Y48.004 E0.07325
G1 X-22.247 Y47.750 E0.07011
G1 X-22.775 Y47.345 E0.07011
G1 X-23.179 Y46.818 E0.07011
G1 X-23.434 Y46.204 E0.07011
G1 X-23.524 Y45.515 E0.07325
G1 X-23.524 Y43.095 E0.25532
G1 X-35.946 Y43.095 E1.31023
G1 X-36.633 Y43.004 E0.07315
G1 X-37.247 Y42.750 E0.07001
G1 X-37.775 Y42.345 E0.07021
G1 X-38.179 Y41.818 E0.07011
G1 X-38.434 Y41.204 E0.07011
G1 X-38.524 Y40.515 E0.07325
G1 X-38.524 Y-7.505 E5.06525
G1 X-27.424 Y-7.505 E1.17084
G1 X-27.424 Y31.942 E4.16096
G1 X-27.392 Y32.343 F4200.000
G1 X-28.592 Y32.105 F4200.000
G1 F300
G1 X-37.357 Y23.339 E1.31382
G1 X-37.357 Y22.309 E0.10917
G1 X-28.592 Y31.074 E1.31382
G1 X-28.592 Y30.044 E0.10917
G1 X-37.357 Y21.279 E1.31382
G1 X-37.357 Y20.249 E0.10917
G1 X-28.592 Y29.014 E1.31382
G1 X-28.592 Y27.984 E0.10917
G1 X-37.357 Y19.219 E1.31382
G1 X-37.357 Y18.189 E0.10917
G1 X-28.592 Y26.954 E1.31382
G1 X-28.592 Y25.924 E0.10917
G1 X-37.357 Y17.159 E1.31382
G1 X-37.357 Y16.129 E0.10917
G1 X-28.592 Y24.894 E1.31382
G1 X-28.592 Y23.864 E0.10917
G1 X-37.357 Y15.099 E1.31382
G1 X-37.357 Y14.069 E0.10917
G1 X-28.592 Y22.834 E1.31382
G1 X-28.592 Y21.804 E0.10917
G1 X-37.357 Y13.039 E1.31382
G1 X-37.357 Y12.008 E0.10917
G1 X-28.592 Y20.774 E1.31382
G1 X-28.592 Y19.744 E0.10917
G1 X-37.357 Y10.978 E1.31382
G1 X-37.357 Y9.948 E0.10917
G1 X-28.592 Y18.714 E1.31382
G1 X-28.592 Y17.684 E0.10917
G1 X-37.357 Y8.918 E1.31382
G1 X-37.357 Y7.888 E0.10917
G1 X-28.592 Y16.654 E1.31382
G1 X-28.592 Y15.624 E0.10917
G1 X-37.357 Y6.858 E1.31382
G1 X-37.357 Y5.828 E0.10917
G1 X-28.592 Y14.594 E1.31382
G1 X-28.592 Y13.564 E0.10917
G1 X-37.357 Y4.798 E1.31382
G1 X-37.357 Y3.768 E0.10917
G1 X-28.592 Y12.534 E1.31382
G1 X-28.592 Y11.504 E0.10917
G1 X-37.357 Y2.738 E1.31382
G1 X-37.357 Y1.708 E0.10917
G1 X-28.592 Y10.473 E1.31382
G1 X-28.592 Y9.443 E0.10917
G1 X-37.357 Y0.678 E1.31382
G1 X-37.357 Y-0.352 E0.10917
G1 X-28.592 Y8.413 E1.31382
G1 X-28.592 Y7.383 E0.10917
G1 X-37.357 Y-1.382 E1.31382
G1 X-37.357 Y-2.412 E0.10917
G1 X-28.592 Y6.353 E1.31382
G1 X-28.592 Y5.323 E0.10917
G1 X-37.357 Y-3.442 E1.31382
G1 X-37.357 Y-4.472 E0.10917
G1 X-28.592 Y4.293 E1.31382
G1 X-28.592 Y3.263 E0.10917
G1 X-37.357 Y-5.502 E1.31382
G1 X-37.163 Y-6.338 E0.09094
G1 X-28.592 Y2.233 E1.28470
G1 X-28.592 Y1.203 E0.10917
G1 X-36.133 Y-6.338 E1.13031
G1 X-35.103 Y-6.338 E0.10917
G1 X-28.592 Y0.173 E0.97592
G1 X-28.592 Y-0.857 E0.10917
G1 X-34.073 Y-6.338 E0.82153
G1 X-33.043 Y-6.338 E0.10917
G1 X-28.592 Y-1.887 E0.66714
G1 X-28.592 Y-2.917 E0.10917
G1 X-32.013 Y-6.338 E0.51275
G1 X-30.983 Y-6.338 E0.10917
G1 X-28.592 Y-3.947 E0.35836
G1 X-28.592 Y-4.977 E0.10917
G1 X-29.952 Y-6.338 E0.20397
G1 X-28.922 Y-6.338 E0.10917
G1 X-28.592 Y-6.007 E0.04958
G1 X-27.534 Y33.162 F4200.000
G1 F300
G1 X-19.263 Y41.433 E1.23976
G1 X-19.825 Y39.841 F4200.000
G1 F300
G1 X-26.504 Y33.162 E1.00116
G1 X-25.474 Y33.162 E0.10917
G1 X-20.387 Y38.249 E0.76256
G1 X-20.948 Y36.658 F4200.000
G1 F300
G1 X-24.444 Y33.162 E0.52396
G1 X-23.414 Y33.162 E0.10917
G1 X-21.510 Y35.066 E0.28535
G1 X-22.072 Y33.474 F4200.000
G1 F300
G1 X-22.384 Y33.162 E0.04675
G1 X-22.889 Y41.927 F4200.000
G1 F300
G1 X-37.357 Y27.459 E2.16857
G1 X-37.357 Y26.429 E0.10917
G1 X-16.859 Y46.927 E3.07239
G1 X-15.829 Y46.927 E0.10917
G1 X-37.357 Y25.399 E3.22678
G1 X-37.357 Y24.369 E0.10917
G1 X-14.799 Y46.927 E3.38117
G1 X-13.769 Y46.927 E0.10917
G1 X-19.034 Y41.662 E0.78922
G1 X-18.004 Y41.662 E0.10917
G1 X-12.739 Y46.927 E0.78922
G1 X-11.709 Y46.927 E0.10917
G1 X-16.974 Y41.662 E0.78922
G1 X-15.944 Y41.662 E0.10917
G1 X-10.679 Y46.927 E0.78922
G1 X-9.649 Y46.927 E0.10917
G1 X-14.914 Y41.662 E0.78922
G1 X-13.884 Y41.662 E0.10917
G1 X-8.618 Y46.927 E0.78922
G1 X-7.588 Y46.927 E0.10917
G1 X-12.854 Y41.662 E0.78922
G1 X-11.824 Y41.662 E0.10917
G1 X-6.558 Y46.927 E0.78922
G1 X-5.528 Y46.927 E0.10917
G1 X-10.794 Y41.662 E0.78922
G1 X-9.764 Y41.662 E0.10917
G1 X-4.498 Y46.927 E0.78922
G1 X-3.468 Y46.927 E0.10917
G1 X-8.734 Y41.662 E0.78922
G1 X-7.704 Y41.662 E0.10917
G1 X-2.438 Y46.927 E0.78922
G1 X-1.408 Y46.927 E0.10917
G1 X-6.674 Y41.662 E0.78922
G1 X-5.644 Y41.662 E0.10917
G1 X-0.378 Y46.927 E0.78922
G1 X0.652 Y46.927 E0.10917
G1 X-4.614 Y41.662 E0.78922
G1 X-3.583 Y41.662 E0.10917
G1 X1.682 Y46.927 E0.78922
G1 X2.712 Y46.927 E0.10917
G1 X-2.553 Y41.662 E0.78922
G1 X-1.523 Y41.662 E0.10917
G1 X3.742 Y46.927 E0.78922
G1 X4.772 Y46.927 E0.10917
G1 X-0.493 Y41.662 E0.78922
G1 X0.537 Y41.662 E0.10917
G1 X5.802 Y46.927 E0.78922
G1 X6.832 Y46.927 E0.10917
G1 X1.567 Y41.662 E0.78922
G1 X2.597 Y41.662 E0.10917
G1 X7.862 Y46.927 E0.78922
G1 X8.892 Y46.927 E0.10917
G1 X3.627 Y41.662 E0.78922
G1 X4.657 Y41.662 E0.10917
G1 X9.922 Y46.927 E0.78922
G1 X10.952 Y46.927 E0.10917
G1 X5.687 Y41.662 E0.78922
G1 X6.717 Y41.662 E0.10917
G1 X11.982 Y46.927 E0.78922
G1 X13.013 Y46.927 E0.10917
G1 X7.747 Y41.662 E0.78922
G1 X8.777 Y41.662 E0.10917
G1 X14.043 Y46.927 E0.78922
G1 X15.073 Y46.927 E0.10917
G1 X9.807 Y41.662 E0.78922
G1 X10.837 Y41.662 E0.10917
G1 X16.103 Y46.927 E0.78922
G1 X17.133 Y46.927 E0.10917
G1 X11.867 Y41.662 E0.78922
G1 X12.897 Y41.662 E0.10917
G1 X18.163 Y46.927 E0.78922
G1 X19.193 Y46.927 E0.10917
G1 X13.927 Y41.662 E0.78922
G1 X14.957 Y41.662 E0.10917
G1 X20.223 Y46.927 E0.78922
G1 X21.253 Y46.927 E0.10917
G1 X15.987 Y41.662 E0.78922
G1 X17.017 Y41.662 E0.10917
G1 X22.283 Y46.927 E0.78922
G1 X23.284 Y46.898 E0.10614
G1 X18.048 Y41.662 E0.78487
G1 X19.078 Y41.662 E0.10917
G1 X24.001 Y46.585 E0.73790
G1 X24.364 Y45.918 E0.08047
G1 X20.108 Y41.662 E0.63799
G1 X21.128 Y41.652 E0.10817
G1 X24.408 Y44.933 E0.49165
G1 X24.408 Y43.903 E0.10917
G1 X21.397 Y40.891 E0.45137
G1 X21.666 Y40.130 E0.08557
G1 X24.408 Y42.873 E0.41110
G1 X24.493 Y41.927 E0.10057
G1 X21.934 Y39.368 E0.38355
G1 X22.203 Y38.607 E0.08557
G1 X25.523 Y41.927 E0.49767
G1 X26.553 Y41.927 E0.10917
G1 X22.472 Y37.846 E0.61178
G1 X22.740 Y37.084 E0.08557
G1 X27.583 Y41.927 E0.72590
G1 X28.614 Y41.927 E0.10917
G1 X23.009 Y36.323 E0.84001
G1 X23.278 Y35.562 E0.08557
G1 X29.644 Y41.927 E0.95412
G1 X30.674 Y41.927 E0.10917
G1 X23.547 Y34.800 E1.06824
G1 X23.815 Y34.039 E0.08557
G1 X31.704 Y41.927 E1.18235
G1 X32.734 Y41.927 E0.10917
G1 X24.084 Y33.278 E1.29647
G1 X24.998 Y33.162 E0.09767
G1 X33.764 Y41.927 E1.31382
G1 X34.794 Y41.927 E0.10917
G1 X26.028 Y33.162 E1.31382
G1 X27.058 Y33.162 E0.10917
G1 X35.824 Y41.927 E1.31382
G1 X36.854 Y41.927 E0.10917
G1 X28.088 Y33.162 E1.31382
G1 X29.118 Y33.162 E0.10917
G1 X37.884 Y41.927 E1.31382
G1 X38.751 Y41.764 E0.09351
G1 X30.149 Y33.162 E1.28939
G1 X30.643 Y32.626 F4200.000
G1 F300
G1 X39.257 Y41.241 E1.29117
G1 X39.408 Y40.362 E0.09452
G1 X30.643 Y31.596 E1.31382
G1 X30.643 Y30.566 E0.10917
G1 X39.408 Y39.332 E1.31382
G1 X39.408 Y38.302 E0.10917
G1 X30.643 Y29.536 E1.31382
G1 X30.643 Y28.506 E0.10917
G1 X39.408 Y37.272 E1.31382
G1 X39.408 Y36.241 E0.10917
G1 X30.643 Y27.476 E1.31382
G1 X30.643 Y26.446 E0.10917
G1 X39.408 Y35.211 E1.31382
G1 X39.408 Y34.181 E0.10917
G1 X30.643 Y25.416 E1.31382
G1 X30.643 Y24.386 E0.10917
G1 X39.408 Y33.151 E1.31382
G1 X39.408 Y32.121 E0.10917
G1 X30.643 Y23.356 E1.31382
G1 X30.643 Y22.326 E0.10917
G1 X39.408 Y31.091 E1.31382
G1 X39.408 Y30.061 E0.10917
G1 X30.643 Y21.296 E1.31382
G1 X30.643 Y20.266 E0.10917
G1 X39.408 Y29.031 E1.31382
G1 X39.408 Y28.001 E0.10917
G1 X30.643 Y19.236 E1.31382
G1 X30.643 Y18.206 E0.10917
G1 X39.408 Y26.971 E1.31382
G1 X39.408 Y25.941 E0.10917
G1 X30.643 Y17.175 E1.31382
G1 X30.643 Y16.145 E0.10917
G1 X39.408 Y24.911 E1.31382
G1 X39.408 Y23.881 E0.10917
G1 X30.643 Y15.115 E1.31382
G1 X30.643 Y14.085 E0.10917
G1 X39.408 Y22.851 E1.31382
G1 X39.408 Y21.821 E0.10917
G1 X30.643 Y13.055 E1.31382
G1 X30.643 Y12.025 E0.10917
G1 X39.408 Y20.791 E1.31382
G1 X39.408 Y19.761 E0.10917
G1 X30.643 Y10.995 E1.31382
G1 X30.643 Y9.965 E0.10917
G1 X39.408 Y18.731 E1.31382
G1 X39.408 Y17.701 E0.10917
G1 X30.643 Y8.935 E1.31382
G1 X30.643 Y7.905 E0.10917
G1 X39.408 Y16.671 E1.31382
G1 X39.408 Y15.640 E0.10917
G1 X30.643 Y6.875 E1.31382
G1 X30.643 Y5.845 E0.10917
G1 X39.408 Y14.610 E1.31382
G1 X39.408 Y13.580 E0.10917
G1 X30.643 Y4.815 E1.31382
G1 X30.643 Y3.785 E0.10917
G1 X39.408 Y12.550 E1.31382
G1 X39.408 Y11.520 E0.10917
G1 X30.643 Y2.755 E1.31382
G1 X30.643 Y1.725 E0.10917
G1 X39.408 Y10.490 E1.31382
G1 X39.408 Y9.460 E0.10917
G1 X30.643 Y0.695 E1.31382
G1 X30.643 Y-0.335 E0.10917
G1 X39.408 Y8.430 E1.31382
G1 X39.408 Y7.400 E0.10917
G1 X30.643 Y-1.365 E1.31382
G1 X30.643 Y-2.395 E0.10917
G1 X39.408 Y6.370 E1.31382
G1 X39.408 Y5.340 E0.10917
G1 X30.643 Y-3.426 E1.31382
G1 X30.643 Y-4.456 E0.10917
G1 X39.408 Y4.310 E1.31382
G1 X39.408 Y3.280 E0.10917
G1 X30.643 Y-5.486 E1.31382
G1 X30.820 Y-6.338 E0.09229
G1 X39.408 Y2.250 E1.28721
G1 X39.408 Y1.220 E0.10917
G1 X31.850 Y-6.338 E1.13282
G1 X32.881 Y-6.338 E0.10917
G1 X39.408 Y0.190 E0.97843
G1 X39.408 Y-0.840 E0.10917
G1 X33.911 Y-6.338 E0.82404
G1 X34.941 Y-6.338 E0.10917
G1 X39.408 Y-1.870 E0.66965
G1 X39.408 Y-2.900 E0.10917
G1 X35.971 Y-6.338 E0.51526
G1 X37.001 Y-6.338 E0.10917
G1 X39.408 Y-3.930 E0.36087
G1 X39.408 Y-4.961 E0.10917
G1 X38.031 Y-6.338 E0.20648
G1 X39.061 Y-6.338 E0.10917
G1 X39.408 Y-5.991 E0.05209
G1 E-4.00000 F1980.00000
G1 X-22.357 Y42.459 F4200.000
G1 E4.00000 F1980.00000
G1 F300
G1 X-17.889 Y46.927 E0.66972
G1 X-18.919 Y46.927 E0.10917
G1 X-22.357 Y43.489 E0.51533
G1 X-22.357 Y44.519 E0.10917
G1 X-19.949 Y46.927 E0.36094
G1 X-21.021 Y46.886 E0.11367
G1 X-22.315 Y45.591 E0.19407
G1 X-23.919 Y41.927 F4200.000
G1 F300
G1 X-37.357 Y28.489 E2.01418
G1 X-37.357 Y29.519 E0.10917
G1 X-24.949 Y41.927 E1.85979
G1 X-25.979 Y41.927 E0.10917
G1 X-37.357 Y30.549 E1.70540
G1 X-37.357 Y31.579 E0.10917
G1 X-27.009 Y41.927 E1.55101
G1 X-28.039 Y41.927 E0.10917
G1 X-37.357 Y32.609 E1.39662
G1 X-37.357 Y33.640 E0.10917
G1 X-29.069 Y41.927 E1.24223
G1 X-30.099 Y41.927 E0.10917
G1 X-37.357 Y34.670 E1.08784
G1 X-37.357 Y35.700 E0.10917
G1 X-31.129 Y41.927 E0.93345
G1 X-32.159 Y41.927 E0.10917
G1 X-37.357 Y36.730 E0.77907
G1 X-37.357 Y37.760 E0.10917
G1 X-33.189 Y41.927 E0.62468
G1 X-34.219 Y41.927 E0.10917
G1 X-37.357 Y38.790 E0.47029
G1 X-37.357 Y39.820 E0.10917
G1 X-35.250 Y41.927 E0.31590
G1 X-36.556 Y41.650 E0.14159
G1 X-37.080 Y41.127 E0.07850
G1 E-4.00000 F1980.00000
G1 Z0.350 F4200.000
G1 X21.789 Y-13.220 F4200.000
G1 E4.00000 F1980.00000
G1 F450
G1 X18.732 Y-21.370 E0.91815
G1 X37.799 Y-21.370 E2.01123
G1 X37.799 Y-13.220 E0.85969
G1 X21.841 Y-13.220 E1.68331
G1 E-4.00000 F1980.00000
G1 X-20.784 Y-21.370 F4200.000
G1 E4.00000 F1980.00000
G1 F450
G1 X-23.840 Y-13.220 E0.91815
G1 X-39.851 Y-13.220 E1.68885
G1 X-39.851 Y-21.370 E0.85969
G1 X-20.836 Y-21.370 E2.00569
G1 X-20.337 Y-20.495 F4200.000
G1 F450
G1 X-23.337 Y-12.495 E0.90123
G1 X-40.576 Y-12.495 E1.81830
G1 X-40.576 Y-22.095 E1.01262
G1 X38.524 Y-22.095 E8.34354
G1 X38.524 Y-12.495 E1.01262
G1 X21.286 Y-12.495 E1.81830
G1 X18.286 Y-20.495 E0.90123
G1 X-20.285 Y-20.495 E4.06852
G1 X-20.672 Y-20.599 F4200.000
G1 X-20.425 Y-21.295 F4200.000
G1 F300
G1 X18.373 Y-21.295 E5.22155
G1 X20.152 Y-19.026 F4200.000
G1 F300
G1 X25.516 Y-13.662 E0.81348
G1 X26.558 Y-13.662 E0.11176
G1 X19.526 Y-20.694 E1.06635
G1 X20.335 Y-20.927 E0.09023
G1 X27.600 Y-13.662 E1.10182
G1 X28.642 Y-13.662 E0.11176
G1 X21.377 Y-20.927 E1.10182
G1 X22.419 Y-20.927 E0.11176
G1 X29.685 Y-13.662 E1.10182
G1 X30.727 Y-13.662 E0.11176
G1 X23.461 Y-20.927 E1.10182
G1 X24.503 Y-20.927 E0.11176
G1 X31.769 Y-13.662 E1.10182
G1 X32.811 Y-13.662 E0.11176
G1 X25.546 Y-20.927 E1.10182
G1 X26.588 Y-20.927 E0.11176
G1 X33.853 Y-13.662 E1.10182
G1 X34.895 Y-13.662 E0.11176
G1 X27.630 Y-20.927 E1.10182
G1 X28.672 Y-20.927 E0.11176
G1 X35.938 Y-13.662 E1.10182
G1 X36.980 Y-13.662 E0.11176
G1 X29.714 Y-20.927 E1.10182
G1 X30.756 Y-20.927 E0.11176
G1 X37.357 Y-14.327 E1.00099
G1 X37.357 Y-15.369 E0.11176
G1 X31.799 Y-20.927 E0.84294
G1 X32.841 Y-20.927 E0.11176
