; generated by Slic3r 1.3.0-dev on 2016-03-29 at 18:52:16

; external perimeters extrusion width = 0.50mm
; perimeters extrusion width = 0.50mm
; infill extrusion width = 0.50mm
; solid infill extrusion width = 0.50mm
; top infill extrusion width = 0.50mm

M107
M190 S100 ; set bed temperature and wait for it to be reached
M104 S210 ; set temperature
G28                                                        ; Home all axes
M83                                                       ; Set extruder to relative mode
T0                                                          ; Turn tool on
G1 E5 F1980                                         ; Prime the extruder
M300 S4100 P100                                ; Play a tone
M84 S0                                                  ; Keep motors on


M109 S210 ; set temperature and wait for it to be reached
G21 ; set units to millimeters
G90 ; use absolute coordinates
M83 ; use relative distances for extrusion
G1 E-4.00000 F1980.00000
G1 Z0.350 F4200.000
G1 X39.950 Y1.325 F4200.000
G1 E4.00000 F1980.00000
G1 F300
G1 X41.619 Y1.720 E0.18086
G1 X42.934 Y2.820 E0.18086
G1 X43.675 Y5.050 E0.24788
G1 X43.675 Y20.950 E1.67715
G1 X43.280 Y22.619 E0.18086
G1 X42.180 Y23.934 E0.18086
G1 X39.950 Y24.675 E0.24788
G1 X-39.950 Y24.675 E8.42792
G1 X-41.619 Y24.280 E0.18086
G1 X-42.934 Y23.180 E0.18086
G1 X-43.675 Y20.950 E0.24788
G1 X-43.675 Y5.050 E1.67715
G1 X-43.280 Y3.381 E0.18086
G1 X-42.180 Y2.066 E0.18086
G1 X-39.950 Y1.325 E0.24788
G1 X39.898 Y1.325 E8.42239
G1 E-4.00000 F1980.00000
G1 X29.615 Y10.541 F4200.000
G1 E4.00000 F1980.00000
G1 F450
G1 X30.333 Y9.776 E0.11063
G1 X31.221 Y9.212 E0.11099
G1 X32.238 Y8.888 E0.11256
G1 F450
G1 X33.263 Y8.824 E0.10828
G1 X34.293 Y9.021 E0.11063
G1 X35.242 Y9.467 E0.11063
G1 X36.050 Y10.136 E0.11063
G1 X36.667 Y10.984 E0.11063
G1 X37.053 Y11.959 E0.11063
G1 X37.184 Y13.000 E0.11063
G1 X37.053 Y14.041 E0.11063
G1 X36.675 Y14.995 E0.10828
G1 X36.053 Y15.862 E0.11256
G1 X35.242 Y16.533 E0.11099
G1 X34.313 Y16.970 E0.10828
G1 X33.266 Y17.176 E0.11256
G1 X32.216 Y17.110 E0.11099
G1 X31.218 Y16.786 E0.11063
G1 X30.333 Y16.224 E0.11063
G1 X29.615 Y15.459 E0.11063
G1 X29.110 Y14.540 E0.11063
G1 X28.849 Y13.524 E0.11063
G1 X28.849 Y12.476 E0.11063
G1 X29.110 Y11.460 E0.11063
G1 X29.590 Y10.587 E0.10509
G1 X30.206 Y10.970 F4200.000
G1 F450
G1 X30.799 Y10.339 E0.09132
G1 X31.531 Y9.874 E0.09144
G1 X32.373 Y9.606 E0.09324
G1 F450
G1 X33.217 Y9.553 E0.08920
G1 X34.067 Y9.715 E0.09131
G1 X34.851 Y10.084 E0.09132
G1 X35.518 Y10.636 E0.09131
G1 X36.026 Y11.336 E0.09131
G1 X36.345 Y12.141 E0.09131
G1 X36.454 Y13.000 E0.09132
G1 X36.345 Y13.859 E0.09131
G1 X36.034 Y14.645 E0.08920
G1 X35.518 Y15.363 E0.09324
G1 X34.851 Y15.916 E0.09144
G1 X34.085 Y16.276 E0.08920
G1 X33.218 Y16.447 E0.09324
G1 X32.353 Y16.392 E0.09144
G1 X31.530 Y16.125 E0.09131
G1 X30.799 Y15.661 E0.09131
G1 X30.206 Y15.030 E0.09131
G1 X29.789 Y14.271 E0.09131
G1 X29.574 Y13.433 E0.09131
G1 X29.574 Y12.567 E0.09132
G1 X29.789 Y11.729 E0.09131
G1 X30.181 Y11.016 E0.08578
G1 X30.206 Y10.970 F4200.000
G1 X-28.816 Y13.000 F4200.000
G1 F450
G1 X-28.947 Y14.041 E0.11063
G1 X-29.333 Y15.016 E0.11063
G1 X-29.950 Y15.864 E0.11063
G1 X-30.758 Y16.533 E0.11063
G1 X-31.707 Y16.979 E0.11063
G1 X-32.737 Y17.176 E0.11063
G1 X-33.784 Y17.110 E0.11063
G1 X-34.782 Y16.786 E0.11063
G1 X-35.667 Y16.224 E0.11063
G1 X-36.385 Y15.459 E0.11063
G1 X-36.890 Y14.540 E0.11063
G1 X-37.151 Y13.524 E0.11063
G1 X-37.151 Y12.476 E0.11063
G1 X-36.890 Y11.460 E0.11063
G1 X-36.385 Y10.541 E0.11063
G1 X-35.667 Y9.776 E0.11063
G1 X-34.782 Y9.214 E0.11063
G1 X-33.784 Y8.890 E0.11063
G1 X-33.570 Y8.876 E0.02258
G1 F450
G1 X-32.737 Y8.824 E0.08805
G1 X-31.707 Y9.021 E0.11063
G1 X-30.758 Y9.467 E0.11063
G1 X-29.950 Y10.136 E0.11063
G1 X-29.333 Y10.984 E0.11063
G1 X-28.947 Y11.959 E0.11063
G1 X-28.822 Y12.948 E0.10510
G1 X-29.546 Y13.000 F4200.000
G1 F450
G1 X-29.655 Y13.859 E0.09131
G1 X-29.974 Y14.664 E0.09131
G1 X-30.482 Y15.364 E0.09131
G1 X-31.149 Y15.916 E0.09131
G1 X-31.933 Y16.285 E0.09131
G1 X-32.783 Y16.447 E0.09131
G1 X-33.647 Y16.392 E0.09131
G1 X-34.470 Y16.125 E0.09131
G1 X-35.201 Y15.661 E0.09131
G1 X-35.794 Y15.030 E0.09131
G1 X-36.211 Y14.271 E0.09131
G1 X-36.426 Y13.433 E0.09131
G1 X-36.426 Y12.567 E0.09131
G1 X-36.211 Y11.729 E0.09131
G1 X-35.794 Y10.970 E0.09131
G1 X-35.201 Y10.339 E0.09131
G1 X-34.470 Y9.875 E0.09131
G1 X-33.647 Y9.608 E0.09131
G1 X-33.525 Y9.600 E0.01292
G1 F450
G1 X-32.783 Y9.553 E0.07839
G1 X-31.933 Y9.715 E0.09131
G1 X-31.149 Y10.084 E0.09131
G1 X-30.482 Y10.636 E0.09131
G1 X-29.974 Y11.336 E0.09131
G1 X-29.655 Y12.141 E0.09131
G1 X-29.553 Y12.948 E0.08578
G1 X-29.546 Y13.000 F4200.000
G1 E-4.00000 F1980.00000
G1 X-38.825 Y6.175 F4200.000
G1 E4.00000 F1980.00000
G1 F450
G1 X38.825 Y6.175 E8.19061
G1 X38.825 Y19.825 E1.43984
G1 X-38.825 Y19.825 E8.19061
G1 X-38.825 Y6.227 E1.43430
G1 X-39.550 Y5.450 F4200.000
G1 F450
G1 X39.550 Y5.450 E8.34354
G1 X39.550 Y20.550 E1.59276
G1 X-39.550 Y20.550 E8.34354
G1 X-39.550 Y5.502 E1.58722
G1 X-39.201 Y5.472 F4200.000
G1 X-37.988 Y12.107 F4200.000
G1 F300
G1 X-37.988 Y13.893 E0.24047
G1 X-38.035 Y19.383 F4200.000
G1 F300
G1 X-38.383 Y19.035 E0.05223
G1 X-38.383 Y18.002 E0.10979
G1 X-37.002 Y19.383 E0.20750
G1 X-35.969 Y19.383 E0.10979
G1 X-38.383 Y16.969 E0.36277
G1 X-38.383 Y15.936 E0.10979
G1 X-34.936 Y19.383 E0.51804
G1 E-4.00000 F1980.00000
G1 X-28.727 Y11.130 F4200.000
G1 E4.00000 F1980.00000
G1 F300
G1 X-20.475 Y19.383 E1.24047
G1 X-21.508 Y19.383 E0.10979
G1 X-28.416 Y12.475 E1.03835
G1 X-28.448 Y13.475 E0.10639
G1 X-22.541 Y19.383 E0.88797
G1 X-23.574 Y19.383 E0.10979
G1 X-28.633 Y14.324 E0.76045
G1 X-28.926 Y15.064 E0.08459
G1 X-24.607 Y19.383 E0.64922
G1 X-25.640 Y19.383 E0.10979
G1 X-29.344 Y15.679 E0.55676
G1 X-29.812 Y16.243 E0.07797
G1 X-26.673 Y19.383 E0.47192
G1 X-27.705 Y19.383 E0.10979
G1 X-30.377 Y16.711 E0.40163
G1 X-31.028 Y17.093 E0.08022
G1 X-28.738 Y19.383 E0.34420
G1 X-29.771 Y19.383 E0.10979
G1 X-31.744 Y17.410 E0.29649
G1 X-32.611 Y17.576 E0.09387
G1 X-30.804 Y19.383 E0.27161
G1 X-31.837 Y19.383 E0.10979
G1 X-33.648 Y17.572 E0.27220
G1 X-35.022 Y17.231 E0.15048
G1 X-32.870 Y19.383 E0.32347
G1 X-33.903 Y19.383 E0.10979
G1 X-38.383 Y14.903 E0.67331
G1 X-37.243 Y15.010 E0.12163
G1 X-38.383 Y13.870 E0.17126
G1 X-37.594 Y13.627 E0.08779
G1 X-38.383 Y12.837 E0.11862
G1 X-37.594 Y12.594 E0.08779
G1 X-38.383 Y11.804 E0.11862
G1 X-38.383 Y10.771 E0.10979
G1 X-37.391 Y11.764 E0.14913
G1 X-37.094 Y11.027 E0.08440
G1 X-38.383 Y9.738 E0.19365
G1 X-38.383 Y8.705 E0.10979
G1 X-36.728 Y10.360 E0.24873
G1 X-36.232 Y9.824 E0.07769
G1 X-38.383 Y7.673 E0.32335
G1 X-38.374 Y6.648 E0.10885
G1 X-35.688 Y9.334 E0.40374
G1 X-35.056 Y8.933 E0.07955
G1 X-37.372 Y6.617 E0.34815
G1 X-36.339 Y6.617 E0.10979
G1 X-34.317 Y8.640 E0.30401
G1 X-33.486 Y8.437 E0.09085
G1 X-35.306 Y6.617 E0.27357
G1 X-34.273 Y6.617 E0.10979
G1 X-32.504 Y8.386 E0.26586
G1 X-31.154 Y8.703 E0.14743
G1 X-33.240 Y6.617 E0.31356
G1 X-32.207 Y6.617 E0.10979
G1 X-19.442 Y19.383 E1.91880
G1 X-18.409 Y19.383 E0.10979
G1 X-31.174 Y6.617 E1.91880
G1 X-30.141 Y6.617 E0.10979
G1 X-17.376 Y19.383 E1.91880
G1 X-16.343 Y19.383 E0.10979
G1 X-29.108 Y6.617 E1.91880
G1 X-28.075 Y6.617 E0.10979
G1 X-15.310 Y19.383 E1.91880
G1 X-14.277 Y19.383 E0.10979
G1 X-27.042 Y6.617 E1.91880
G1 X-26.009 Y6.617 E0.10979
G1 X-13.244 Y19.383 E1.91880
G1 X-12.211 Y19.383 E0.10979
G1 X-24.976 Y6.617 E1.91880
G1 X-23.943 Y6.617 E0.10979
G1 X-11.178 Y19.383 E1.91880
G1 X-10.145 Y19.383 E0.10979
G1 X-22.910 Y6.617 E1.91880
G1 X-21.877 Y6.617 E0.10979
G1 X-9.112 Y19.383 E1.91880
G1 X-8.079 Y19.383 E0.10979
G1 X-20.844 Y6.617 E1.91880
G1 X-19.811 Y6.617 E0.10979
G1 X-7.046 Y19.383 E1.91880
G1 X-6.013 Y19.383 E0.10979
G1 X-18.778 Y6.617 E1.91880
G1 X-17.746 Y6.617 E0.10979
G1 X-4.980 Y19.383 E1.91880
G1 X-3.947 Y19.383 E0.10979
G1 X-16.713 Y6.617 E1.91880
G1 X-15.680 Y6.617 E0.10979
G1 X-2.914 Y19.383 E1.91880
G1 X-1.881 Y19.383 E0.10979
G1 X-14.647 Y6.617 E1.91880
G1 X-13.614 Y6.617 E0.10979
G1 X-0.848 Y19.383 E1.91880
G1 X0.185 Y19.383 E0.10979
G1 X-12.581 Y6.617 E1.91880
G1 X-11.548 Y6.617 E0.10979
G1 X1.218 Y19.383 E1.91880
G1 X2.251 Y19.383 E0.10979
G1 X-10.515 Y6.617 E1.91880
G1 X-9.482 Y6.617 E0.10979
G1 X3.284 Y19.383 E1.91880
G1 X4.317 Y19.383 E0.10979
G1 X-8.449 Y6.617 E1.91880
G1 X-7.416 Y6.617 E0.10979
G1 X5.350 Y19.383 E1.91880
G1 X6.383 Y19.383 E0.10979
G1 X-6.383 Y6.617 E1.91880
G1 X-5.350 Y6.617 E0.10979
G1 X7.416 Y19.383 E1.91880
G1 X8.449 Y19.383 E0.10979
G1 X-4.317 Y6.617 E1.91880
G1 X-3.284 Y6.617 E0.10979
G1 X9.482 Y19.383 E1.91880
G1 X10.515 Y19.383 E0.10979
G1 X-2.251 Y6.617 E1.91880
G1 X-1.218 Y6.617 E0.10979
G1 X11.548 Y19.383 E1.91880
G1 X12.581 Y19.383 E0.10979
G1 X-0.185 Y6.617 E1.91880
G1 X0.848 Y6.617 E0.10979
G1 X13.614 Y19.383 E1.91880
G1 X14.647 Y19.383 E0.10979
G1 X1.881 Y6.617 E1.91880
G1 X2.914 Y6.617 E0.10979
G1 X15.680 Y19.383 E1.91880
G1 X16.712 Y19.383 E0.10979
G1 X3.947 Y6.617 E1.91880
G1 X4.980 Y6.617 E0.10979
G1 X17.745 Y19.383 E1.91880
G1 X18.778 Y19.383 E0.10979
G1 X6.013 Y6.617 E1.91880
G1 X7.046 Y6.617 E0.10979
G1 X19.811 Y19.383 E1.91880
G1 X20.844 Y19.383 E0.10979
G1 X8.079 Y6.617 E1.91880
G1 X9.112 Y6.617 E0.10979
G1 X21.877 Y19.383 E1.91880
G1 X22.910 Y19.383 E0.10979
G1 X10.145 Y6.617 E1.91880
G1 X11.178 Y6.617 E0.10979
G1 X23.943 Y19.383 E1.91880
G1 X24.976 Y19.383 E0.10979
G1 X12.211 Y6.617 E1.91880
G1 X13.244 Y6.617 E0.10979
G1 X26.009 Y19.383 E1.91880
G1 X27.042 Y19.383 E0.10979
G1 X14.277 Y6.617 E1.91880
G1 X15.310 Y6.617 E0.10979
G1 X28.075 Y19.383 E1.91880
G1 X29.108 Y19.383 E0.10979
G1 X16.343 Y6.617 E1.91880
G1 X17.376 Y6.617 E0.10979
G1 X30.141 Y19.383 E1.91880
G1 X31.174 Y19.383 E0.10979
G1 X18.409 Y6.617 E1.91880
G1 X19.442 Y6.617 E0.10979
G1 X32.207 Y19.383 E1.91880
G1 X31.141 Y17.284 F4200.000
G1 F300
G1 X33.240 Y19.383 E0.31548
G1 X34.273 Y19.383 E0.10979
G1 X32.470 Y17.579 E0.27108
G1 X33.481 Y17.557 E0.10749
G1 X35.306 Y19.383 E0.27437
G1 X36.339 Y19.383 E0.10979
G1 X34.344 Y17.387 E0.29992
G1 X35.047 Y17.057 E0.08254
G1 X37.372 Y19.383 E0.34952
G1 X38.374 Y19.352 E0.10654
G1 X35.683 Y16.661 E0.40447
G1 X36.248 Y16.193 E0.07798
G1 X38.383 Y18.328 E0.32083
G1 X38.383 Y17.295 E0.10979
G1 X36.701 Y15.613 E0.25276
G1 X37.106 Y14.984 E0.07944
G1 X38.383 Y16.262 E0.19197
G1 X38.383 Y15.229 E0.10979
G1 X37.399 Y14.244 E0.14793
G1 X37.564 Y13.377 E0.09385
G1 X38.383 Y14.196 E0.12303
G1 X38.383 Y13.163 E0.10979
G1 X37.568 Y12.348 E0.12240
G1 X38.383 Y12.130 E0.08962
G1 X37.200 Y10.947 E0.17774
G1 X38.383 Y6.965 F4200.000
G1 F300
G1 X38.035 Y6.617 E0.05224
G1 X37.002 Y6.617 E0.10979
G1 X38.383 Y7.998 E0.20751
G1 X38.383 Y9.031 E0.10979
G1 X35.969 Y6.617 E0.36278
G1 X34.936 Y6.617 E0.10979
G1 X38.383 Y10.064 E0.51804
G1 X38.383 Y11.097 E0.10979
G1 X33.903 Y6.617 E0.67331
G1 X32.870 Y6.617 E0.10979
G1 X35.055 Y8.802 E0.32832
G1 X33.632 Y8.412 E0.15675
G1 X31.837 Y6.617 E0.26978
G1 X30.804 Y6.617 E0.10979
G1 X32.618 Y8.431 E0.27259
G1 X31.769 Y8.615 E0.09231
G1 X29.771 Y6.617 E0.30027
G1 X28.738 Y6.617 E0.10979
G1 X31.012 Y8.891 E0.34170
G1 X30.380 Y9.292 E0.07955
G1 X27.705 Y6.617 E0.40198
G1 X26.672 Y6.617 E0.10979
G1 X29.822 Y9.767 E0.47340
G1 X29.322 Y10.299 E0.07767
G1 X25.639 Y6.617 E0.55348
G1 X24.607 Y6.617 E0.10979
G1 X28.945 Y10.956 E0.65209
G1 X28.632 Y11.676 E0.08345
G1 X23.574 Y6.617 E0.76034
G1 X22.541 Y6.617 E0.10979
G1 X28.421 Y12.498 E0.88388
G1 X28.406 Y13.516 E0.10826
G1 X21.508 Y6.617 E1.03697
G1 X20.475 Y6.617 E0.10979
G1 X28.681 Y14.824 E1.23355
G1 E-4.00000 F1980.00000
G1 X37.950 Y13.927 F4200.000
G1 E4.00000 F1980.00000
G1 F300
G1 X38.004 Y13.057 E0.11719
G1 X37.950 Y12.073 E0.13263
G1 E-4.00000 F1980.00000
G1 Z0.550 F4200.000
G1 X-33.596 Y9.086 F4200.000
G1 E4.00000 F1980.00000
G1 F900
G1 X-31.837 Y9.421 E0.06806
G1 X-30.984 Y9.823 E0.03585
G1 X-30.257 Y10.424 E0.03585
G1 X-29.702 Y11.187 E0.03585
G1 X-29.371 Y12.024 E0.03422
G1 X-29.236 Y12.996 E0.03727
G1 X-29.355 Y13.936 E0.03601
G1 X-29.702 Y14.813 E0.03585
G1 X-30.257 Y15.576 E0.03585
G1 X-30.984 Y16.177 E0.03585
G1 X-31.837 Y16.579 E0.03585
G1 X-33.596 Y16.914 E0.06806
G1 X-33.596 Y16.732 E0.00694
G1 X-34.602 Y16.405 E0.04020
G1 X-35.399 Y15.900 E0.03585
G1 X-36.044 Y15.212 E0.03585
G1 X-36.499 Y14.385 E0.03585
G1 X-36.733 Y13.472 E0.03585
G1 X-36.733 Y12.524 E0.03601
G1 X-36.478 Y11.577 E0.03727
G1 X-36.044 Y10.788 E0.03422
G1 X-35.399 Y10.100 E0.03585
G1 X-34.602 Y9.595 E0.03585
G1 X-33.596 Y9.268 E0.04020
G1 X-33.596 Y9.138 E0.00495
G1 X-33.554 Y9.752 F4200.000
G1 F900
G1 X-33.139 Y9.726 E0.01581
G1 F900
G1 X-33.139 Y9.638 E0.00334
G1 X-31.980 Y9.859 E0.04487
G1 X-31.230 Y10.212 E0.03146
G1 X-30.593 Y10.739 E0.03146
G1 X-30.106 Y11.409 E0.03146
G1 X-29.816 Y12.141 E0.02994
G1 X-29.697 Y12.998 E0.03288
G1 X-29.801 Y13.821 E0.03152
G1 X-30.106 Y14.591 E0.03146
G1 X-30.593 Y15.261 E0.03146
G1 X-31.230 Y15.788 E0.03146
G1 X-31.980 Y16.141 E0.03146
G1 X-33.139 Y16.362 E0.04487
G1 X-33.139 Y16.274 E0.00334
G1 X-33.619 Y16.244 E0.01826
G1 X-34.406 Y15.988 E0.03146
G1 X-35.105 Y15.545 E0.03146
G1 X-35.672 Y14.941 E0.03146
G1 X-36.070 Y14.216 E0.03146
G1 X-36.276 Y13.414 E0.03146
G1 X-36.276 Y12.585 E0.03152
G1 X-36.051 Y11.749 E0.03288
G1 X-35.672 Y11.059 E0.02994
G1 X-35.105 Y10.455 E0.03146
G1 X-34.406 Y10.012 E0.03146
G1 X-33.607 Y9.755 E0.03191
G1 X-33.424 Y9.427 F4200.000
G1 X29.277 Y12.487 F4200.000
G1 F900
G1 X29.501 Y11.615 E0.03422
G1 X29.956 Y10.788 E0.03585
G1 X30.601 Y10.100 E0.03585
G1 X31.401 Y9.593 E0.03601
G1 X32.338 Y9.301 E0.03727
G1 F900
G1 X33.236 Y9.244 E0.03422
G1 X34.163 Y9.421 E0.03585
G1 X35.016 Y9.823 E0.03585
G1 X35.743 Y10.424 E0.03585
G1 X36.298 Y11.187 E0.03585
G1 X36.645 Y12.064 E0.03585
G1 X36.763 Y13.000 E0.03585
G1 X36.645 Y13.936 E0.03585
G1 X36.298 Y14.813 E0.03585
G1 X35.743 Y15.576 E0.03585
G1 X35.016 Y16.177 E0.03585
G1 X34.163 Y16.579 E0.03585
G1 X33.236 Y16.756 E0.03585
G1 X32.295 Y16.696 E0.03585
G1 X31.438 Y16.418 E0.03422
G1 X30.604 Y15.903 E0.03727
G1 X29.956 Y15.212 E0.03601
G1 X29.501 Y14.385 E0.03585
G1 X29.266 Y13.467 E0.03601
G1 X29.277 Y12.539 E0.03528
G1 X29.734 Y12.547 F4200.000
G1 F900
G1 X29.930 Y11.784 E0.02994
G1 X30.328 Y11.059 E0.03146
G1 X30.895 Y10.455 E0.03146
G1 X31.595 Y10.011 E0.03152
G1 X32.421 Y9.754 E0.03288
G1 F900
G1 X33.207 Y9.704 E0.02994
G1 X34.020 Y9.859 E0.03146
G1 X34.770 Y10.212 E0.03146
G1 X35.407 Y10.739 E0.03146
G1 X35.894 Y11.409 E0.03146
G1 X36.199 Y12.179 E0.03146
G1 X36.302 Y13.000 E0.03146
G1 X36.199 Y13.821 E0.03146
G1 X35.894 Y14.591 E0.03146
G1 X35.407 Y15.261 E0.03146
G1 X34.770 Y15.788 E0.03146
G1 X34.020 Y16.141 E0.03146
G1 X33.207 Y16.296 E0.03146
G1 X32.381 Y16.244 E0.03146
G1 X31.632 Y16.000 E0.02994
G1 X30.896 Y15.546 E0.03288
G1 X30.328 Y14.941 E0.03152
G1 X29.930 Y14.216 E0.03146
G1 X29.723 Y13.412 E0.03152
G1 X29.733 Y12.600 E0.03089
G1 X29.734 Y12.547 F4200.000
G1 E-4.00000 F1980.00000
G1 X39.243 Y5.757 F4200.000
G1 E4.00000 F1980.00000
G1 F900
G1 X39.243 Y20.243 E0.55055
G1 X-39.243 Y20.243 E2.98296
G1 X-39.243 Y5.757 E0.55055
G1 X39.190 Y5.757 E2.98096
G1 X39.700 Y5.300 F4200.000
G1 F900
G1 X39.700 Y20.700 E0.58530
G1 X-39.700 Y20.700 E3.01770
G1 X-39.700 Y5.300 E0.58530
G1 X39.647 Y5.300 E3.01571
G1 X39.545 Y5.614 F4200.000
G1 X36.923 Y14.006 F4200.000
G1 F600
G1 X38.971 Y11.957 E0.11044
G1 X38.971 Y11.309 E0.02472
G1 X37.016 Y13.264 E0.10539
G1 X36.981 Y12.651 E0.02341
G1 X38.971 Y10.661 E0.10729
G1 X38.971 Y10.012 E0.02472
G1 X36.908 Y12.075 E0.11121
G1 X36.726 Y11.609 E0.01907
G1 X38.971 Y9.364 E0.12106
G1 X38.971 Y8.715 E0.02472
G1 X36.542 Y11.145 E0.13098
G1 X36.277 Y10.762 E0.01776
G1 X38.971 Y8.067 E0.14527
G1 X38.971 Y7.419 E0.02472
G1 X36.004 Y10.386 E0.15998
G1 X35.675 Y10.067 E0.01748
G1 X38.971 Y6.770 E0.17770
G1 X38.971 Y6.122 E0.02472
G1 X35.320 Y9.773 E0.19683
G1 X34.928 Y9.517 E0.01785
G1 X38.416 Y6.029 E0.18804
G1 X37.768 Y6.029 E0.02472
G1 X34.488 Y9.309 E0.17686
G1 X34.015 Y9.133 E0.01922
G1 X37.120 Y6.029 E0.16737
G1 X36.471 Y6.029 E0.02472
