; generated by Slic3r 1.3.0-dev on 2016-03-28 at 19:09:40

; external perimeters extrusion width = 0.50mm
; perimeters extrusion width = 0.50mm
; infill extrusion width = 0.50mm
; solid infill extrusion width = 0.50mm
; top infill extrusion width = 0.50mm

M107
M190 S57 ; set bed temperature and wait for it to be reached
G28        ; Home all axes
M83;
G10 P0 S195 R160                       ; Set tool 0 operating and standby temperatures
T0

G21 ; set units to millimeters
G90 ; use absolute coordinates
M83 ; use relative distances for extrusion
G1 E-3.50000 F2400.00000
G1 Z0.500 F9000.000
G1 X59.590 Y69.296 F9000.000
G1 E3.50000 F2400.00000
G1 F1200
G1 X68.040 Y61.746 E1.63170
G1 X69.277 Y60.784 E0.22574
G1 X70.112 Y60.302 E0.13880
G1 X71.306 Y59.807 E0.18606
G1 X72.237 Y59.558 E0.13881
G1 X73.518 Y59.389 E0.18606
G1 X74.000 Y59.358 E0.06955
G1 X127.000 Y59.358 E7.63176
G1 X127.482 Y59.389 E0.06955
G1 X128.763 Y59.558 E0.18606
G1 X129.694 Y59.807 E0.13880
G1 X130.888 Y60.302 E0.18606
G1 X131.723 Y60.784 E0.13881
G1 X132.748 Y61.571 E0.18606
G1 X133.128 Y61.906 E0.07308
G1 X140.578 Y69.456 E1.52734
G1 X141.464 Y70.916 E0.24581
G1 X141.643 Y72.050 E0.16536
G1 X141.643 Y127.950 E8.04934
G1 X141.248 Y129.611 E0.24581
G1 X140.578 Y130.544 E0.16536
G1 X133.128 Y138.094 E1.52734
G1 X132.748 Y138.429 E0.07307
G1 X131.723 Y139.216 E0.18607
G1 X130.888 Y139.698 E0.13880
G1 X129.763 Y140.164 E0.17528
G1 X128.763 Y140.442 E0.14950
G1 X127.482 Y140.611 E0.18606
G1 X127.000 Y140.642 E0.06955
G1 X74.000 Y140.642 E7.63176
G1 X73.518 Y140.611 E0.06956
G1 X72.237 Y140.442 E0.18606
G1 X71.306 Y140.193 E0.13881
G1 X70.112 Y139.698 E0.18606
G1 X69.277 Y139.216 E0.13881
G1 X68.040 Y138.254 E0.22574
G1 X59.590 Y130.704 E1.63170
G1 X58.614 Y129.303 E0.24581
G1 X58.357 Y127.950 E0.19828
G1 X58.357 Y72.050 E8.04934
G1 X58.752 Y70.389 E0.24581
G1 X59.544 Y69.356 E0.18748
G1 E-3.50000 F2400.00000
G1 X123.873 Y132.296 F9000.000
G1 E3.50000 F2400.00000
G1 F900
G1 X123.873 Y131.605 E0.09955
G1 X124.070 Y130.840 E0.11376
G1 X124.450 Y130.147 E0.11376
G1 X124.991 Y129.572 E0.11376
G1 X125.658 Y129.148 E0.11376
G1 X126.409 Y128.904 E0.11376
G1 X126.957 Y128.870 E0.07901
G1 F900
G1 X127.198 Y128.854 E0.03475
G1 X127.974 Y129.002 E0.11376
G1 X128.689 Y129.339 E0.11376
G1 X129.298 Y129.842 E0.11376
G1 X129.762 Y130.482 E0.11376
G1 X130.053 Y131.216 E0.11377
G1 X130.152 Y132.000 E0.11376
G1 X130.053 Y132.784 E0.11376
G1 X129.762 Y133.518 E0.11376
G1 X129.298 Y134.158 E0.11376
G1 X128.689 Y134.661 E0.11376
G1 X127.974 Y134.998 E0.11377
G1 X127.198 Y135.146 E0.11376
G1 X126.409 Y135.096 E0.11376
G1 X125.658 Y134.852 E0.11376
G1 X124.991 Y134.428 E0.11376
G1 X124.450 Y133.853 E0.11376
G1 X124.070 Y133.160 E0.11376
G1 X123.873 Y132.371 E0.11707
G1 X124.566 Y132.296 F9000.000
G1 F900
G1 X124.566 Y131.692 E0.08695
G1 X124.719 Y131.097 E0.08856
G1 X125.015 Y130.558 E0.08856
G1 X125.436 Y130.109 E0.08856
G1 X125.955 Y129.780 E0.08856
G1 X126.540 Y129.590 E0.08856
G1 X127.001 Y129.561 E0.06641
G1 F900
G1 X127.154 Y129.551 E0.02215
G1 X127.758 Y129.667 E0.08856
G1 X128.315 Y129.928 E0.08856
G1 X128.789 Y130.320 E0.08856
G1 X129.150 Y130.818 E0.08856
G1 X129.376 Y131.390 E0.08856
G1 X129.454 Y132.000 E0.08856
G1 X129.376 Y132.610 E0.08856
G1 X129.150 Y133.182 E0.08856
G1 X128.789 Y133.680 E0.08856
G1 X128.315 Y134.072 E0.08856
G1 X127.758 Y134.333 E0.08856
G1 X127.154 Y134.449 E0.08856
G1 X126.540 Y134.410 E0.08856
G1 X125.955 Y134.220 E0.08856
G1 X125.436 Y133.891 E0.08856
G1 X125.015 Y133.442 E0.08856
G1 X124.719 Y132.903 E0.08856
G1 X124.582 Y132.369 E0.07938
G1 X124.105 Y132.102 F9000.000
G1 E-3.50000 F2400.00000
G1 X77.152 Y132.000 F9000.000
G1 E3.50000 F2400.00000
G1 F900
G1 X77.053 Y132.784 E0.11376
G1 X76.762 Y133.518 E0.11376
G1 X76.298 Y134.158 E0.11376
G1 X75.689 Y134.661 E0.11376
G1 X75.150 Y134.915 E0.08576
G1 X74.974 Y134.998 E0.02801
G1 X74.198 Y135.146 E0.11376
G1 X73.409 Y135.096 E0.11376
G1 X72.658 Y134.852 E0.11376
G1 X71.991 Y134.428 E0.11377
G1 X71.450 Y133.853 E0.11376
G1 X71.070 Y133.160 E0.11376
G1 X70.873 Y132.395 E0.11376
G1 X70.873 Y131.605 E0.11377
G1 X71.070 Y130.840 E0.11376
G1 X71.450 Y130.147 E0.11376
G1 X71.991 Y129.572 E0.11376
G1 X72.658 Y129.148 E0.11377
G1 X73.409 Y128.904 E0.11376
G1 X74.004 Y128.867 E0.08576
G1 F900
G1 X74.198 Y128.854 E0.02800
G1 X74.974 Y129.002 E0.11376
G1 X75.689 Y129.339 E0.11376
G1 X76.298 Y129.842 E0.11376
G1 X76.762 Y130.482 E0.11376
G1 X77.053 Y131.216 E0.11377
G1 X77.142 Y131.926 E0.10296
G1 X76.454 Y132.000 F9000.000
G1 F900
G1 X76.376 Y132.610 E0.08856
G1 X76.150 Y133.182 E0.08856
G1 X75.789 Y133.680 E0.08856
G1 X75.315 Y134.072 E0.08856
G1 X74.855 Y134.288 E0.07316
G1 X74.758 Y134.333 E0.01541
G1 X74.154 Y134.449 E0.08856
G1 X73.540 Y134.410 E0.08856
G1 X72.955 Y134.220 E0.08856
G1 X72.436 Y133.891 E0.08856
G1 X72.015 Y133.442 E0.08856
G1 X71.719 Y132.903 E0.08856
G1 X71.566 Y132.308 E0.08856
G1 X71.566 Y131.692 E0.08856
G1 X71.719 Y131.097 E0.08856
G1 X72.015 Y130.558 E0.08856
G1 X72.436 Y130.109 E0.08856
G1 X72.955 Y129.780 E0.08856
G1 X73.540 Y129.590 E0.08856
G1 X74.047 Y129.558 E0.07316
G1 F900
G1 X74.154 Y129.551 E0.01540
G1 X74.758 Y129.667 E0.08856
G1 X75.315 Y129.928 E0.08856
G1 X75.789 Y130.320 E0.08856
G1 X76.150 Y130.818 E0.08856
G1 X76.376 Y131.390 E0.08856
G1 X76.444 Y131.926 E0.07776
G1 X76.454 Y132.000 F9000.000
G1 E-3.50000 F2400.00000
G1 X68.857 Y126.143 F9000.000
G1 E3.50000 F2400.00000
G1 F900
G1 X68.857 Y124.227 E0.27591
G1 X68.570 Y124.133 E0.04348
G1 X68.423 Y124.336 E0.03609
G1 X68.046 Y124.648 E0.07045
G1 X67.624 Y124.846 E0.06706
G1 X67.131 Y124.948 E0.07250
G1 X66.634 Y124.917 E0.07173
G1 X66.169 Y124.766 E0.07045
G1 X65.756 Y124.504 E0.07044
G1 X65.421 Y124.147 E0.07045
G1 X65.185 Y123.718 E0.07045
G1 X65.064 Y123.245 E0.07045
G1 X65.064 Y122.755 E0.07045
G1 X65.185 Y122.282 E0.07045
G1 X65.421 Y121.853 E0.07045
G1 X66.088 Y121.143 E0.14026
G1 X63.857 Y121.143 E0.32118
G1 X63.857 Y78.857 E6.08890
G1 X66.088 Y78.857 E0.32118
G1 X65.421 Y78.147 E0.14026
G1 X65.197 Y77.739 E0.06705
G1 X65.064 Y77.254 E0.07250
G1 X65.064 Y76.755 E0.07173
G1 X65.185 Y76.281 E0.07045
G1 X65.421 Y75.853 E0.07045
G1 X65.756 Y75.496 E0.07045
G1 X66.169 Y75.234 E0.07045
G1 X66.634 Y75.083 E0.07045
G1 X67.099 Y75.054 E0.06706
G1 X67.595 Y75.140 E0.07250
G1 X68.046 Y75.352 E0.07173
G1 X68.423 Y75.664 E0.07045
G1 X68.570 Y75.867 E0.03609
G1 X68.857 Y75.773 E0.04348
G1 X68.857 Y73.857 E0.27591
G1 X131.143 Y73.857 E8.96881
G1 X131.143 Y76.149 E0.33001
G1 X131.756 Y75.496 E0.12899
G1 X132.169 Y75.234 E0.07045
G1 X132.634 Y75.083 E0.07045
G1 X133.099 Y75.054 E0.06706
G1 X133.595 Y75.140 E0.07250
G1 X134.046 Y75.352 E0.07173
G1 X134.423 Y75.664 E0.07045
G1 X134.710 Y76.060 E0.07045
G1 X134.882 Y76.493 E0.06705
G1 X134.954 Y77.000 E0.07379
G1 X134.882 Y77.507 E0.07379
G1 X134.710 Y77.940 E0.06706
G1 X134.423 Y78.336 E0.07045
G1 X133.793 Y78.857 E0.11774
G1 X136.143 Y78.857 E0.33838
G1 X136.143 Y121.143 E6.08890
G1 X133.793 Y121.143 E0.33838
G1 X134.423 Y121.664 E0.11774
G1 X134.710 Y122.060 E0.07045
G1 X134.882 Y122.493 E0.06706
G1 X134.954 Y123.000 E0.07379
G1 X134.882 Y123.507 E0.07379
G1 X134.710 Y123.940 E0.06706
G1 X134.423 Y124.336 E0.07045
G1 X134.046 Y124.648 E0.07045
G1 X133.624 Y124.846 E0.06706
G1 X133.131 Y124.948 E0.07250
G1 X132.634 Y124.917 E0.07173
G1 X132.169 Y124.766 E0.07045
G1 X131.756 Y124.504 E0.07045
G1 X131.143 Y123.851 E0.12898
G1 X131.143 Y126.143 E0.33001
G1 X68.932 Y126.143 E8.95801
G1 X69.550 Y125.450 F9000.000
G1 F900
G1 X69.550 Y123.029 E0.34854
G1 X69.459 Y122.341 E0.09999
G1 X69.205 Y121.727 E0.09571
G1 X68.800 Y121.200 E0.09571
G1 X68.273 Y120.795 E0.09571
G1 X67.659 Y120.541 E0.09571
G1 X66.971 Y120.450 E0.09999
G1 X64.550 Y120.450 E0.34854
G1 X64.550 Y79.550 E5.88941
G1 X66.971 Y79.550 E0.34854
G1 X67.659 Y79.459 E0.09999
G1 X68.273 Y79.205 E0.09571
G1 X68.800 Y78.800 E0.09571
G1 X69.205 Y78.273 E0.09571
G1 X69.459 Y77.659 E0.09571
G1 X69.550 Y76.971 E0.09999
G1 X69.550 Y74.550 E0.34854
G1 X130.450 Y74.550 E8.76932
G1 X130.450 Y76.971 E0.34854
G1 X130.541 Y77.659 E0.09999
G1 X130.795 Y78.273 E0.09571
G1 X131.200 Y78.800 E0.09571
G1 X131.727 Y79.205 E0.09571
G1 X132.341 Y79.459 E0.09571
G1 X133.029 Y79.550 E0.09999
G1 X135.450 Y79.550 E0.34854
G1 X135.450 Y120.450 E5.88941
G1 X133.029 Y120.450 E0.34854
G1 X132.341 Y120.541 E0.09999
G1 X131.727 Y120.795 E0.09571
G1 X131.200 Y121.200 E0.09571
G1 X130.795 Y121.727 E0.09571
G1 X130.541 Y122.341 E0.09571
G1 X130.450 Y123.029 E0.09999
G1 X130.450 Y125.450 E0.34854
G1 X69.625 Y125.450 E8.75852
G1 X69.050 Y125.457 F9000.000
G1 E-3.50000 F2400.00000
G1 X67.079 Y78.251 F9000.000
G1 E3.50000 F2400.00000
G1 F900
G1 X66.765 Y78.231 E0.04525
G1 X66.483 Y78.140 E0.04267
G1 X66.203 Y77.968 E0.04730
G1 X65.986 Y77.737 E0.04572
G1 X65.843 Y77.477 E0.04267
G1 X65.756 Y77.160 E0.04730
G1 X65.756 Y76.843 E0.04572
G1 X65.834 Y76.539 E0.04525
G1 X65.986 Y76.263 E0.04525
G1 X66.201 Y76.034 E0.04525
G1 X66.466 Y75.866 E0.04525
G1 X66.765 Y75.769 E0.04525
G1 F900
G1 X67.061 Y75.750 E0.04267
G1 X67.384 Y75.806 E0.04730
G1 X67.672 Y75.942 E0.04572
G1 X67.914 Y76.142 E0.04525
G1 X68.099 Y76.396 E0.04525
G1 X68.214 Y76.688 E0.04525
G1 X68.254 Y77.000 E0.04525
G1 X68.214 Y77.312 E0.04525
G1 X68.099 Y77.604 E0.04525
G1 X67.914 Y77.858 E0.04525
G1 X67.672 Y78.058 E0.04525
G1 X67.387 Y78.192 E0.04525
G1 X67.152 Y78.237 E0.03445
G1 X67.079 Y78.251 F9000.000
G1 E-3.50000 F2400.00000
G1 X67.061 Y121.750 F9000.000
G1 E3.50000 F2400.00000
G1 F900
G1 X67.384 Y121.806 E0.04730
G1 X67.672 Y121.942 E0.04572
G1 X67.914 Y122.142 E0.04525
G1 X68.099 Y122.396 E0.04525
G1 X68.214 Y122.688 E0.04525
G1 X68.254 Y123.000 E0.04525
G1 X68.214 Y123.312 E0.04525
G1 X68.099 Y123.604 E0.04525
G1 X67.914 Y123.858 E0.04525
G1 X67.672 Y124.058 E0.04525
G1 X67.404 Y124.185 E0.04267
G1 X67.082 Y124.251 E0.04730
G1 X66.765 Y124.231 E0.04572
G1 X66.466 Y124.134 E0.04525
G1 X66.201 Y123.966 E0.04524
G1 X65.986 Y123.737 E0.04525
G1 X65.834 Y123.461 E0.04525
G1 X65.756 Y123.157 E0.04525
G1 X65.756 Y122.843 E0.04525
G1 X65.834 Y122.539 E0.04525
G1 X65.986 Y122.263 E0.04525
G1 X66.201 Y122.034 E0.04525
G1 X66.466 Y121.866 E0.04525
G1 X66.765 Y121.769 E0.04525
G1 F900
G1 X66.986 Y121.755 E0.03187
G1 X67.061 Y121.750 F9000.000
G1 E-3.50000 F2400.00000
G1 X131.756 Y122.843 F9000.000
G1 E3.50000 F2400.00000
G1 F900
G1 X131.830 Y122.556 E0.04267
G1 X131.984 Y122.266 E0.04730
G1 X132.201 Y122.034 E0.04572
G1 X132.466 Y121.866 E0.04525
G1 X132.765 Y121.769 E0.04525
G1 F900
G1 X133.061 Y121.750 E0.04267
G1 X133.384 Y121.806 E0.04730
G1 X133.672 Y121.942 E0.04572
G1 X133.914 Y122.142 E0.04525
G1 X134.099 Y122.396 E0.04525
G1 X134.208 Y122.672 E0.04267
G1 X134.254 Y123.000 E0.04777
G1 X134.208 Y123.328 E0.04777
G1 X134.099 Y123.604 E0.04267
G1 X133.914 Y123.858 E0.04525
G1 X133.672 Y124.058 E0.04525
G1 X133.404 Y124.185 E0.04267
G1 X133.082 Y124.251 E0.04730
G1 X132.765 Y124.231 E0.04572
G1 X132.466 Y124.134 E0.04525
G1 X132.201 Y123.966 E0.04525
G1 X131.986 Y123.737 E0.04525
G1 X131.843 Y123.477 E0.04267
G1 X131.756 Y123.160 E0.04730
G1 X131.756 Y122.918 E0.03492
G1 X131.756 Y122.843 F9000.000
G1 E-3.50000 F2400.00000
G1 X133.079 Y78.251 F9000.000
G1 E3.50000 F2400.00000
G1 F900
G1 X132.765 Y78.231 E0.04525
G1 X132.483 Y78.140 E0.04267
G1 X132.203 Y77.968 E0.04730
G1 X131.986 Y77.737 E0.04572
G1 X131.843 Y77.477 E0.04267
G1 X131.756 Y77.160 E0.04730
G1 X131.756 Y76.843 E0.04572
G1 X131.830 Y76.556 E0.04267
G1 X131.984 Y76.266 E0.04730
G1 X132.201 Y76.034 E0.04572
G1 X132.466 Y75.866 E0.04525
G1 X132.765 Y75.769 E0.04525
G1 F900
G1 X133.061 Y75.750 E0.04267
G1 X133.384 Y75.806 E0.04730
G1 X133.672 Y75.942 E0.04572
G1 X133.914 Y76.142 E0.04525
G1 X134.099 Y76.396 E0.04525
G1 X134.208 Y76.672 E0.04267
G1 X134.254 Y77.000 E0.04777
G1 X134.208 Y77.328 E0.04777
G1 X134.099 Y77.604 E0.04267
G1 X133.914 Y77.858 E0.04525
G1 X133.672 Y78.058 E0.04525
G1 X133.387 Y78.192 E0.04525
G1 X133.152 Y78.237 E0.03445
G1 X133.079 Y78.251 F9000.000
G1 E-3.50000 F2400.00000
G1 X77.053 Y68.784 F9000.000
G1 E3.50000 F2400.00000
G1 F900
G1 X76.762 Y69.518 E0.11376
G1 X76.298 Y70.158 E0.11376
G1 X75.689 Y70.661 E0.11376
G1 X74.974 Y70.998 E0.11376
G1 X74.198 Y71.146 E0.11376
G1 X73.409 Y71.096 E0.11376
G1 X72.658 Y70.852 E0.11376
G1 X71.991 Y70.428 E0.11376
G1 X71.450 Y69.853 E0.11376
G1 X71.070 Y69.160 E0.11376
G1 X70.873 Y68.395 E0.11376
G1 X70.873 Y67.605 E0.11376
G1 X71.070 Y66.840 E0.11376
G1 X71.450 Y66.147 E0.11376
G1 X71.991 Y65.572 E0.11376
G1 X72.658 Y65.148 E0.11376
G1 F900
G1 X73.409 Y64.904 E0.11376
G1 X74.198 Y64.854 E0.11376
G1 X74.974 Y65.002 E0.11376
G1 X75.689 Y65.339 E0.11376
G1 X76.298 Y65.842 E0.11376
G1 X76.762 Y66.482 E0.11376
G1 X77.053 Y67.216 E0.11376
G1 X77.152 Y68.000 E0.11376
G1 X77.062 Y68.709 E0.10296
G1 X76.376 Y68.610 F9000.000
G1 F900
G1 X76.150 Y69.182 E0.08856
G1 X75.789 Y69.680 E0.08856
G1 X75.315 Y70.072 E0.08856
G1 X74.758 Y70.333 E0.08856
G1 X74.154 Y70.449 E0.08856
G1 X73.540 Y70.410 E0.08856
G1 X72.955 Y70.220 E0.08856
G1 X72.436 Y69.891 E0.08856
G1 X72.015 Y69.442 E0.08856
G1 X71.719 Y68.903 E0.08856
G1 X71.566 Y68.308 E0.08856
G1 X71.566 Y67.692 E0.08856
G1 X71.719 Y67.097 E0.08856
G1 X72.015 Y66.558 E0.08856
G1 X72.436 Y66.109 E0.08856
G1 X72.955 Y65.780 E0.08856
G1 X73.540 Y65.590 E0.08856
G1 X74.047 Y65.558 E0.07316
G1 F900
G1 X74.154 Y65.551 E0.01540
G1 X74.758 Y65.667 E0.08856
G1 X75.315 Y65.928 E0.08856
G1 X75.789 Y66.320 E0.08856
G1 X76.150 Y66.818 E0.08856
G1 X76.376 Y67.390 E0.08856
G1 X76.454 Y68.000 E0.08856
G1 X76.386 Y68.536 E0.07776
G1 X76.376 Y68.610 F9000.000
G1 E-3.50000 F2400.00000
G1 X123.873 Y68.395 F9000.000
G1 E3.50000 F2400.00000
G1 F900
G1 X123.873 Y67.605 E0.11376
G1 X124.021 Y67.028 E0.08576
G1 X124.070 Y66.840 E0.02801
G1 X124.450 Y66.147 E0.11376
G1 X124.991 Y65.572 E0.11376
G1 X125.658 Y65.148 E0.11376
G1 X126.409 Y64.904 E0.11376
G1 X126.957 Y64.870 E0.07901
G1 F900
G1 X127.198 Y64.854 E0.03475
G1 X127.974 Y65.002 E0.11376
G1 X128.689 Y65.339 E0.11376
G1 X129.298 Y65.842 E0.11376
G1 X129.762 Y66.482 E0.11376
G1 X130.053 Y67.216 E0.11376
G1 X130.152 Y68.000 E0.11376
G1 X130.053 Y68.784 E0.11376
G1 X129.762 Y69.518 E0.11376
G1 X129.298 Y70.158 E0.11376
G1 X128.689 Y70.661 E0.11376
G1 X127.974 Y70.998 E0.11376
G1 X127.198 Y71.146 E0.11376
G1 X126.409 Y71.096 E0.11376
G1 X125.658 Y70.852 E0.11376
G1 X124.991 Y70.428 E0.11376
G1 X124.450 Y69.853 E0.11376
G1 X124.070 Y69.160 E0.11376
G1 X123.892 Y68.468 E0.10296
G1 X124.566 Y68.308 F9000.000
G1 F900
G1 X124.566 Y67.692 E0.08856
G1 X124.719 Y67.097 E0.08856
G1 X125.015 Y66.558 E0.08856
G1 X125.436 Y66.109 E0.08856
G1 X125.955 Y65.780 E0.08856
G1 F900
G1 X126.540 Y65.590 E0.08856
G1 X127.154 Y65.551 E0.08856
G1 X127.758 Y65.667 E0.08856
G1 X128.315 Y65.928 E0.08856
G1 X128.789 Y66.320 E0.08856
G1 X129.150 Y66.818 E0.08856
G1 X129.376 Y67.390 E0.08856
G1 X129.454 Y68.000 E0.08856
G1 X129.376 Y68.610 E0.08856
G1 X129.150 Y69.182 E0.08856
G1 X128.789 Y69.680 E0.08856
G1 X128.315 Y70.072 E0.08856
G1 X127.758 Y70.333 E0.08856
G1 X127.154 Y70.449 E0.08856
G1 X126.540 Y70.410 E0.08856
G1 X125.955 Y70.220 E0.08856
G1 X125.436 Y69.891 E0.08856
G1 X125.015 Y69.442 E0.08856
G1 X124.719 Y68.903 E0.08856
G1 X124.584 Y68.380 E0.07776
G1 X124.566 Y68.308 F9000.000
G1 X123.143 Y73.143 F9000.000
G1 F900
G1 X123.143 Y68.075 E0.72974
G1 X123.284 Y67.004 E0.15550
G1 X123.668 Y66.076 E0.14463
G1 X124.279 Y65.279 E0.14463
G1 X125.076 Y64.668 E0.14463
G1 X126.004 Y64.284 E0.14463
G1 X127.000 Y64.153 E0.14463
G1 X127.996 Y64.284 E0.14463
G1 X128.924 Y64.668 E0.14463
G1 X129.721 Y65.279 E0.14463
G1 X130.332 Y66.076 E0.14463
G1 X130.716 Y67.004 E0.14463
G1 X130.857 Y68.075 E0.15550
G1 X130.857 Y73.143 E0.72974
G1 X136.857 Y73.143 E0.86397
G1 X136.857 Y126.857 E7.73466
G1 X130.857 Y126.857 E0.86397
G1 X130.857 Y131.925 E0.72974
G1 X130.716 Y132.996 E0.15550
G1 X130.332 Y133.924 E0.14463
G1 X129.721 Y134.721 E0.14463
G1 X128.924 Y135.332 E0.14463
G1 X127.996 Y135.716 E0.14463
G1 X127.000 Y135.847 E0.14463
