; generated by Slic3r 1.3.0-dev on 2016-03-28 at 18:30:42

; external perimeters extrusion width = 0.50mm
; perimeters extrusion width = 0.50mm
; infill extrusion width = 0.50mm
; solid infill extrusion width = 0.50mm
; top infill extrusion width = 0.50mm

M107
M190 S100 ; set bed temperature and wait for it to be reached
M104 S210 ; set temperature
G28                                                        ; Home all axes
M83                                                       ; Set extruder to relative mode
T0                                                          ; Turn tool on
G1 E5 F1980                                         ; Prime the extruder
M300 S4100 P100                                ; Play a tone
M84 S0                                                  ; Keep motors on


M109 S210 ; set temperature and wait for it to be reached
G21 ; set units to millimeters
G90 ; use absolute coordinates
M83 ; use relative distances for extrusion
G1 E-4.00000 F1980.00000
G1 Z0.350 F4200.000
G1 X1.591 Y-7.377 F4200.000
G1 E4.00000 F1980.00000
G1 F300
G1 X3.050 Y-7.675 E0.15701
G1 X43.950 Y-7.675 E4.31417
G1 X45.619 Y-7.280 E0.18086
G1 X46.934 Y-6.180 E0.18086
G1 X47.675 Y-3.950 E0.24788
G1 X47.675 Y29.950 E3.57580
G1 X47.280 Y31.619 E0.18086
G1 X46.180 Y32.934 E0.18086
G1 X43.950 Y33.675 E0.24788
G1 X-43.950 Y33.675 E9.27177
G1 X-45.619 Y33.280 E0.18086
G1 X-46.934 Y32.180 E0.18086
G1 X-47.675 Y29.950 E0.24788
G1 X-47.675 Y16.050 E1.46618
G1 X-47.280 Y14.381 E0.18086
G1 X-46.180 Y13.066 E0.18086
G1 X-45.408 Y12.623 E0.09388
G1 X1.543 Y-7.357 E5.38225
G1 E-4.00000 F1980.00000
G1 X12.466 Y-2.134 F4200.000
G1 E4.00000 F1980.00000
G1 F450
G1 X12.765 Y-2.231 E0.03315
G1 F450
G1 X13.079 Y-2.251 E0.03314
G1 X13.387 Y-2.192 E0.03314
G1 X13.672 Y-2.058 E0.03315
G1 X13.914 Y-1.858 E0.03315
G1 X14.099 Y-1.604 E0.03315
G1 X14.214 Y-1.312 E0.03315
G1 X14.254 Y-1.000 E0.03314
G1 X14.214 Y-0.688 E0.03315
G1 X14.099 Y-0.396 E0.03314
G1 X13.914 Y-0.142 E0.03315
G1 X13.672 Y0.058 E0.03315
G1 X13.387 Y0.192 E0.03314
G1 X13.079 Y0.251 E0.03314
G1 X12.765 Y0.231 E0.03315
G1 X12.466 Y0.134 E0.03315
G1 X12.201 Y-0.034 E0.03314
G1 X11.986 Y-0.263 E0.03315
G1 X11.834 Y-0.539 E0.03315
G1 X11.756 Y-0.843 E0.03315
G1 X11.756 Y-1.157 E0.03315
G1 X11.834 Y-1.461 E0.03315
G1 X11.986 Y-1.737 E0.03315
G1 X12.201 Y-1.966 E0.03315
G1 X12.422 Y-2.106 E0.02761
G1 X12.466 Y-2.134 F4200.000
G1 X18.825 Y-1.325 F4200.000
G1 F450
G1 X20.325 Y-1.325 E0.15825
G1 X19.401 Y-0.341 E0.14238
G1 X18.715 Y0.907 E0.15029
G1 X18.373 Y2.238 E0.14488
G1 X18.359 Y3.707 E0.15498
G1 X18.715 Y5.093 E0.15087
G1 X19.401 Y6.341 E0.15029
G1 X20.377 Y7.380 E0.15029
G1 X21.580 Y8.143 E0.15029
G1 X22.549 Y8.458 E0.10752
G1 X22.491 Y8.825 E0.03918
G1 X4.175 Y8.825 E1.93201
G1 X4.175 Y-2.825 E1.22888
G1 X12.013 Y-2.825 E0.82681
G1 X11.395 Y-2.166 E0.09533
G1 X11.155 Y-1.730 E0.05246
G1 X11.031 Y-1.249 E0.05246
G1 X11.031 Y-0.751 E0.05246
G1 X11.155 Y-0.270 E0.05246
G1 X11.395 Y0.166 E0.05246
G1 X11.735 Y0.529 E0.05246
G1 X12.155 Y0.795 E0.05246
G1 X12.628 Y0.949 E0.05246
G1 X13.125 Y0.980 E0.05246
G1 X13.613 Y0.887 E0.05246
G1 X14.063 Y0.675 E0.05246
G1 X14.446 Y0.358 E0.05247
G1 X14.739 Y-0.044 E0.05246
G1 X14.922 Y-0.507 E0.05246
G1 X14.984 Y-1.000 E0.05246
G1 X14.922 Y-1.493 E0.05246
G1 X14.739 Y-1.956 E0.05246
G1 X14.446 Y-2.358 E0.05246
G1 X13.882 Y-2.825 E0.07725
G1 X18.825 Y-2.825 E0.52139
G1 X18.825 Y-1.378 E0.15268
G1 X25.675 Y-2.444 F4200.000
G1 F450
G1 X25.675 Y-2.825 E0.04015
G1 X33.013 Y-2.825 E0.77407
G1 X32.395 Y-2.166 E0.09533
G1 X32.155 Y-1.730 E0.05247
G1 X32.031 Y-1.249 E0.05246
G1 X32.031 Y-0.751 E0.05246
G1 X32.155 Y-0.270 E0.05247
G1 X32.395 Y0.166 E0.05246
G1 X32.735 Y0.529 E0.05246
G1 X33.155 Y0.795 E0.05246
G1 X33.628 Y0.949 E0.05246
G1 X34.125 Y0.980 E0.05246
G1 X34.613 Y0.887 E0.05246
G1 X35.063 Y0.675 E0.05246
G1 X35.446 Y0.358 E0.05246
G1 X35.739 Y-0.044 E0.05246
G1 X35.922 Y-0.507 E0.05246
G1 X35.984 Y-1.000 E0.05246
G1 X35.922 Y-1.493 E0.05246
G1 X35.739 Y-1.956 E0.05246
G1 X35.446 Y-2.358 E0.05246
G1 X34.882 Y-2.825 E0.07725
G1 X42.825 Y-2.825 E0.83783
G1 X42.825 Y8.825 E1.22888
G1 X25.665 Y8.825 E1.81011
G1 X25.589 Y8.485 E0.03675
G1 X27.046 Y7.799 E0.16987
G1 X28.144 Y6.891 E0.15029
G1 X28.981 Y5.738 E0.15029
G1 X29.506 Y4.414 E0.15029
G1 X29.684 Y3.000 E0.15029
G1 X29.506 Y1.586 E0.15029
G1 X28.981 Y0.262 E0.15029
G1 X28.144 Y-0.891 E0.15029
G1 X27.046 Y-1.799 E0.15029
G1 X25.722 Y-2.422 E0.15427
G1 X32.756 Y-1.157 F4200.000
G1 F450
G1 X32.834 Y-1.461 E0.03315
G1 X32.986 Y-1.737 E0.03315
G1 X33.201 Y-1.966 E0.03314
G1 X33.466 Y-2.134 E0.03315
G1 X33.765 Y-2.231 E0.03315
G1 F450
G1 X34.079 Y-2.251 E0.03314
G1 X34.387 Y-2.192 E0.03314
G1 X34.672 Y-2.058 E0.03315
G1 X34.914 Y-1.858 E0.03315
G1 X35.099 Y-1.604 E0.03314
G1 X35.214 Y-1.312 E0.03315
G1 X35.254 Y-1.000 E0.03315
G1 X35.214 Y-0.688 E0.03315
G1 X35.099 Y-0.396 E0.03315
G1 X34.914 Y-0.142 E0.03314
G1 X34.672 Y0.058 E0.03315
G1 X34.387 Y0.192 E0.03315
G1 X34.079 Y0.251 E0.03315
G1 X33.765 Y0.231 E0.03314
G1 X33.466 Y0.134 E0.03315
G1 X33.201 Y-0.034 E0.03315
G1 X32.986 Y-0.263 E0.03314
G1 X32.834 Y-0.539 E0.03315
G1 X32.756 Y-0.843 E0.03315
G1 X32.756 Y-1.105 E0.02761
G1 X32.756 Y-1.157 F4200.000
G1 X19.550 Y-2.050 F4200.000
G1 F450
G1 X22.451 Y-2.050 E0.30603
G1 X22.509 Y-1.683 E0.03918
G1 X21.891 Y-1.482 E0.06860
G1 X20.842 Y-0.817 E0.13098
G1 X19.992 Y0.088 E0.13098
G1 X19.394 Y1.176 E0.13098
G1 X19.097 Y2.333 E0.12594
G1 X19.085 Y3.619 E0.13566
G1 X19.394 Y4.824 E0.13118
G1 X19.992 Y5.912 E0.13098
G1 X20.842 Y6.817 E0.13098
G1 X21.891 Y7.482 E0.13098
G1 X23.072 Y7.866 E0.13097
G1 X24.311 Y7.944 E0.13098
G1 X25.531 Y7.711 E0.13098
G1 X26.654 Y7.182 E0.13098
G1 X27.611 Y6.391 E0.13098
G1 X28.341 Y5.386 E0.13098
G1 X28.798 Y4.232 E0.13098
G1 X28.954 Y3.000 E0.13097
G1 X28.798 Y1.768 E0.13098
G1 X28.341 Y0.614 E0.13098
G1 X27.611 Y-0.391 E0.13098
G1 X26.654 Y-1.182 E0.13098
G1 X25.529 Y-1.712 E0.13118
G1 X24.950 Y-1.817 E0.06206
G1 X24.950 Y-3.550 E0.18283
G1 X43.550 Y-3.550 E1.96194
G1 X43.550 Y9.550 E1.38180
G1 X3.450 Y9.550 E4.22978
G1 X3.450 Y-3.550 E1.38180
G1 X19.550 Y-3.550 E1.69824
G1 X19.550 Y-2.102 E0.15268
G1 X19.716 Y-1.742 F4200.000
G1 X22.872 Y-1.952 F4200.000
G1 F450
G1 X24.550 Y-2.004 E0.17710
G1 X18.383 Y-2.035 F4200.000
G1 F300
G1 X18.035 Y-2.383 E0.05241
G1 X16.999 Y-2.383 E0.11051
G1 X18.988 Y-0.393 E0.29999
G1 X18.621 Y0.275 E0.08137
G1 X15.963 Y-2.383 E0.40083
G1 X15.244 Y-2.065 E0.08379
G1 X18.277 Y0.968 E0.45743
G1 X18.065 Y1.793 E0.09078
G1 X15.396 Y-0.876 E0.40251
G1 X15.173 Y-0.063 E0.08990
G1 X17.928 Y2.692 E0.41548
G1 X17.918 Y3.718 E0.10946
G1 X14.766 Y0.567 E0.47529
G1 X14.205 Y1.041 E0.07841
G1 X18.199 Y5.036 E0.60234
G1 X18.437 Y8.383 F4200.000
G1 F300
G1 X7.672 Y-2.383 E1.62345
G1 X6.635 Y-2.383 E0.11051
G1 X17.401 Y8.383 E1.62345
G1 X16.365 Y8.383 E0.11051
G1 X5.599 Y-2.383 E1.62345
G1 X4.617 Y-2.328 E0.10486
G1 X15.328 Y8.383 E1.61523
G1 X14.292 Y8.383 E0.11051
G1 X4.617 Y-1.292 E1.45895
G1 X4.617 Y-0.256 E0.11051
G1 X13.256 Y8.383 E1.30267
G1 X12.219 Y8.383 E0.11051
G1 X4.617 Y0.781 E1.14639
G1 X4.617 Y1.817 E0.11051
G1 X11.183 Y8.383 E0.99010
G1 X10.147 Y8.383 E0.11051
G1 X4.617 Y2.853 E0.83382
G1 X4.617 Y3.890 E0.11051
G1 X9.110 Y8.383 E0.67754
G1 X8.074 Y8.383 E0.11051
G1 X4.617 Y4.926 E0.52126
G1 X4.617 Y5.963 E0.11051
G1 X7.037 Y8.383 E0.36497
G1 X6.001 Y8.383 E0.11051
G1 X4.617 Y6.999 E0.20869
G1 X4.617 Y8.035 E0.11051
G1 X4.965 Y8.383 E0.05241
G1 X12.484 Y1.393 F4200.000
G1 F300
G1 X19.474 Y8.383 E1.05403
G1 X20.510 Y8.383 E0.11051
G1 X13.466 Y1.339 E1.06222
G1 X10.596 Y-0.495 F4200.000
G1 F300
G1 X8.708 Y-2.383 E0.28472
G1 X9.744 Y-2.383 E0.11051
G1 X10.664 Y-1.463 E0.13870
G1 X22.877 Y8.703 F4200.000
G1 F300
G1 X24.306 Y8.748 E0.19240
G1 X25.257 Y8.665 E0.12847
G1 X27.349 Y8.041 F4200.000
G1 F300
G1 X27.691 Y8.383 E0.05203
G1 X28.737 Y8.383 E0.11263
G1 X27.922 Y7.567 E0.12414
G1 X28.479 Y7.078 E0.07981
G1 X29.783 Y8.383 E0.19859
G1 X30.830 Y8.383 E0.11263
G1 X28.919 Y6.472 E0.29085
G1 X29.358 Y5.865 E0.08068
G1 X31.876 Y8.383 E0.38338
G1 X32.922 Y8.383 E0.11263
G1 X29.654 Y5.115 E0.49748
G1 X29.941 Y4.355 E0.08742
G1 X33.968 Y8.383 E0.61318
G1 X35.015 Y8.383 E0.11263
G1 X30.058 Y3.426 E0.75460
G1 X30.074 Y2.396 E0.11087
G1 X36.061 Y8.383 E0.91138
G1 X37.107 Y8.383 E0.11263
G1 X29.886 Y1.161 E1.09942
G1 X31.675 Y-0.188 F4200.000
G1 F300
G1 X29.480 Y-2.383 E0.33409
G1 X30.527 Y-2.383 E0.11263
G1 X31.620 Y-1.290 E0.16642
G1 X31.895 Y-2.061 E0.08814
G1 X31.573 Y-2.383 E0.04901
G1 X28.434 Y-2.383 F4200.000
G1 F300
G1 X39.200 Y8.383 E1.63896
G1 X38.153 Y8.383 E0.11263
G1 X27.388 Y-2.383 E1.63896
G1 X33.194 Y1.331 F4200.000
G1 F300
G1 X40.246 Y8.383 E1.07356
G1 X41.292 Y8.383 E0.11263
G1 X34.283 Y1.374 E1.06705
G1 X35.063 Y1.108 E0.08875
G1 X42.338 Y8.383 E1.10753
G1 X42.383 Y7.381 E0.10795
G1 X35.669 Y0.667 E1.02214
G1 X36.120 Y0.071 E0.08040
G1 X42.383 Y6.335 E0.95352
G1 X42.383 Y5.288 E0.11263
G1 X36.376 Y-0.718 E0.91443
G1 X36.351 Y-1.790 E0.11538
G1 X42.383 Y4.242 E0.91828
G1 X42.383 Y3.196 E0.11263
G1 X36.804 Y-2.383 E0.84932
G1 X37.850 Y-2.383 E0.11263
G1 X42.383 Y2.150 E0.69003
G1 X42.383 Y1.104 E0.11263
G1 X38.896 Y-2.383 E0.53075
G1 X39.943 Y-2.383 E0.11263
G1 X42.383 Y0.057 E0.37147
G1 X42.383 Y-0.989 E0.11263
G1 X40.989 Y-2.383 E0.21219
G1 X42.035 Y-2.383 E0.11263
G1 X42.383 Y-2.035 E0.05291
G1 E-4.00000 F1980.00000
G1 X14.214 Y18.688 F4200.000
G1 E4.00000 F1980.00000
G1 F450
G1 X14.254 Y19.000 E0.03314
G1 X14.214 Y19.312 E0.03315
G1 X14.099 Y19.604 E0.03314
G1 X13.914 Y19.858 E0.03315
G1 X13.672 Y20.058 E0.03315
G1 X13.387 Y20.192 E0.03314
G1 X13.079 Y20.251 E0.03314
G1 X12.765 Y20.231 E0.03315
G1 X12.466 Y20.134 E0.03315
G1 X12.201 Y19.966 E0.03314
G1 X11.986 Y19.737 E0.03315
G1 X11.834 Y19.461 E0.03315
G1 X11.756 Y19.157 E0.03315
G1 X11.756 Y18.843 E0.03315
G1 X11.834 Y18.539 E0.03315
G1 X11.986 Y18.263 E0.03315
G1 X12.201 Y18.034 E0.03315
G1 X12.466 Y17.866 E0.03315
G1 X12.765 Y17.769 E0.03315
G1 F450
G1 X13.079 Y17.749 E0.03314
G1 X13.387 Y17.808 E0.03314
G1 X13.672 Y17.942 E0.03315
G1 X13.914 Y18.142 E0.03315
G1 X14.099 Y18.396 E0.03315
G1 X14.195 Y18.639 E0.02761
G1 X14.214 Y18.688 F4200.000
G1 X18.825 Y18.675 F4200.000
G1 F450
G1 X20.325 Y18.675 E0.15825
G1 X19.401 Y19.659 E0.14238
G1 X18.715 Y20.907 E0.15029
G1 X18.373 Y22.238 E0.14488
G1 X18.359 Y23.707 E0.15498
G1 X18.715 Y25.093 E0.15087
G1 X19.401 Y26.341 E0.15029
G1 X20.377 Y27.380 E0.15029
G1 X21.580 Y28.143 E0.15029
G1 X22.549 Y28.458 E0.10752
G1 X22.491 Y28.825 E0.03918
G1 X4.175 Y28.825 E1.93201
G1 X4.175 Y17.175 E1.22888
G1 X12.013 Y17.175 E0.82681
G1 X11.395 Y17.834 E0.09533
G1 X11.155 Y18.270 E0.05246
G1 X11.031 Y18.751 E0.05246
G1 X11.031 Y19.249 E0.05246
G1 X11.155 Y19.730 E0.05246
G1 X11.395 Y20.166 E0.05246
G1 X11.735 Y20.529 E0.05246
G1 X12.155 Y20.795 E0.05246
G1 X12.628 Y20.949 E0.05246
G1 X13.125 Y20.980 E0.05246
G1 X13.613 Y20.887 E0.05246
G1 X14.063 Y20.675 E0.05246
G1 X14.446 Y20.358 E0.05247
G1 X14.739 Y19.956 E0.05246
G1 X14.922 Y19.493 E0.05246
G1 X14.984 Y19.000 E0.05246
G1 X14.922 Y18.507 E0.05246
G1 X14.739 Y18.044 E0.05246
G1 X14.446 Y17.642 E0.05246
G1 X13.882 Y17.175 E0.07725
G1 X18.825 Y17.175 E0.52139
G1 X18.825 Y18.622 E0.15268
G1 X25.675 Y17.556 F4200.000
G1 F450
G1 X25.675 Y17.175 E0.04015
G1 X33.013 Y17.175 E0.77407
G1 X32.395 Y17.834 E0.09533
G1 X32.155 Y18.270 E0.05247
G1 X32.031 Y18.751 E0.05246
G1 X32.031 Y19.249 E0.05246
G1 X32.155 Y19.730 E0.05247
G1 X32.395 Y20.166 E0.05246
G1 X32.735 Y20.529 E0.05246
G1 X33.155 Y20.795 E0.05246
G1 X33.628 Y20.949 E0.05246
G1 X34.125 Y20.980 E0.05246
G1 X34.613 Y20.887 E0.05246
G1 X35.063 Y20.675 E0.05246
G1 X35.446 Y20.358 E0.05246
G1 X35.739 Y19.956 E0.05246
G1 X35.922 Y19.493 E0.05246
G1 X35.984 Y19.000 E0.05246
G1 X35.922 Y18.507 E0.05246
G1 X35.739 Y18.044 E0.05246
G1 X35.446 Y17.642 E0.05246
G1 X34.882 Y17.175 E0.07725
G1 X42.825 Y17.175 E0.83783
G1 X42.825 Y28.825 E1.22888
G1 X25.665 Y28.825 E1.81011
G1 X25.589 Y28.485 E0.03675
G1 X27.046 Y27.799 E0.16987
G1 X28.144 Y26.891 E0.15029
G1 X28.981 Y25.738 E0.15029
G1 X29.506 Y24.414 E0.15029
G1 X29.684 Y23.000 E0.15029
G1 X29.506 Y21.586 E0.15029
G1 X28.981 Y20.262 E0.15029
G1 X28.144 Y19.109 E0.15029
G1 X27.046 Y18.201 E0.15029
G1 X25.722 Y17.578 E0.15427
G1 X32.756 Y18.843 F4200.000
G1 F450
G1 X32.834 Y18.539 E0.03315
G1 X32.986 Y18.263 E0.03315
G1 X33.201 Y18.034 E0.03314
G1 X33.466 Y17.866 E0.03315
G1 X33.765 Y17.769 E0.03315
G1 F450
G1 X34.079 Y17.749 E0.03314
G1 X34.387 Y17.808 E0.03314
G1 X34.672 Y17.942 E0.03315
G1 X34.914 Y18.142 E0.03315
G1 X35.099 Y18.396 E0.03314
G1 X35.214 Y18.688 E0.03315
G1 X35.254 Y19.000 E0.03315
G1 X35.214 Y19.312 E0.03315
G1 X35.099 Y19.604 E0.03315
G1 X34.914 Y19.858 E0.03314
G1 X34.672 Y20.058 E0.03315
G1 X34.387 Y20.192 E0.03315
G1 X34.079 Y20.251 E0.03315
G1 X33.765 Y20.231 E0.03314
G1 X33.466 Y20.134 E0.03315
G1 X33.201 Y19.966 E0.03315
G1 X32.986 Y19.737 E0.03314
G1 X32.834 Y19.461 E0.03315
G1 X32.756 Y19.157 E0.03315
G1 X32.756 Y18.895 E0.02761
G1 X32.756 Y18.843 F4200.000
G1 X19.550 Y17.950 F4200.000
G1 F450
G1 X22.451 Y17.950 E0.30603
G1 X22.509 Y18.317 E0.03918
G1 X21.891 Y18.518 E0.06860
G1 X20.842 Y19.183 E0.13098
G1 X19.992 Y20.088 E0.13098
G1 X19.394 Y21.176 E0.13098
G1 X19.097 Y22.333 E0.12594
G1 X19.085 Y23.619 E0.13566
G1 X19.394 Y24.824 E0.13118
G1 X19.992 Y25.912 E0.13098
G1 X20.842 Y26.817 E0.13098
G1 X21.891 Y27.482 E0.13098
G1 X23.072 Y27.866 E0.13097
G1 X24.311 Y27.944 E0.13098
G1 X25.531 Y27.711 E0.13098
G1 X26.654 Y27.182 E0.13098
G1 X27.611 Y26.391 E0.13098
G1 X28.341 Y25.386 E0.13098
G1 X28.798 Y24.232 E0.13098
G1 X28.954 Y23.000 E0.13097
G1 X28.798 Y21.768 E0.13098
G1 X28.341 Y20.614 E0.13098
G1 X27.611 Y19.609 E0.13098
G1 X26.654 Y18.818 E0.13098
G1 X25.529 Y18.288 E0.13118
G1 X24.950 Y18.183 E0.06206
G1 X24.950 Y16.450 E0.18283
G1 X43.550 Y16.450 E1.96194
G1 X43.550 Y29.550 E1.38180
G1 X3.450 Y29.550 E4.22978
G1 X3.450 Y16.450 E1.38180
G1 X19.550 Y16.450 E1.69824
G1 X19.550 Y17.898 E0.15268
G1 X19.716 Y18.258 F4200.000
G1 X22.872 Y18.048 F4200.000
G1 F450
G1 X24.550 Y17.996 E0.17710
G1 X18.383 Y17.965 F4200.000
G1 F300
G1 X18.035 Y17.617 E0.05241
G1 X16.999 Y17.617 E0.11051
G1 X18.988 Y19.607 E0.29999
G1 X18.621 Y20.275 E0.08137
G1 X15.963 Y17.617 E0.40083
G1 X15.244 Y17.935 E0.08379
G1 X18.277 Y20.968 E0.45743
G1 X18.065 Y21.793 E0.09078
G1 X15.396 Y19.124 E0.40251
G1 X15.173 Y19.937 E0.08990
G1 X17.928 Y22.692 E0.41548
G1 X17.918 Y23.718 E0.10946
G1 X14.766 Y20.567 E0.47529
G1 X14.205 Y21.041 E0.07841
G1 X18.199 Y25.036 E0.60234
G1 X18.437 Y28.383 F4200.000
G1 F300
G1 X7.672 Y17.617 E1.62345
G1 X6.635 Y17.617 E0.11051
G1 X17.401 Y28.383 E1.62345
G1 X16.365 Y28.383 E0.11051
G1 X5.599 Y17.617 E1.62345
G1 X4.617 Y17.672 E0.10486
G1 X15.328 Y28.383 E1.61523
G1 X14.292 Y28.383 E0.11051
G1 X4.617 Y18.708 E1.45895
G1 X4.617 Y19.744 E0.11051
G1 X13.256 Y28.383 E1.30267
G1 X12.219 Y28.383 E0.11051
G1 X4.617 Y20.781 E1.14639
G1 X4.617 Y21.817 E0.11051
G1 X11.183 Y28.383 E0.99010
G1 X10.147 Y28.383 E0.11051
G1 X4.617 Y22.853 E0.83382
G1 X4.617 Y23.890 E0.11051
G1 X9.110 Y28.383 E0.67754
G1 X8.074 Y28.383 E0.11051
G1 X4.617 Y24.926 E0.52126
G1 X4.617 Y25.963 E0.11051
G1 X7.037 Y28.383 E0.36497
G1 X6.001 Y28.383 E0.11051
G1 X4.617 Y26.999 E0.20869
G1 X4.617 Y28.035 E0.11051
G1 X4.965 Y28.383 E0.05241
G1 X12.484 Y21.393 F4200.000
G1 F300
G1 X19.474 Y28.383 E1.05403
G1 X20.510 Y28.383 E0.11051
G1 X13.466 Y21.339 E1.06222
G1 X10.596 Y19.505 F4200.000
G1 F300
G1 X8.708 Y17.617 E0.28472
G1 X9.744 Y17.617 E0.11051
G1 X10.664 Y18.537 E0.13870
G1 X22.877 Y28.703 F4200.000
G1 F300
G1 X24.306 Y28.748 E0.19240
G1 X25.257 Y28.665 E0.12847
G1 X27.349 Y28.041 F4200.000
G1 F300
G1 X27.691 Y28.383 E0.05203
G1 X28.737 Y28.383 E0.11263
G1 X27.922 Y27.567 E0.12414
G1 X28.479 Y27.078 E0.07981
G1 X29.783 Y28.383 E0.19859
G1 X30.830 Y28.383 E0.11263
G1 X28.919 Y26.472 E0.29085
G1 X29.358 Y25.865 E0.08068
G1 X31.876 Y28.383 E0.38338
G1 X32.922 Y28.383 E0.11263
G1 X29.654 Y25.115 E0.49748
