; generated by Slic3r 1.3.0-dev on 2016-03-28 at 17:22:41

; external perimeters extrusion width = 0.50mm
; perimeters extrusion width = 0.50mm
; infill extrusion width = 0.50mm
; solid infill extrusion width = 0.50mm
; top infill extrusion width = 0.50mm

M107
M190 S100 ; set bed temperature and wait for it to be reached
M104 S210 ; set temperature
G28                                                        ; Home all axes
M83                                                       ; Set extruder to relative mode
T0                                                          ; Turn tool on
G1 E5 F1980                                         ; Prime the extruder
M300 S4100 P100                                ; Play a tone
M84 S0                                                  ; Keep motors on


M109 S210 ; set temperature and wait for it to be reached
G21 ; set units to millimeters
G90 ; use absolute coordinates
M83 ; use relative distances for extrusion
G1 E-4.00000 F1980.00000
G1 Z0.350 F4200.000
G1 X9.675 Y27.497 F4200.000
G1 E4.00000 F1980.00000
G1 F300
G1 X9.643 Y27.983 E0.05139
G1 X9.576 Y28.491 E0.05403
G1 X9.324 Y29.430 E0.10257
G1 X9.130 Y29.900 E0.05368
G1 X8.644 Y30.742 E0.10257
G1 X8.334 Y31.146 E0.05368
G1 X7.646 Y31.834 E0.10257
G1 X7.242 Y32.144 E0.05368
G1 X6.400 Y32.630 E0.10257
G1 X5.930 Y32.824 E0.05368
G1 X4.991 Y33.076 E0.10257
G1 X4.483 Y33.143 E0.05403
G1 X3.997 Y33.175 E0.05139
G1 X-3.997 Y33.175 E0.84316
G1 X-4.483 Y33.143 E0.05139
G1 X-4.991 Y33.076 E0.05403
G1 X-5.930 Y32.824 E0.10257
G1 X-6.400 Y32.630 E0.05368
G1 X-7.242 Y32.144 E0.10257
G1 X-7.646 Y31.834 E0.05368
G1 X-8.334 Y31.146 E0.10257
G1 X-8.644 Y30.742 E0.05368
G1 X-9.130 Y29.900 E0.10257
G1 X-9.324 Y29.430 E0.05368
G1 X-9.576 Y28.491 E0.10257
G1 X-9.643 Y27.981 E0.05428
G1 X-9.675 Y27.497 E0.05114
G1 X-9.675 Y-1.497 E3.05826
G1 X-9.643 Y-1.983 E0.05139
G1 X-9.576 Y-2.491 E0.05403
G1 X-9.324 Y-3.430 E0.10257
G1 X-9.130 Y-3.900 E0.05368
G1 X-8.644 Y-4.742 E0.10257
G1 X-8.334 Y-5.146 E0.05368
G1 X-7.646 Y-5.834 E0.10257
G1 X-7.242 Y-6.144 E0.05368
G1 X-6.400 Y-6.630 E0.10257
G1 X-5.930 Y-6.824 E0.05368
G1 X-4.991 Y-7.076 E0.10257
G1 X-4.478 Y-7.144 E0.05457
G1 X-3.997 Y-7.175 E0.05085
G1 X3.997 Y-7.175 E0.84316
G1 X4.478 Y-7.144 E0.05085
G1 X4.991 Y-7.076 E0.05457
G1 X5.930 Y-6.824 E0.10257
G1 X6.400 Y-6.630 E0.05368
G1 X7.242 Y-6.144 E0.10257
G1 X7.646 Y-5.834 E0.05368
G1 X8.334 Y-5.146 E0.10257
G1 X8.644 Y-4.742 E0.05368
G1 X9.130 Y-3.900 E0.10257
G1 X9.324 Y-3.430 E0.05368
G1 X9.576 Y-2.491 E0.10257
G1 X9.643 Y-1.983 E0.05403
G1 X9.675 Y-1.497 E0.05139
G1 X9.675 Y27.444 E3.05272
G1 E-4.00000 F1980.00000
G1 X0.860 Y19.852 F4200.000
G1 E4.00000 F1980.00000
G1 F450
G1 X1.492 Y20.149 E0.07362
G1 X2.030 Y20.594 E0.07362
G1 X2.440 Y21.159 E0.07362
G1 X2.697 Y21.808 E0.07362
G1 X2.784 Y22.500 E0.07362
G1 X2.697 Y23.192 E0.07362
G1 X2.440 Y23.841 E0.07362
G1 X2.030 Y24.406 E0.07362
G1 X1.492 Y24.851 E0.07362
G1 X0.860 Y25.148 E0.07362
G1 X0.175 Y25.279 E0.07362
G1 X-0.522 Y25.235 E0.07362
G1 X-1.185 Y25.019 E0.07362
G1 X-1.775 Y24.645 E0.07362
G1 X-2.252 Y24.137 E0.07362
G1 X-2.589 Y23.525 E0.07362
G1 X-2.762 Y22.849 E0.07362
G1 X-2.762 Y22.151 E0.07362
G1 X-2.589 Y21.475 E0.07362
G1 X-2.252 Y20.863 E0.07362
G1 X-1.775 Y20.355 E0.07362
G1 X-1.185 Y19.981 E0.07362
G1 X-0.522 Y19.765 E0.07362
G1 F450
G1 X0.175 Y19.721 E0.07362
G1 X0.809 Y19.842 E0.06808
G1 X0.635 Y20.547 F4200.000
G1 F450
G1 X1.100 Y20.766 E0.05430
G1 X1.497 Y21.094 E0.05430
G1 X1.800 Y21.511 E0.05430
G1 X1.989 Y21.989 E0.05430
G1 X2.054 Y22.500 E0.05430
G1 X1.989 Y23.011 E0.05430
G1 X1.800 Y23.489 E0.05430
G1 X1.497 Y23.906 E0.05430
G1 X1.100 Y24.234 E0.05430
G1 X0.635 Y24.453 E0.05430
G1 X0.129 Y24.550 E0.05430
G1 X-0.385 Y24.517 E0.05430
G1 X-0.874 Y24.358 E0.05430
G1 X-1.309 Y24.082 E0.05430
G1 X-1.661 Y23.707 E0.05430
G1 X-1.909 Y23.256 E0.05430
G1 X-2.037 Y22.757 E0.05430
G1 X-2.037 Y22.243 E0.05430
G1 X-1.909 Y21.744 E0.05430
G1 X-1.661 Y21.293 E0.05430
G1 X-1.309 Y20.918 E0.05430
G1 X-0.874 Y20.642 E0.05430
G1 X-0.385 Y20.483 E0.05430
G1 F450
G1 X0.129 Y20.450 E0.05430
G1 X0.583 Y20.537 E0.04876
G1 X0.635 Y20.547 F4200.000
G1 X0.150 Y3.880 F4200.000
G1 F450
G1 X-0.447 Y3.842 E0.06304
G1 X-1.015 Y3.657 E0.06304
G1 X-1.520 Y3.337 E0.06304
G1 X-1.929 Y2.901 E0.06304
G1 X-2.217 Y2.378 E0.06304
G1 X-2.365 Y1.799 E0.06304
G1 X-2.365 Y1.201 E0.06304
G1 X-2.217 Y0.622 E0.06304
G1 X-1.929 Y0.099 E0.06304
G1 X-1.520 Y-0.337 E0.06304
G1 X-1.015 Y-0.657 E0.06304
G1 X-0.447 Y-0.842 E0.06304
G1 F450
G1 X0.150 Y-0.880 E0.06304
G1 X0.737 Y-0.768 E0.06304
G1 X1.278 Y-0.513 E0.06304
G1 X1.738 Y-0.132 E0.06304
G1 X2.089 Y0.351 E0.06304
G1 X2.309 Y0.907 E0.06304
G1 X2.384 Y1.500 E0.06304
G1 X2.309 Y2.093 E0.06304
G1 X2.089 Y2.649 E0.06304
G1 X1.738 Y3.132 E0.06304
G1 X1.278 Y3.513 E0.06304
G1 X0.737 Y3.768 E0.06304
G1 X0.201 Y3.870 E0.05750
G1 X0.104 Y3.150 F4200.000
G1 F450
G1 X-0.310 Y3.124 E0.04372
G1 X-0.704 Y2.996 E0.04372
G1 X-1.054 Y2.774 E0.04372
G1 X-1.338 Y2.472 E0.04372
G1 X-1.537 Y2.109 E0.04372
G1 X-1.641 Y1.707 E0.04372
G1 X-1.641 Y1.293 E0.04372
G1 X-1.537 Y0.891 E0.04372
G1 X-1.338 Y0.528 E0.04372
G1 X-1.054 Y0.226 E0.04372
G1 X-0.704 Y0.004 E0.04372
G1 X-0.310 Y-0.124 E0.04372
G1 F450
G1 X0.104 Y-0.150 E0.04372
G1 X0.511 Y-0.073 E0.04372
G1 X0.886 Y0.104 E0.04372
G1 X1.205 Y0.368 E0.04372
G1 X1.449 Y0.703 E0.04372
G1 X1.602 Y1.089 E0.04372
G1 X1.654 Y1.500 E0.04372
G1 X1.602 Y1.911 E0.04372
G1 X1.449 Y2.297 E0.04372
G1 X1.205 Y2.632 E0.04372
G1 X0.886 Y2.896 E0.04372
G1 X0.511 Y3.073 E0.04372
G1 X0.155 Y3.140 E0.03818
G1 X0.104 Y3.150 F4200.000
G1 X4.825 Y3.150 F4200.000
G1 F450
G1 X4.825 Y27.423 E2.56030
G1 X4.787 Y27.711 E0.03063
G1 X4.706 Y27.907 E0.02244
G1 X4.576 Y28.076 E0.02244
G1 X4.407 Y28.206 E0.02244
G1 X4.211 Y28.287 E0.02244
G1 X3.923 Y28.325 E0.03063
G1 X-3.923 Y28.325 E0.82760
G1 X-4.211 Y28.287 E0.03063
G1 X-4.407 Y28.206 E0.02244
G1 X-4.576 Y28.076 E0.02244
G1 X-4.706 Y27.907 E0.02244
G1 X-4.787 Y27.711 E0.02244
G1 X-4.825 Y27.423 E0.03063
G1 X-4.825 Y-1.423 E3.04270
G1 X-4.787 Y-1.711 E0.03063
G1 X-4.706 Y-1.907 E0.02244
G1 X-4.576 Y-2.076 E0.02244
G1 X-4.407 Y-2.206 E0.02244
G1 X-4.211 Y-2.287 E0.02244
G1 X-3.923 Y-2.325 E0.03063
G1 X3.924 Y-2.325 E0.82768
G1 F450
G1 X4.211 Y-2.287 E0.03056
G1 X4.407 Y-2.206 E0.02244
G1 X4.576 Y-2.076 E0.02244
G1 X4.706 Y-1.907 E0.02244
G1 X4.787 Y-1.711 E0.02244
G1 X4.825 Y-1.423 E0.03063
G1 X4.825 Y3.098 E0.47686
G1 X5.550 Y3.150 F4200.000
G1 F450
G1 X5.550 Y27.470 E2.56531
G1 X5.493 Y27.900 E0.04571
G1 X5.339 Y28.273 E0.04257
G1 X5.093 Y28.593 E0.04257
G1 X4.773 Y28.839 E0.04257
G1 X4.400 Y28.993 E0.04257
G1 X3.971 Y29.050 E0.04571
G1 X-3.971 Y29.050 E0.83763
G1 X-4.400 Y28.993 E0.04571
G1 X-4.773 Y28.839 E0.04257
G1 X-5.093 Y28.593 E0.04257
G1 X-5.339 Y28.273 E0.04257
G1 X-5.493 Y27.900 E0.04257
G1 X-5.550 Y27.471 E0.04571
G1 X-5.550 Y-1.471 E3.05272
G1 X-5.493 Y-1.900 E0.04571
G1 X-5.339 Y-2.273 E0.04257
G1 X-5.093 Y-2.593 E0.04257
G1 X-4.773 Y-2.839 E0.04257
G1 X-4.400 Y-2.993 E0.04257
G1 X-3.971 Y-3.050 E0.04571
G1 X3.971 Y-3.050 E0.83770
G1 F450
G1 X4.400 Y-2.993 E0.04564
G1 X4.773 Y-2.839 E0.04257
G1 X5.093 Y-2.593 E0.04257
G1 X5.339 Y-2.273 E0.04257
G1 X5.493 Y-1.900 E0.04257
G1 X5.550 Y-1.471 E0.04571
G1 X5.550 Y3.098 E0.48187
G1 X5.248 Y3.326 F4200.000
G1 X4.352 Y-1.422 F4200.000
G1 F300
G1 X3.922 Y-1.852 E0.06523
G1 X2.848 Y-1.883 E0.11530
G1 X4.383 Y-0.348 E0.23292
G1 X4.383 Y0.695 E0.11193
G1 X1.805 Y-1.883 E0.39121
G1 X0.762 Y-1.883 E0.11193
G1 X4.383 Y1.738 E0.54951
G1 X4.383 Y2.781 E0.11193
G1 X2.814 Y1.213 E0.23802
G1 X2.712 Y2.153 E0.10153
G1 X4.383 Y3.824 E0.25357
G1 X4.383 Y4.867 E0.11193
G1 X2.394 Y2.878 E0.30184
G1 X1.935 Y3.462 E0.07971
G1 X4.383 Y5.910 E0.37152
G1 X4.383 Y6.953 E0.11193
G1 X1.344 Y3.914 E0.46115
G1 X0.604 Y4.217 E0.08585
G1 X4.383 Y7.996 E0.57356
G1 X4.383 Y9.039 E0.11193
G1 X-0.355 Y4.301 E0.71906
G1 X-1.806 Y3.893 E0.16174
G1 X-4.383 Y1.316 E0.39106
G1 X-4.383 Y0.273 E0.11193
G1 X-2.808 Y1.848 E0.23903
G1 X-2.711 Y0.902 E0.10206
G1 X-4.383 Y-0.770 E0.25373
G1 X-4.326 Y-1.756 E0.10598
G1 X-2.407 Y0.164 E0.29126
G1 X-1.955 Y-0.427 E0.07984
G1 X-3.410 Y-1.883 E0.22088
G1 X-2.367 Y-1.883 E0.11193
G1 X-1.371 Y-0.886 E0.15121
G1 X-0.643 Y-1.201 E0.08512
G1 X-1.324 Y-1.883 E0.10340
G1 X-0.281 Y-1.883 E0.11193
G1 X0.280 Y-1.322 E0.08516
G1 E-4.00000 F1980.00000
G1 X-2.046 Y3.653 F4200.000
G1 E4.00000 F1980.00000
G1 F300
G1 X4.383 Y10.082 E0.97574
G1 X4.383 Y11.125 E0.11193
G1 X-4.383 Y2.359 E1.33032
G1 X-4.383 Y3.402 E0.11193
G1 X4.383 Y12.168 E1.33032
G1 X4.383 Y13.211 E0.11193
G1 X-4.383 Y4.445 E1.33032
G1 X-4.383 Y5.488 E0.11193
G1 X4.383 Y14.254 E1.33032
G1 X4.383 Y15.297 E0.11193
G1 X-4.383 Y6.531 E1.33032
G1 X-4.383 Y7.574 E0.11193
G1 X4.383 Y16.340 E1.33032
G1 X4.383 Y17.383 E0.11193
G1 X-4.383 Y8.617 E1.33032
G1 X-4.383 Y9.660 E0.11193
G1 X4.383 Y18.426 E1.33032
G1 X4.383 Y19.469 E0.11193
G1 X-4.383 Y10.703 E1.33032
G1 X-4.383 Y11.746 E0.11193
G1 X4.383 Y20.512 E1.33032
G1 X4.383 Y21.555 E0.11193
G1 X-4.383 Y12.789 E1.33032
G1 X-4.383 Y13.832 E0.11193
G1 X1.237 Y19.452 E0.85287
G1 X0.038 Y19.296 E0.12973
G1 X-4.383 Y14.875 E0.67094
G1 X-4.383 Y15.918 E0.11193
G1 X-0.852 Y19.449 E0.53590
G1 X-1.572 Y19.772 E0.08472
G1 X-4.383 Y16.961 E0.42653
G1 X-4.383 Y18.004 E0.11193
G1 X-2.167 Y20.219 E0.33622
G1 X-2.649 Y20.781 E0.07938
G1 X-4.383 Y19.047 E0.26312
G1 X-4.383 Y20.090 E0.11193
G1 X-3.008 Y21.465 E0.20861
G1 X-3.205 Y22.311 E0.09326
G1 X-4.383 Y21.133 E0.17880
G1 X-4.383 Y22.176 E0.11193
G1 X-3.109 Y23.450 E0.19328
G1 X-4.383 Y23.219 E0.13889
G1 X0.281 Y27.883 E0.70780
G1 X-0.762 Y27.883 E0.11193
G1 X-4.383 Y24.262 E0.54951
G1 X-4.383 Y25.305 E0.11193
G1 X-1.805 Y27.883 E0.39122
G1 X-2.848 Y27.883 E0.11193
G1 X-4.383 Y26.348 E0.23293
G1 X-4.352 Y27.422 E0.11531
G1 X-3.922 Y27.852 E0.06522
G1 X-0.935 Y25.624 F4200.000
G1 F300
G1 X1.324 Y27.883 E0.34287
G1 X2.367 Y27.883 E0.11193
G1 X0.185 Y25.701 E0.33118
G1 X1.029 Y25.501 E0.09305
G1 X3.410 Y27.883 E0.36140
G1 X4.326 Y27.756 E0.09922
G1 X1.723 Y25.153 E0.39505
G1 X2.293 Y24.680 E0.07950
G1 X4.383 Y26.770 E0.31708
G1 X4.383 Y25.727 E0.11193
G1 X2.737 Y24.081 E0.24976
G1 X3.058 Y23.358 E0.08482
G1 X4.383 Y24.684 E0.20113
G1 X4.383 Y23.641 E0.11193
G1 X3.215 Y22.473 E0.17718
G1 X4.383 Y22.598 E0.12600
G1 X3.017 Y21.232 E0.20725
G1 E-4.00000 F1980.00000
G1 X-1.019 Y-1.059 F4200.000
G1 E4.00000 F1980.00000
G1 F300
G1 X-0.935 Y-1.099 E-0.00102
G1 X-0.893 Y-1.144 E-0.00068
G1 X-0.668 Y-1.567 E-0.00523
G1 X0.240 Y-1.606 E-0.00994
G1 X1.079 Y-1.521 F4200.000
G1 F300
G1 X0.150 Y-1.603 E0.12556
G1 X-0.539 Y-1.581 E0.09280
G1 X-1.062 Y-1.505 E0.07116
G1 E-4.00000 F1980.00000
G1 Z0.550 F4200.000
G1 X0.730 Y20.253 F4200.000
G1 E4.00000 F1980.00000
G1 F900
G1 X1.266 Y20.505 E0.02251
G1 X1.723 Y20.882 E0.02251
G1 X2.071 Y21.362 E0.02251
G1 X2.289 Y21.912 E0.02251
G1 X2.363 Y22.500 E0.02251
G1 X2.289 Y23.088 E0.02251
G1 X2.071 Y23.638 E0.02251
G1 X1.723 Y24.118 E0.02251
G1 X1.266 Y24.495 E0.02251
G1 X0.730 Y24.747 E0.02251
G1 X0.148 Y24.858 E0.02251
G1 X-0.443 Y24.821 E0.02251
G1 X-1.006 Y24.638 E0.02251
G1 X-1.506 Y24.321 E0.02251
G1 X-1.912 Y23.889 E0.02251
G1 X-2.197 Y23.370 E0.02251
G1 X-2.344 Y22.796 E0.02251
G1 X-2.344 Y22.204 E0.02251
G1 X-2.197 Y21.630 E0.02251
G1 X-1.912 Y21.111 E0.02251
G1 X-1.506 Y20.679 E0.02251
G1 X-1.002 Y20.359 E0.02268
G1 X-0.417 Y20.177 E0.02330
G1 F900
G1 X0.148 Y20.142 E0.02153
G1 X0.679 Y20.243 E0.02052
G1 X0.588 Y20.691 F4200.000
G1 F900
G1 X1.019 Y20.894 E0.01812
G1 X1.387 Y21.198 E0.01812
G1 X1.667 Y21.584 E0.01812
G1 X1.843 Y22.027 E0.01812
G1 X1.902 Y22.500 E0.01812
G1 X1.843 Y22.973 E0.01812
G1 X1.667 Y23.416 E0.01812
G1 X1.387 Y23.802 E0.01812
G1 X1.019 Y24.106 E0.01812
G1 X0.588 Y24.309 E0.01812
G1 X0.119 Y24.399 E0.01812
G1 X-0.356 Y24.369 E0.01812
G1 X-0.810 Y24.221 E0.01812
G1 X-1.213 Y23.966 E0.01812
G1 X-1.539 Y23.618 E0.01812
G1 X-1.769 Y23.200 E0.01812
G1 X-1.887 Y22.738 E0.01812
G1 X-1.887 Y22.262 E0.01812
G1 X-1.769 Y21.800 E0.01812
G1 X-1.539 Y21.382 E0.01812
G1 X-1.213 Y21.034 E0.01812
G1 X-0.809 Y20.778 E0.01818
G1 X-0.334 Y20.630 E0.01891
G1 F900
G1 X0.119 Y20.601 E0.01725
G1 X0.536 Y20.681 E0.01613
G1 X0.588 Y20.691 F4200.000
G1 X0.123 Y3.459 F4200.000
G1 F900
G1 X-0.368 Y3.428 E0.01870
G1 X-0.836 Y3.276 E0.01870
G1 X-1.251 Y3.013 E0.01870
G1 X-1.588 Y2.654 E0.01870
G1 X-1.825 Y2.223 E0.01870
G1 X-1.948 Y1.746 E0.01870
G1 X-1.948 Y1.254 E0.01870
G1 X-1.825 Y0.777 E0.01870
G1 X-1.588 Y0.346 E0.01870
G1 X-1.251 Y-0.013 E0.01870
G1 X-0.836 Y-0.276 E0.01870
G1 X-0.368 Y-0.428 E0.01870
G1 F900
G1 X0.123 Y-0.459 E0.01870
G1 X0.607 Y-0.367 E0.01870
G1 X1.052 Y-0.157 E0.01870
G1 X1.431 Y0.156 E0.01870
G1 X1.720 Y0.554 E0.01870
G1 X1.901 Y1.012 E0.01870
G1 X1.963 Y1.500 E0.01870
G1 X1.901 Y1.988 E0.01870
G1 X1.720 Y2.446 E0.01870
G1 X1.431 Y2.844 E0.01870
G1 X1.052 Y3.157 E0.01870
G1 X0.607 Y3.367 E0.01870
G1 X0.175 Y3.449 E0.01671
G1 X0.094 Y2.999 F4200.000
G1 F900
G1 X-0.282 Y2.976 E0.01431
G1 X-0.640 Y2.859 E0.01431
G1 X-0.958 Y2.658 E0.01431
G1 X-1.215 Y2.383 E0.01431
G1 X-1.397 Y2.053 E0.01431
G1 X-1.491 Y1.688 E0.01431
G1 X-1.491 Y1.312 E0.01431
G1 X-1.397 Y0.947 E0.01431
G1 X-1.215 Y0.617 E0.01431
G1 X-0.958 Y0.342 E0.01431
G1 X-0.640 Y0.141 E0.01431
G1 X-0.282 Y0.024 E0.01431
G1 F900
G1 X0.094 Y0.001 E0.01431
G1 X0.464 Y0.071 E0.01431
G1 X0.805 Y0.231 E0.01431
G1 X1.095 Y0.472 E0.01431
G1 X1.317 Y0.776 E0.01431
G1 X1.455 Y1.126 E0.01431
G1 X1.502 Y1.500 E0.01431
G1 X1.455 Y1.874 E0.01431
G1 X1.317 Y2.224 E0.01431
G1 X1.095 Y2.528 E0.01431
G1 X0.805 Y2.769 E0.01431
G1 X0.464 Y2.929 E0.01431
G1 X0.146 Y2.990 E0.01232
G1 X0.094 Y2.999 F4200.000
G1 X5.243 Y2.999 F4200.000
G1 F900
G1 X5.243 Y27.450 E0.92929
G1 X5.194 Y27.820 E0.01417
G1 X5.071 Y28.118 E0.01227
G1 X4.874 Y28.374 E0.01227
G1 X4.618 Y28.571 E0.01227
G1 X4.320 Y28.694 E0.01227
G1 X3.950 Y28.743 E0.01417
G1 X-3.950 Y28.743 E0.30028
G1 X-4.319 Y28.694 E0.01414
G1 X-4.621 Y28.569 E0.01240
G1 X-4.874 Y28.374 E0.01215
G1 X-5.071 Y28.118 E0.01227
G1 X-5.194 Y27.820 E0.01227
G1 X-5.243 Y27.450 E0.01417
G1 X-5.243 Y-1.450 E1.09841
G1 X-5.194 Y-1.820 E0.01417
G1 X-5.071 Y-2.118 E0.01227
G1 X-4.874 Y-2.374 E0.01227
G1 X-4.618 Y-2.571 E0.01227
G1 X-4.320 Y-2.694 E0.01227
G1 X-3.950 Y-2.743 E0.01417
G1 X3.957 Y-2.742 E0.30054
G1 F900
G1 X4.320 Y-2.694 E0.01391
G1 X4.618 Y-2.571 E0.01227
G1 X4.874 Y-2.374 E0.01227
G1 X5.071 Y-2.118 E0.01227
G1 X5.194 Y-1.820 E0.01227
G1 X5.243 Y-1.450 E0.01417
G1 X5.243 Y2.947 E0.16713
G1 X5.700 Y2.999 F4200.000
G1 F900
G1 X5.700 Y27.480 E0.93043
G1 X5.640 Y27.939 E0.01760
G1 X5.470 Y28.349 E0.01684
G1 X5.200 Y28.700 E0.01684
G1 X4.849 Y28.970 E0.01684
G1 X4.439 Y29.140 E0.01684
G1 X3.980 Y29.200 E0.01759
G1 X-3.980 Y29.200 E0.30256
G1 X-4.439 Y29.140 E0.01759
G1 X-4.851 Y28.968 E0.01697
G1 X-5.200 Y28.700 E0.01671
G1 X-5.470 Y28.349 E0.01684
G1 X-5.640 Y27.939 E0.01684
G1 X-5.700 Y27.480 E0.01759
G1 X-5.700 Y-1.480 E1.10069
G1 X-5.640 Y-1.939 E0.01759
G1 X-5.470 Y-2.349 E0.01684
G1 X-5.200 Y-2.700 E0.01684
G1 X-4.849 Y-2.970 E0.01684
G1 X-4.439 Y-3.140 E0.01684
G1 X-3.980 Y-3.200 E0.01759
G1 X3.987 Y-3.199 E0.30282
G1 F900
G1 X4.439 Y-3.140 E0.01733
G1 X4.849 Y-2.970 E0.01684
G1 X5.200 Y-2.700 E0.01684
G1 X5.470 Y-2.349 E0.01684
G1 X5.640 Y-1.939 E0.01684
G1 X5.700 Y-1.480 E0.01760
G1 X5.700 Y2.947 E0.16826
G1 X5.398 Y3.176 F4200.000
G1 X4.971 Y12.624 F4200.000
G1 F600
G1 X-4.971 Y22.567 E0.54274
G1 X-4.971 Y21.910 E0.02534
G1 X4.971 Y11.967 E0.54274
G1 X4.971 Y11.311 E0.02534
G1 X-4.971 Y21.254 E0.54274
G1 X-4.971 Y20.597 E0.02534
G1 X4.971 Y10.654 E0.54274
G1 X4.971 Y9.998 E0.02534
G1 X-4.971 Y19.941 E0.54274
G1 X-4.971 Y19.284 E0.02534
G1 X4.971 Y9.342 E0.54274
G1 X4.971 Y8.685 E0.02534
G1 X-4.971 Y18.628 E0.54274
G1 X-4.971 Y17.971 E0.02534
G1 X4.971 Y8.029 E0.54274
G1 X4.971 Y7.372 E0.02534
G1 X-4.971 Y17.315 E0.54274
G1 X-4.971 Y16.658 E0.02534
G1 X4.971 Y6.716 E0.54274
G1 X4.971 Y6.059 E0.02534
G1 X-4.971 Y16.002 E0.54274
G1 X-4.971 Y15.345 E0.02534
