; generated by Slic3r 1.3.0-dev on 2016-03-28 at 14:56:30

; external perimeters extrusion width = 0.50mm
; perimeters extrusion width = 0.50mm
; infill extrusion width = 0.50mm
; solid infill extrusion width = 0.50mm
; top infill extrusion width = 0.50mm

M107
M190 S57 ; set bed temperature and wait for it to be reached
G28        ; Home all axes
M83;
G10 P0 S195 R160                       ; Set tool 0 operating and standby temperatures
T0

G21 ; set units to millimeters
G90 ; use absolute coordinates
M83 ; use relative distances for extrusion
G1 E-3.50000 F2400.00000
G1 Z0.500 F9000.000
G1 X28.392 Y55.035 F9000.000
G1 E3.50000 F2400.00000
G1 F1200
G1 X29.090 Y54.691 E0.11207
G1 X29.536 Y54.506 E0.06955
G1 X30.273 Y54.256 E0.11207
G1 X30.740 Y54.131 E0.06956
G1 X31.503 Y53.979 E0.11207
G1 X31.982 Y53.916 E0.06955
G1 X33.000 Y53.857 E0.14685
G1 X171.000 Y53.857 E19.87137
G1 X172.018 Y53.916 E0.14685
G1 X172.497 Y53.979 E0.06955
G1 X173.260 Y54.131 E0.11207
G1 X173.727 Y54.256 E0.06956
G1 X174.464 Y54.506 E0.11207
G1 X174.910 Y54.691 E0.06952
G1 X175.608 Y55.035 E0.11211
G1 X176.026 Y55.277 E0.06955
G1 X176.916 Y55.886 E0.15517
G1 X189.244 Y65.656 E2.26507
G1 X190.300 Y66.997 E0.24581
G1 X190.643 Y68.550 E0.22902
G1 X190.643 Y131.450 E9.05731
G1 X190.248 Y133.111 E0.24581
G1 X189.244 Y134.344 E0.22902
G1 X176.674 Y144.291 E2.30816
G1 X176.026 Y144.723 E0.11207
G1 X175.608 Y144.965 E0.06955
G1 X174.910 Y145.309 E0.11214
G1 X174.464 Y145.494 E0.06948
G1 X173.727 Y145.744 E0.11207
G1 X173.260 Y145.869 E0.06955
G1 X172.497 Y146.021 E0.11207
G1 X172.018 Y146.084 E0.06956
G1 X171.000 Y146.143 E0.14685
G1 X33.000 Y146.143 E19.87137
G1 X31.982 Y146.084 E0.14685
G1 X31.503 Y146.021 E0.06956
G1 X30.740 Y145.869 E0.11207
G1 X30.273 Y145.744 E0.06955
G1 X29.536 Y145.494 E0.11207
G1 X29.090 Y145.309 E0.06955
G1 X28.123 Y144.818 E0.15619
G1 X11.148 Y134.615 E2.85187
G1 X9.927 Y133.421 E0.24581
G1 X9.357 Y131.450 E0.29548
G1 X9.357 Y68.550 E9.05731
G1 X9.752 Y66.889 E0.24581
G1 X11.148 Y65.385 E0.29548
G1 X28.326 Y55.071 E2.88518
G1 E-3.50000 F2400.00000
G1 X167.873 Y136.105 F9000.000
G1 E3.50000 F2400.00000
G1 F900
G1 X168.056 Y135.391 E0.10619
G1 X168.443 Y134.655 E0.11966
G1 X168.991 Y134.072 E0.11527
G1 X169.667 Y133.643 E0.11528
G1 X170.462 Y133.401 E0.11966
G1 F900
G1 X171.198 Y133.354 E0.10618
G1 X171.974 Y133.502 E0.11376
G1 X172.689 Y133.839 E0.11376
G1 X173.298 Y134.342 E0.11376
G1 X173.762 Y134.982 E0.11376
G1 X174.053 Y135.716 E0.11377
G1 X174.152 Y136.500 E0.11376
G1 X174.053 Y137.284 E0.11376
G1 X173.762 Y138.018 E0.11376
G1 X173.298 Y138.658 E0.11376
G1 X172.689 Y139.161 E0.11376
G1 X171.974 Y139.498 E0.11376
G1 X171.198 Y139.646 E0.11376
G1 X170.409 Y139.596 E0.11376
G1 X169.658 Y139.352 E0.11377
G1 X168.991 Y138.928 E0.11376
G1 X168.450 Y138.353 E0.11376
G1 X168.095 Y137.706 E0.10619
G1 X167.873 Y136.906 E0.11966
G1 X167.873 Y136.180 E0.10447
G1 X168.566 Y136.192 F9000.000
G1 F900
G1 X168.707 Y135.641 E0.08194
G1 X169.012 Y135.061 E0.09445
G1 X169.436 Y134.609 E0.08912
G1 X169.959 Y134.278 E0.08911
G1 X170.586 Y134.087 E0.09446
G1 F900
G1 X171.154 Y134.051 E0.08194
G1 X171.758 Y134.167 E0.08856
G1 X172.315 Y134.428 E0.08856
G1 X172.789 Y134.820 E0.08856
G1 X173.150 Y135.318 E0.08856
G1 X173.376 Y135.890 E0.08856
G1 X173.454 Y136.500 E0.08856
G1 X173.376 Y137.110 E0.08856
G1 X173.150 Y137.682 E0.08856
G1 X172.789 Y138.180 E0.08856
G1 X172.315 Y138.572 E0.08856
G1 X171.758 Y138.833 E0.08856
G1 X171.154 Y138.949 E0.08856
G1 X170.540 Y138.910 E0.08856
G1 X169.955 Y138.720 E0.08857
G1 X169.436 Y138.391 E0.08856
G1 X169.015 Y137.942 E0.08856
G1 X168.741 Y137.443 E0.08194
G1 X168.566 Y136.811 E0.09445
G1 X168.566 Y136.267 E0.07831
G1 X168.566 Y136.192 F9000.000
G1 X171.198 Y66.646 F9000.000
G1 F900
G1 X170.409 Y66.596 E0.11376
G1 X169.658 Y66.352 E0.11377
G1 X168.991 Y65.928 E0.11376
G1 X168.450 Y65.353 E0.11376
G1 X168.095 Y64.706 E0.10619
G1 X167.873 Y63.906 E0.11966
G1 X167.873 Y63.105 E0.11527
G1 X168.056 Y62.391 E0.10619
G1 X168.443 Y61.655 E0.11966
G1 X168.991 Y61.072 E0.11527
G1 X169.667 Y60.643 E0.11527
G1 X170.462 Y60.401 E0.11966
G1 F900
G1 X171.198 Y60.354 E0.10619
G1 X171.974 Y60.502 E0.11376
G1 X172.689 Y60.839 E0.11376
G1 X173.298 Y61.342 E0.11376
G1 X173.762 Y61.982 E0.11376
G1 X174.053 Y62.716 E0.11376
G1 X174.152 Y63.500 E0.11376
G1 X174.053 Y64.284 E0.11376
G1 X173.762 Y65.018 E0.11376
G1 X173.298 Y65.658 E0.11376
G1 X172.689 Y66.161 E0.11376
G1 X171.974 Y66.498 E0.11376
G1 X171.272 Y66.632 E0.10296
G1 X171.154 Y65.949 F9000.000
G1 F900
G1 X170.540 Y65.910 E0.08856
G1 X169.955 Y65.720 E0.08856
G1 X169.436 Y65.391 E0.08856
G1 X169.015 Y64.942 E0.08856
G1 X168.741 Y64.443 E0.08194
G1 X168.566 Y63.811 E0.09445
G1 X168.566 Y63.192 E0.08911
G1 X168.707 Y62.641 E0.08194
G1 X169.012 Y62.061 E0.09445
G1 X169.436 Y61.609 E0.08911
G1 X169.959 Y61.278 E0.08911
G1 X170.586 Y61.087 E0.09446
G1 F900
G1 X171.154 Y61.051 E0.08194
G1 X171.758 Y61.167 E0.08856
G1 X172.315 Y61.428 E0.08856
G1 X172.789 Y61.820 E0.08856
G1 X173.150 Y62.318 E0.08856
G1 X173.376 Y62.890 E0.08856
G1 X173.454 Y63.500 E0.08856
G1 X173.376 Y64.110 E0.08856
G1 X173.150 Y64.682 E0.08856
G1 X172.789 Y65.180 E0.08856
G1 X172.315 Y65.572 E0.08856
G1 X171.758 Y65.833 E0.08856
G1 X171.228 Y65.935 E0.07776
G1 X171.154 Y65.949 F9000.000
G1 E-3.50000 F2400.00000
G1 X36.152 Y63.500 F9000.000
G1 E3.50000 F2400.00000
G1 F900
G1 X36.053 Y64.284 E0.11376
G1 X35.762 Y65.018 E0.11376
G1 X35.298 Y65.658 E0.11376
G1 X34.689 Y66.161 E0.11376
G1 X33.974 Y66.498 E0.11376
G1 X33.198 Y66.646 E0.11376
G1 X32.409 Y66.596 E0.11376
G1 X31.658 Y66.352 E0.11376
G1 X30.991 Y65.928 E0.11376
G1 X30.450 Y65.353 E0.11376
G1 X30.070 Y64.660 E0.11376
G1 X29.873 Y63.895 E0.11376
G1 X29.873 Y63.105 E0.11376
G1 X30.070 Y62.340 E0.11376
G1 X30.450 Y61.647 E0.11376
G1 X30.991 Y61.072 E0.11376
G1 X31.667 Y60.643 E0.11527
G1 X32.462 Y60.401 E0.11966
G1 F900
G1 X33.198 Y60.354 E0.10619
G1 X33.974 Y60.502 E0.11376
G1 X34.689 Y60.839 E0.11376
G1 X35.298 Y61.342 E0.11376
G1 X35.762 Y61.982 E0.11376
G1 X36.053 Y62.716 E0.11376
G1 X36.142 Y63.426 E0.10296
G1 X35.454 Y63.500 F9000.000
G1 F900
G1 X35.376 Y64.110 E0.08856
G1 X35.150 Y64.682 E0.08856
G1 X34.789 Y65.180 E0.08856
G1 X34.315 Y65.572 E0.08856
G1 X33.758 Y65.833 E0.08856
G1 X33.154 Y65.949 E0.08856
G1 X32.540 Y65.910 E0.08856
G1 X31.955 Y65.720 E0.08856
G1 X31.436 Y65.391 E0.08856
G1 X31.015 Y64.942 E0.08856
G1 X30.719 Y64.403 E0.08856
G1 X30.566 Y63.808 E0.08856
G1 X30.566 Y63.192 E0.08856
G1 X30.719 Y62.597 E0.08856
G1 X31.015 Y62.058 E0.08856
G1 X31.436 Y61.609 E0.08856
G1 X31.959 Y61.278 E0.08911
G1 X32.586 Y61.087 E0.09445
G1 F900
G1 X33.154 Y61.051 E0.08194
G1 X33.758 Y61.167 E0.08856
G1 X34.315 Y61.428 E0.08856
G1 X34.789 Y61.820 E0.08856
G1 X35.150 Y62.318 E0.08856
G1 X35.376 Y62.890 E0.08856
G1 X35.444 Y63.426 E0.07776
G1 X35.454 Y63.500 F9000.000
G1 X33.198 Y133.354 F9000.000
G1 F900
G1 X33.974 Y133.502 E0.11376
G1 X34.689 Y133.839 E0.11376
G1 X35.298 Y134.342 E0.11376
G1 X35.762 Y134.982 E0.11376
G1 X36.053 Y135.716 E0.11376
G1 X36.152 Y136.500 E0.11376
G1 X36.053 Y137.284 E0.11376
G1 X35.762 Y138.018 E0.11376
G1 X35.298 Y138.658 E0.11376
G1 X34.689 Y139.161 E0.11376
G1 X33.974 Y139.498 E0.11376
G1 X33.198 Y139.646 E0.11376
G1 X32.409 Y139.596 E0.11376
G1 X31.658 Y139.352 E0.11376
G1 X30.991 Y138.928 E0.11376
G1 X30.450 Y138.353 E0.11376
G1 X30.070 Y137.660 E0.11376
G1 X29.873 Y136.895 E0.11376
G1 X29.873 Y136.105 E0.11376
G1 X30.070 Y135.340 E0.11376
G1 X30.450 Y134.647 E0.11376
G1 X30.991 Y134.072 E0.11376
G1 X31.667 Y133.643 E0.11527
G1 X32.462 Y133.401 E0.11966
G1 F900
G1 X33.123 Y133.359 E0.09539
G1 X33.154 Y134.051 F9000.000
G1 F900
G1 X33.758 Y134.167 E0.08856
G1 X34.315 Y134.428 E0.08856
G1 X34.789 Y134.820 E0.08856
G1 X35.150 Y135.318 E0.08856
G1 X35.376 Y135.890 E0.08856
G1 X35.454 Y136.500 E0.08856
G1 X35.376 Y137.110 E0.08856
G1 X35.150 Y137.682 E0.08856
G1 X34.789 Y138.180 E0.08856
G1 X34.315 Y138.572 E0.08856
G1 X33.758 Y138.833 E0.08856
G1 X33.154 Y138.949 E0.08856
G1 X32.540 Y138.910 E0.08856
G1 X31.955 Y138.720 E0.08856
G1 X31.436 Y138.391 E0.08856
G1 X31.015 Y137.942 E0.08856
G1 X30.719 Y137.403 E0.08856
G1 X30.566 Y136.808 E0.08856
G1 X30.566 Y136.192 E0.08856
G1 X30.719 Y135.597 E0.08856
G1 X31.015 Y135.058 E0.08856
G1 X31.436 Y134.609 E0.08856
G1 X31.959 Y134.278 E0.08911
G1 X32.586 Y134.087 E0.09445
G1 F900
G1 X33.079 Y134.056 E0.07114
G1 X33.154 Y134.051 F9000.000
G1 X37.857 Y130.357 F9000.000
G1 F900
G1 X37.857 Y136.463 E0.87913
G1 X37.813 Y137.134 E0.09684
G1 X37.689 Y137.757 E0.09144
G1 X37.485 Y138.358 E0.09144
G1 X37.204 Y138.927 E0.09144
G1 X36.852 Y139.455 E0.09144
G1 X36.433 Y139.933 E0.09144
G1 X35.955 Y140.352 E0.09144
G1 X35.427 Y140.704 E0.09144
G1 X34.858 Y140.985 E0.09144
G1 X34.257 Y141.189 E0.09144
G1 X33.634 Y141.313 E0.09144
G1 X33.000 Y141.355 E0.09144
G1 X32.366 Y141.313 E0.09144
G1 X31.743 Y141.189 E0.09144
G1 X31.142 Y140.985 E0.09144
G1 X30.573 Y140.704 E0.09145
G1 X30.045 Y140.352 E0.09144
G1 X29.567 Y139.933 E0.09144
G1 X29.148 Y139.455 E0.09144
G1 X28.796 Y138.927 E0.09144
G1 X28.515 Y138.358 E0.09144
G1 X28.311 Y137.757 E0.09144
G1 X28.187 Y137.134 E0.09144
G1 X28.143 Y136.463 E0.09684
G1 X28.143 Y130.357 E0.87913
G1 X14.143 Y130.357 E2.01594
G1 X14.143 Y69.643 E8.74262
G1 X28.143 Y69.643 E2.01594
G1 X28.143 Y63.537 E0.87913
G1 X28.187 Y62.866 E0.09684
G1 X28.311 Y62.243 E0.09144
G1 X28.515 Y61.642 E0.09144
G1 X28.796 Y61.073 E0.09144
G1 X29.148 Y60.545 E0.09144
G1 X29.567 Y60.067 E0.09144
G1 X30.045 Y59.648 E0.09144
G1 X30.573 Y59.296 E0.09144
G1 X31.142 Y59.015 E0.09144
G1 X31.743 Y58.811 E0.09144
G1 X32.363 Y58.687 E0.09099
G1 X33.033 Y58.647 E0.09658
G1 X33.634 Y58.687 E0.08672
G1 X34.257 Y58.811 E0.09144
G1 X34.858 Y59.015 E0.09144
G1 X35.398 Y59.281 E0.08672
G1 X35.958 Y59.650 E0.09658
G1 X36.433 Y60.067 E0.09099
G1 X36.852 Y60.545 E0.09144
G1 X37.204 Y61.073 E0.09144
G1 X37.485 Y61.642 E0.09144
G1 X37.689 Y62.243 E0.09144
G1 X37.813 Y62.866 E0.09144
G1 X37.857 Y63.537 E0.09684
G1 X37.857 Y69.643 E0.87913
G1 X166.143 Y69.643 E18.47251
G1 X166.143 Y63.537 E0.87913
G1 X166.187 Y62.866 E0.09684
G1 X166.311 Y62.243 E0.09144
G1 X166.515 Y61.642 E0.09144
G1 X166.796 Y61.073 E0.09144
G1 X167.148 Y60.545 E0.09145
G1 X167.567 Y60.067 E0.09144
G1 X168.045 Y59.648 E0.09144
G1 X168.573 Y59.296 E0.09144
G1 X169.142 Y59.015 E0.09145
G1 X169.743 Y58.811 E0.09144
G1 X170.363 Y58.687 E0.09099
G1 X171.033 Y58.647 E0.09658
G1 X171.634 Y58.687 E0.08672
G1 X172.257 Y58.811 E0.09144
G1 X172.858 Y59.015 E0.09144
G1 X173.427 Y59.296 E0.09144
G1 X173.955 Y59.648 E0.09144
G1 X174.433 Y60.067 E0.09144
G1 X174.852 Y60.545 E0.09144
G1 X175.204 Y61.073 E0.09145
G1 X175.485 Y61.642 E0.09144
G1 X175.689 Y62.243 E0.09144
G1 X175.813 Y62.866 E0.09144
G1 X175.857 Y63.537 E0.09684
G1 X175.857 Y69.643 E0.87913
G1 X185.857 Y69.643 E1.43995
G1 X185.857 Y130.357 E8.74262
G1 X175.857 Y130.357 E1.43995
G1 X175.857 Y136.459 E0.87868
G1 X175.807 Y137.166 E0.10198
G1 X175.689 Y137.757 E0.08672
G1 X175.485 Y138.358 E0.09144
G1 X175.204 Y138.927 E0.09144
G1 X174.870 Y139.428 E0.08672
G1 X174.431 Y139.935 E0.09658
G1 X173.955 Y140.352 E0.09099
G1 X173.427 Y140.704 E0.09144
G1 X172.858 Y140.985 E0.09144
G1 X172.257 Y141.189 E0.09145
G1 X171.634 Y141.313 E0.09144
G1 X171.000 Y141.355 E0.09144
G1 X170.366 Y141.313 E0.09144
G1 X169.743 Y141.189 E0.09144
G1 X169.142 Y140.985 E0.09144
G1 X168.573 Y140.704 E0.09145
G1 X168.072 Y140.370 E0.08672
G1 X167.565 Y139.931 E0.09658
G1 X167.148 Y139.455 E0.09099
G1 X166.796 Y138.927 E0.09144
G1 X166.515 Y138.358 E0.09144
G1 X166.311 Y137.757 E0.09144
G1 X166.187 Y137.134 E0.09144
G1 X166.143 Y136.463 E0.09684
G1 X166.143 Y130.357 E0.87913
G1 X37.932 Y130.357 E18.46171
G1 X38.550 Y131.050 F9000.000
G1 F900
G1 X38.550 Y136.485 E0.78265
G1 X38.502 Y137.224 E0.10665
G1 X38.360 Y137.936 E0.10452
G1 X38.127 Y138.624 E0.10452
G1 X37.806 Y139.275 E0.10452
G1 X37.402 Y139.878 E0.10452
G1 X36.924 Y140.424 E0.10452
G1 X36.378 Y140.902 E0.10452
G1 X35.775 Y141.306 E0.10452
G1 X35.124 Y141.627 E0.10452
G1 X34.436 Y141.860 E0.10452
G1 X33.724 Y142.002 E0.10452
G1 X33.000 Y142.049 E0.10452
G1 X32.276 Y142.002 E0.10452
G1 X31.564 Y141.860 E0.10452
G1 X30.876 Y141.627 E0.10452
G1 X30.225 Y141.306 E0.10452
G1 X29.622 Y140.902 E0.10452
G1 X29.076 Y140.424 E0.10452
G1 X28.598 Y139.878 E0.10452
G1 X28.194 Y139.275 E0.10452
G1 X27.873 Y138.624 E0.10452
G1 X27.640 Y137.936 E0.10452
G1 X27.498 Y137.224 E0.10452
G1 X27.450 Y136.485 E0.10664
G1 X27.450 Y131.050 E0.78265
G1 X13.450 Y131.050 E2.01594
G1 X13.450 Y68.950 E8.94211
G1 X27.450 Y68.950 E2.01594
G1 X27.450 Y63.515 E0.78265
G1 X27.498 Y62.776 E0.10664
G1 X27.640 Y62.064 E0.10452
G1 X27.873 Y61.376 E0.10452
G1 X28.194 Y60.725 E0.10452
G1 X28.598 Y60.122 E0.10452
G1 X29.076 Y59.576 E0.10452
G1 X29.622 Y59.098 E0.10452
G1 X30.225 Y58.694 E0.10452
G1 X30.876 Y58.373 E0.10452
G1 X31.564 Y58.140 E0.10452
G1 X32.275 Y57.999 E0.10435
G1 X33.035 Y57.953 E0.10966
G1 X33.724 Y57.998 E0.09951
G1 X34.436 Y58.140 E0.10452
G1 X35.124 Y58.373 E0.10452
G1 X35.743 Y58.679 E0.09951
G1 X36.379 Y59.098 E0.10966
G1 X36.924 Y59.576 E0.10435
G1 X37.402 Y60.122 E0.10452
G1 X37.806 Y60.725 E0.10452
G1 X38.127 Y61.376 E0.10452
G1 X38.360 Y62.064 E0.10452
G1 X38.502 Y62.776 E0.10452
G1 X38.550 Y63.515 E0.10664
G1 X38.550 Y68.950 E0.78265
G1 X165.450 Y68.950 E18.27302
G1 X165.450 Y63.515 E0.78265
G1 X165.498 Y62.776 E0.10664
G1 X165.640 Y62.064 E0.10452
G1 X165.873 Y61.376 E0.10452
G1 X166.194 Y60.725 E0.10452
G1 X166.598 Y60.122 E0.10452
G1 X167.076 Y59.576 E0.10452
G1 X167.622 Y59.098 E0.10452
G1 X168.225 Y58.694 E0.10452
G1 X168.876 Y58.373 E0.10452
G1 X169.564 Y58.140 E0.10452
G1 X170.275 Y57.999 E0.10435
G1 X171.035 Y57.953 E0.10965
G1 X171.724 Y57.998 E0.09951
G1 X172.436 Y58.140 E0.10452
G1 X173.124 Y58.373 E0.10452
G1 X173.775 Y58.694 E0.10452
G1 X174.378 Y59.098 E0.10452
G1 X174.924 Y59.576 E0.10452
G1 X175.402 Y60.122 E0.10452
G1 X175.806 Y60.725 E0.10452
G1 X176.127 Y61.376 E0.10452
G1 X176.360 Y62.064 E0.10452
G1 X176.502 Y62.776 E0.10452
G1 X176.550 Y63.515 E0.10664
G1 X176.550 Y68.950 E0.78265
G1 X186.550 Y68.950 E1.43995
G1 X186.550 Y131.050 E8.94211
G1 X176.550 Y131.050 E1.43995
G1 X176.550 Y136.484 E0.78249
G1 X176.495 Y137.258 E0.11178
G1 X176.360 Y137.936 E0.09951
G1 X176.127 Y138.624 E0.10452
G1 X175.806 Y139.275 E0.10452
G1 X175.422 Y139.849 E0.09951
G1 X174.923 Y140.425 E0.10966
G1 X174.378 Y140.902 E0.10435
G1 X173.775 Y141.306 E0.10452
G1 X173.124 Y141.627 E0.10452
G1 X172.436 Y141.860 E0.10452
G1 X171.724 Y142.002 E0.10452
G1 X171.000 Y142.049 E0.10452
G1 X170.276 Y142.002 E0.10452
G1 X169.564 Y141.860 E0.10452
G1 X168.876 Y141.627 E0.10452
G1 X168.225 Y141.306 E0.10452
G1 X167.651 Y140.922 E0.09951
G1 X167.075 Y140.423 E0.10965
G1 X166.598 Y139.878 E0.10435
G1 X166.194 Y139.275 E0.10452
G1 X165.873 Y138.624 E0.10452
G1 X165.640 Y137.936 E0.10452
G1 X165.498 Y137.224 E0.10452
G1 X165.450 Y136.485 E0.10665
G1 X165.450 Y131.050 E0.78265
G1 X38.625 Y131.050 E18.26222
G1 X38.050 Y131.043 F9000.000
G1 X37.031 Y136.238 F9000.000
G1 F600
G1 X36.956 Y137.021 E0.14592
G1 X36.859 Y137.556 E0.10094
G1 X36.686 Y138.027 E0.09308
G1 X36.476 Y138.483 E0.09320
G1 X36.166 Y138.929 E0.10083
G1 X35.957 Y139.191 E0.06210
G1 X35.828 Y139.328 E0.03495
G1 X35.195 Y139.841 E0.15127
G1 X34.998 Y139.961 E0.04270
G1 X34.528 Y140.188 E0.09697
G1 X34.295 Y140.282 E0.04660
G1 X34.034 Y140.359 E0.05046
G1 X33.521 Y140.459 E0.09696
G1 X33.188 Y140.494 E0.06210
G1 X32.313 Y140.439 E0.16285
G1 X31.967 Y140.357 E0.06598
G1 X31.471 Y140.192 E0.09696
G1 X31.004 Y139.957 E0.09695
G1 X30.566 Y139.672 E0.09697
G1 X30.178 Y139.322 E0.09697
G1 X29.827 Y138.935 E0.09700
G1 X29.729 Y138.799 E0.03108
G1 X29.544 Y138.495 E0.06598
G1 X29.303 Y138.032 E0.09703
G1 X29.146 Y137.533 E0.09702
G1 X29.031 Y137.023 E0.09705
G1 X29.002 Y136.270 E0.13985
G1 X29.002 Y63.730 F9000.000
G1 F600
G1 X29.031 Y62.977 E0.13984
G1 X29.146 Y62.467 E0.09705
G1 X29.303 Y61.968 E0.09703
